(.../pcb-gcode-3.6.2.4/pcb-gcode.ulp)
(Copyright 2005 - 2012 by John Johnson)
(See readme.txt for licensing terms.)
(This file generated from the board:)
(.../eagle/C1LabsBlinky/C1LabsBlinky.brd)
(Current profile is .../pcb-gcode-3.6.2.4/profiles/generic.pp  )
(This file generated 4/24/15 9:29 AM)
(Settings from pcb-machine.h)
(spindle on time = 3.0000)
(spindle speed = 20000.0000)
(tool change at 0.0000 0.0000 1.0000 )
(feed rate xy = F0.00  )
(feed rate z  = F20.00 )
(Z Axis Settings)
(  High     Up        Down     Drill)
(0.5000 	0.1000 	-0.0070 	-0.0320 )
(Settings from pcb-defaults.h)
(isolate min = 0.0010)
(isolate max = 0.0200)
(isolate step = 0.0050)
(Generated top outlines, top drill, bottom outlines, bottom drill, )
(Unit of measure: inch)
( Tool|       Size       |  Min Sub |  Max Sub |   Count )
( T01  0.700mm 0.0276in 0.0000in 0.0000in )
( T02  0.813mm 0.0320in 0.0000in 0.0000in )
( T03  0.900mm 0.0354in 0.0000in 0.0000in )
( T04  1.100mm 0.0433in 0.0000in 0.0000in )
( T05  2.500mm 0.0984in 0.0000in 0.0000in )
(Inch Mode)
G20
(Absolute Coordinates)
G90
S20000
G00 Z0.5000 
G00 X0.0000 Y0.0000 
M03
G04 P3.000000
M05
G00 Z1.0000 
M06 T01  ; 0.0276 
G01 Z0.0000 F20.00 
M06 
G00 Z0.1000 
M03
G04 P3.000000
G00 Z0.100000
G00 X-0.5500 Y0.5500 
G01 Z-0.0320 F20.00 
G01 Z0.100000
(R0.1000  P1.000000)
G00 X-0.5500 Y0.6500 
G01 Z-0.032000
G01 Z0.100000
M05
G00 Z1.0000 
G00 X0.0000 Y0.0000 
M06 T02  ; 0.0320 
G01 Z0.0000 F20.00 
M06 
G00 Z0.1000 
M03
G04 P3.000000
G00 Z0.100000
G00 X-0.3500 Y0.1500 
G01 Z-0.0320 F20.00 
G01 Z0.100000
(R0.1000  P1.000000)
G00 X-0.3500 Y0.2500 
G01 Z-0.032000
G01 Z0.100000
G00 X-0.3500 Y0.3500 
G01 Z-0.032000
G01 Z0.100000
G00 X-0.7500 Y0.3500 
G01 Z-0.032000
G01 Z0.100000
G00 X-0.7500 Y0.2500 
G01 Z-0.032000
G01 Z0.100000
G00 X-0.8500 Y0.2500 
G01 Z-0.032000
G01 Z0.100000
G00 X-0.8500 Y0.3500 
G01 Z-0.032000
G01 Z0.100000
G00 X-0.8500 Y0.4500 
G01 Z-0.032000
G01 Z0.100000
G00 X-0.8500 Y0.5500 
G01 Z-0.032000
G01 Z0.100000
G00 X-0.7000 Y0.5500 
G01 Z-0.032000
G01 Z0.100000
G00 X-0.7000 Y0.6500 
G01 Z-0.032000
G01 Z0.100000
G00 X-1.1500 Y0.5500 
G01 Z-0.032000
G01 Z0.100000
G00 X-1.1500 Y0.4500 
G01 Z-0.032000
G01 Z0.100000
G00 X-1.1500 Y0.3500 
G01 Z-0.032000
G01 Z0.100000
G00 X-1.1500 Y0.2500 
G01 Z-0.032000
G01 Z0.100000
G00 X-1.2500 Y0.3000 
G01 Z-0.032000
G01 Z0.100000
G00 X-1.2500 Y0.4000 
G01 Z-0.032000
G01 Z0.100000
G00 X-1.2500 Y0.5000 
G01 Z-0.032000
G01 Z0.100000
G00 X-1.6500 Y0.5000 
G01 Z-0.032000
G01 Z0.100000
G00 X-1.6500 Y0.4000 
G01 Z-0.032000
G01 Z0.100000
G00 X-1.6500 Y0.3000 
G01 Z-0.032000
G01 Z0.100000
G00 X-0.7500 Y0.1500 
G01 Z-0.032000
G01 Z0.100000
M05
G00 Z1.0000 
G00 X0.0000 Y0.0000 
M06 T03  ; 0.0354 
G01 Z0.0000 F20.00 
M06 
G00 Z0.1000 
M03
G04 P3.000000
G00 Z0.100000
G00 X-0.3000 Y0.4600 
G01 Z-0.0320 F20.00 
G01 Z0.100000
(R0.1000  P1.000000)
G00 X-0.4000 Y0.4600 
G01 Z-0.032000
G01 Z0.100000
G00 X-0.4000 Y0.7400 
G01 Z-0.032000
G01 Z0.100000
G00 X-0.3000 Y0.7400 
G01 Z-0.032000
G01 Z0.100000
M05
G00 Z1.0000 
G00 X0.0000 Y0.0000 
M06 T04  ; 0.0433 
G01 Z0.0000 F20.00 
M06 
G00 Z0.1000 
M03
G04 P3.000000
G00 Z0.100000
G00 X-0.1000 Y0.3114 
G01 Z-0.0320 F20.00 
G01 Z0.100000
(R0.1000  P1.000000)
G00 X-0.1000 Y0.4886 
G01 Z-0.032000
G01 Z0.100000
M05
G00 Z1.0000 
G00 X0.0000 Y0.0000 
M06 T05  ; 0.0984 
G01 Z0.0000 F20.00 
M06 
G00 Z0.1000 
M03
G04 P3.000000
G00 Z0.100000
G00 X-0.1000 Y0.1756 
G01 Z-0.0320 F20.00 
G01 Z0.100000
(R0.1000  P1.000000)
G00 X-0.1000 Y0.6244 
G01 Z-0.032000
G01 Z0.100000
T01 
G00 Z0.5000 
M05
M02
