(.../pcb-gcode-3.6.2.4/pcb-gcode.ulp)
(Copyright 2005 - 2012 by John Johnson)
(See readme.txt for licensing terms.)
(This file generated from the board:)
(.../eagle/C1LabsBlinky/C1LabsBlinky.brd)
(Current profile is .../pcb-gcode-3.6.2.4/profiles/generic.pp  )
(This file generated 4/24/15 3:00 PM)
(Settings from pcb-machine.h)
(spindle on time = 3.0000)
(  Tool Size)
(0.0070 )
(spindle speed = 30000.0000)
(tool change at 0.0000 0.0000 1.0000 )
(feed rate xy = F20.00 )
(feed rate z  = F10.00 )
(Z Axis Settings)
(  High     Up        Down     Drill)
(0.5000 	0.1000 	-0.0070 	-0.0320 )
(Settings from pcb-defaults.h)
(isolate min = 0.0010)
(isolate max = 0.0200)
(isolate step = 0.0050)
(Generated top outlines, top drill, )
(Unit of measure: inch)
(Inch Mode)
G20
(Absolute Coordinates)
G90
S30000
G00 Z0.5000 
G00 X0.0000 Y0.0000 
M03
G04 P3.000000
G00 Z0.1000 
G00 X0.0445 Y0.1269 
G01 Z-0.0070 F10.00 
G01 X0.0386 Y0.1346 F20.00 
G01 X0.0337 Y0.1429 
G01 X0.0300 Y0.1518 
G01 X0.0275 Y0.1612 
G01 X0.0263 Y0.1708 
G01 X0.0263 Y0.1804 
G01 X0.0275 Y0.1900 
G01 X0.0300 Y0.1993 
G01 X0.0337 Y0.2083 
G01 X0.0386 Y0.2166 
G01 X0.0445 Y0.2243 
G01 X0.0513 Y0.2311 
G01 X0.0590 Y0.2370 
G01 X0.0673 Y0.2418 
G01 X0.0763 Y0.2455 
G01 X0.0856 Y0.2480 
G01 X0.0952 Y0.2493 
G01 X0.1048 Y0.2493 
G01 X0.1144 Y0.2480 
G01 X0.1237 Y0.2455 
G01 X0.1327 Y0.2418 
G01 X0.1410 Y0.2370 
G01 X0.1487 Y0.2311 
G01 X0.1555 Y0.2243 
G01 X0.1614 Y0.2166 
G01 X0.1663 Y0.2083 
G01 X0.1700 Y0.1993 
G01 X0.1725 Y0.1900 
G01 X0.1737 Y0.1804 
G01 X0.1737 Y0.1708 
G01 X0.1725 Y0.1612 
G01 X0.1700 Y0.1518 
G01 X0.1663 Y0.1429 
G01 X0.1614 Y0.1346 
G01 X0.1555 Y0.1269 
G01 X0.1487 Y0.1201 
G01 X0.1410 Y0.1142 
G01 X0.1327 Y0.1093 
G01 X0.1237 Y0.1056 
G01 X0.1144 Y0.1031 
G01 X0.1048 Y0.1019 
G01 X0.0952 Y0.1019 
G01 X0.0856 Y0.1031 
G01 X0.0763 Y0.1056 
G01 X0.0673 Y0.1093 
G01 X0.0590 Y0.1142 
G01 X0.0513 Y0.1201 
G01 X0.0445 Y0.1269 
G00 Z0.1000 
G00 X0.1819 Y0.0596 
G01 Z-0.0070 F10.00 
G01 X0.1819 Y0.2341 F20.00 
G01 X0.1621 Y0.2341 
G01 X0.1604 Y0.2348 
G01 X0.1592 Y0.2360 
G01 X0.1585 Y0.2377 
G01 X0.1585 Y0.2867 
G01 X0.1592 Y0.2884 
G01 X0.1604 Y0.2896 
G01 X0.1621 Y0.2903 
G01 X0.2426 Y0.2903 
G01 X0.2443 Y0.2896 
G01 X0.2455 Y0.2884 
G01 X0.2462 Y0.2867 
G01 X0.2462 Y0.2377 
G01 X0.2455 Y0.2360 
G01 X0.2443 Y0.2348 
G01 X0.2426 Y0.2341 
G01 X0.2229 Y0.2341 
G01 X0.2229 Y0.0705 
G01 X0.5295 Y0.0705 
G01 X0.5295 Y0.5130 
G01 X0.5166 Y0.5130 
G01 X0.5150 Y0.5137 
G01 X0.5137 Y0.5150 
G01 X0.5130 Y0.5166 
G01 X0.5130 Y0.5834 
G01 X0.5137 Y0.5850 
G01 X0.5150 Y0.5863 
G01 X0.5166 Y0.5870 
G01 X0.5834 Y0.5870 
G01 X0.5850 Y0.5863 
G01 X0.5863 Y0.5850 
G01 X0.5870 Y0.5834 
G01 X0.5870 Y0.5705 
G01 X0.6746 Y0.5705 
G01 X0.6748 Y0.5707 
G01 X0.6793 Y0.5752 
G01 X0.6846 Y0.5788 
G01 X0.6905 Y0.5813 
G01 X0.6968 Y0.5825 
G01 X0.7032 Y0.5825 
G01 X0.7035 Y0.5824 
G01 X0.7836 Y0.6626 
G01 X0.7874 Y0.6664 
G01 X0.7921 Y0.6691 
G01 X0.7973 Y0.6705 
G01 X1.1527 Y0.6705 
G01 X1.1579 Y0.6691 
G01 X1.1626 Y0.6664 
G01 X1.1664 Y0.6626 
G01 X1.1691 Y0.6579 
G01 X1.1705 Y0.6527 
G01 X1.1705 Y0.5839 
G01 X1.1885 Y0.5659 
G01 X1.1885 Y0.5341 
G01 X1.1659 Y0.5115 
G01 X1.1341 Y0.5115 
G01 X1.1115 Y0.5341 
G01 X1.1115 Y0.5659 
G01 X1.1295 Y0.5839 
G01 X1.1295 Y0.6295 
G01 X0.8085 Y0.6295 
G01 X0.7324 Y0.5535 
G01 X0.7325 Y0.5532 
G01 X0.7325 Y0.5468 
G01 X0.7313 Y0.5405 
G01 X0.7288 Y0.5346 
G01 X0.7252 Y0.5293 
G01 X0.7207 Y0.5248 
G01 X0.7154 Y0.5212 
G01 X0.7095 Y0.5187 
G01 X0.7032 Y0.5175 
G01 X0.6968 Y0.5175 
G01 X0.6905 Y0.5187 
G01 X0.6846 Y0.5212 
G01 X0.6793 Y0.5248 
G01 X0.6748 Y0.5293 
G01 X0.6746 Y0.5295 
G01 X0.5870 Y0.5295 
G01 X0.5870 Y0.5166 
G01 X0.5863 Y0.5150 
G01 X0.5850 Y0.5137 
G01 X0.5834 Y0.5130 
G01 X0.5705 Y0.5130 
G01 X0.5705 Y0.0705 
G01 X0.6873 Y0.0705 
G01 X0.7170 Y0.1299 
G01 X0.7125 Y0.1345 
G01 X0.7125 Y0.1655 
G01 X0.7345 Y0.1875 
G01 X0.7655 Y0.1875 
G01 X0.7875 Y0.1655 
G01 X0.7875 Y0.1345 
G01 X0.7655 Y0.1125 
G01 X0.7542 Y0.1125 
G01 X0.7193 Y0.0427 
G01 X0.7191 Y0.0421 
G01 X0.7181 Y0.0403 
G01 X0.7171 Y0.0384 
G01 X0.7167 Y0.0380 
G01 X0.7164 Y0.0374 
G01 X0.7149 Y0.0359 
G01 X0.7135 Y0.0344 
G01 X0.7130 Y0.0340 
G01 X0.7126 Y0.0336 
G01 X0.7108 Y0.0326 
G01 X0.7090 Y0.0314 
G01 X0.7085 Y0.0312 
G01 X0.7079 Y0.0309 
G01 X0.7059 Y0.0304 
G01 X0.7039 Y0.0297 
G01 X0.7033 Y0.0297 
G01 X0.7027 Y0.0295 
G01 X0.7006 Y0.0295 
G01 X0.6985 Y0.0294 
G01 X0.6979 Y0.0295 
G01 X0.1973 Y0.0295 
G01 X0.1921 Y0.0309 
G01 X0.1874 Y0.0336 
G01 X0.1836 Y0.0374 
G01 X0.1809 Y0.0421 
G01 X0.1795 Y0.0473 
G01 X0.1795 Y0.0527 
G01 X0.1809 Y0.0579 
G01 X0.1819 Y0.0596 
G00 Z0.1000 
G00 X0.3125 Y0.1345 
G01 Z-0.0070 F10.00 
G01 X0.3125 Y0.1655 F20.00 
G01 X0.3295 Y0.1825 
G01 X0.3295 Y0.2175 
G01 X0.3125 Y0.2345 
G01 X0.3125 Y0.2585 
G01 X0.2385 Y0.3325 
G01 X0.1621 Y0.3325 
G01 X0.1604 Y0.3332 
G01 X0.1592 Y0.3345 
G01 X0.1585 Y0.3361 
G01 X0.1585 Y0.3851 
G01 X0.1592 Y0.3868 
G01 X0.1604 Y0.3881 
G01 X0.1621 Y0.3888 
G01 X0.2426 Y0.3888 
G01 X0.2443 Y0.3881 
G01 X0.2455 Y0.3868 
G01 X0.2462 Y0.3851 
G01 X0.2462 Y0.3800 
G01 X0.2473 Y0.3797 
G01 X0.2520 Y0.3770 
G01 X0.3415 Y0.2875 
G01 X0.3655 Y0.2875 
G01 X0.3825 Y0.2705 
G01 X0.4295 Y0.2705 
G01 X0.4295 Y0.3915 
G01 X0.3949 Y0.4261 
G01 X0.3900 Y0.4271 
G01 X0.3838 Y0.4297 
G01 X0.3782 Y0.4334 
G01 X0.3734 Y0.4382 
G01 X0.3697 Y0.4438 
G01 X0.3671 Y0.4500 
G01 X0.3658 Y0.4566 
G01 X0.3658 Y0.4634 
G01 X0.3671 Y0.4700 
G01 X0.3697 Y0.4762 
G01 X0.3734 Y0.4818 
G01 X0.3782 Y0.4866 
G01 X0.3838 Y0.4903 
G01 X0.3900 Y0.4929 
G01 X0.3966 Y0.4942 
G01 X0.4034 Y0.4942 
G01 X0.4100 Y0.4929 
G01 X0.4162 Y0.4903 
G01 X0.4218 Y0.4866 
G01 X0.4266 Y0.4818 
G01 X0.4303 Y0.4762 
G01 X0.4329 Y0.4700 
G01 X0.4342 Y0.4634 
G01 X0.4342 Y0.4566 
G01 X0.4329 Y0.4500 
G01 X0.4318 Y0.4472 
G01 X0.4626 Y0.4164 
G01 X0.4664 Y0.4126 
G01 X0.4691 Y0.4079 
G01 X0.4705 Y0.4027 
G01 X0.4705 Y0.2473 
G01 X0.4691 Y0.2421 
G01 X0.4664 Y0.2374 
G01 X0.4626 Y0.2336 
G01 X0.4579 Y0.2309 
G01 X0.4527 Y0.2295 
G01 X0.3825 Y0.2295 
G01 X0.3705 Y0.2175 
G01 X0.3705 Y0.1825 
G01 X0.3875 Y0.1655 
G01 X0.3875 Y0.1345 
G01 X0.3655 Y0.1125 
G01 X0.3345 Y0.1125 
G01 X0.3125 Y0.1345 
G00 Z0.1000 
G00 X0.3125 Y0.3345 
G01 Z-0.0070 F10.00 
G01 X0.3125 Y0.3585 F20.00 
G01 X0.2836 Y0.3874 
G01 X0.2809 Y0.3921 
G01 X0.2795 Y0.3973 
G01 X0.2795 Y0.4189 
G01 X0.2462 Y0.4189 
G01 X0.2462 Y0.4149 
G01 X0.2455 Y0.4132 
G01 X0.2443 Y0.4119 
G01 X0.2426 Y0.4112 
G01 X0.1621 Y0.4112 
G01 X0.1604 Y0.4119 
G01 X0.1592 Y0.4132 
G01 X0.1585 Y0.4149 
G01 X0.1585 Y0.4639 
G01 X0.1592 Y0.4655 
G01 X0.1604 Y0.4668 
G01 X0.1621 Y0.4675 
G01 X0.2426 Y0.4675 
G01 X0.2443 Y0.4668 
G01 X0.2455 Y0.4655 
G01 X0.2462 Y0.4639 
G01 X0.2462 Y0.4599 
G01 X0.2658 Y0.4599 
G01 X0.2658 Y0.4634 
G01 X0.2671 Y0.4700 
G01 X0.2697 Y0.4762 
G01 X0.2734 Y0.4818 
G01 X0.2782 Y0.4866 
G01 X0.2838 Y0.4903 
G01 X0.2900 Y0.4929 
G01 X0.2966 Y0.4942 
G01 X0.3034 Y0.4942 
G01 X0.3100 Y0.4929 
G01 X0.3162 Y0.4903 
G01 X0.3218 Y0.4866 
G01 X0.3266 Y0.4818 
G01 X0.3303 Y0.4762 
G01 X0.3329 Y0.4700 
G01 X0.3342 Y0.4634 
G01 X0.3342 Y0.4566 
G01 X0.3329 Y0.4500 
G01 X0.3303 Y0.4438 
G01 X0.3266 Y0.4382 
G01 X0.3218 Y0.4334 
G01 X0.3205 Y0.4325 
G01 X0.3205 Y0.4085 
G01 X0.3415 Y0.3875 
G01 X0.3655 Y0.3875 
G01 X0.3875 Y0.3655 
G01 X0.3875 Y0.3345 
G01 X0.3655 Y0.3125 
G01 X0.3345 Y0.3125 
G01 X0.3125 Y0.3345 
G00 Z0.1000 
G00 X0.2443 Y0.5104 
G01 Z-0.0070 F10.00 
G01 X0.2426 Y0.5097 F20.00 
G01 X0.1621 Y0.5097 
G01 X0.1604 Y0.5104 
G01 X0.1592 Y0.5116 
G01 X0.1585 Y0.5133 
G01 X0.1585 Y0.5623 
G01 X0.1592 Y0.5640 
G01 X0.1604 Y0.5652 
G01 X0.1621 Y0.5659 
G01 X0.1819 Y0.5659 
G01 X0.1819 Y0.5903 
G01 X0.1817 Y0.5909 
G01 X0.1819 Y0.5930 
G01 X0.1819 Y0.5951 
G01 X0.1820 Y0.5957 
G01 X0.1821 Y0.5963 
G01 X0.1827 Y0.5983 
G01 X0.1833 Y0.6003 
G01 X0.1836 Y0.6008 
G01 X0.1838 Y0.6014 
G01 X0.1849 Y0.6032 
G01 X0.1860 Y0.6049 
G01 X0.1864 Y0.6054 
G01 X0.2678 Y0.7284 
G01 X0.2671 Y0.7300 
G01 X0.2658 Y0.7366 
G01 X0.2658 Y0.7434 
G01 X0.2671 Y0.7500 
G01 X0.2697 Y0.7562 
G01 X0.2734 Y0.7618 
G01 X0.2782 Y0.7666 
G01 X0.2838 Y0.7703 
G01 X0.2900 Y0.7729 
G01 X0.2966 Y0.7742 
G01 X0.3034 Y0.7742 
G01 X0.3100 Y0.7729 
G01 X0.3162 Y0.7703 
G01 X0.3218 Y0.7666 
G01 X0.3266 Y0.7618 
G01 X0.3275 Y0.7605 
G01 X0.3725 Y0.7605 
G01 X0.3734 Y0.7618 
G01 X0.3782 Y0.7666 
G01 X0.3838 Y0.7703 
G01 X0.3900 Y0.7729 
G01 X0.3966 Y0.7742 
G01 X0.4034 Y0.7742 
G01 X0.4100 Y0.7729 
G01 X0.4162 Y0.7703 
G01 X0.4218 Y0.7666 
G01 X0.4266 Y0.7618 
G01 X0.4275 Y0.7605 
G01 X0.4627 Y0.7605 
G01 X0.4679 Y0.7591 
G01 X0.4726 Y0.7564 
G01 X0.5427 Y0.6863 
G01 X0.5464 Y0.6870 
G01 X0.5536 Y0.6870 
G01 X0.5608 Y0.6856 
G01 X0.5675 Y0.6828 
G01 X0.5736 Y0.6787 
G01 X0.5787 Y0.6736 
G01 X0.5808 Y0.6705 
G01 X0.6745 Y0.6705 
G01 X0.6865 Y0.6825 
G01 X0.7035 Y0.6825 
G01 X0.7836 Y0.7626 
G01 X0.7874 Y0.7664 
G01 X0.7921 Y0.7691 
G01 X0.7973 Y0.7705 
G01 X1.9527 Y0.7705 
G01 X1.9579 Y0.7691 
G01 X1.9626 Y0.7664 
G01 X1.9664 Y0.7626 
G01 X1.9691 Y0.7579 
G01 X1.9705 Y0.7527 
G01 X1.9705 Y0.4925 
G01 X1.9707 Y0.4924 
G01 X1.9719 Y0.4911 
G01 X1.9726 Y0.4895 
G01 X1.9726 Y0.4444 
G01 X1.9719 Y0.4427 
G01 X1.9707 Y0.4415 
G01 X1.9705 Y0.4414 
G01 X1.9705 Y0.4255 
G01 X1.9707 Y0.4255 
G01 X1.9719 Y0.4242 
G01 X1.9726 Y0.4225 
G01 X1.9726 Y0.3775 
G01 X1.9719 Y0.3758 
G01 X1.9707 Y0.3745 
G01 X1.9705 Y0.3745 
G01 X1.9705 Y0.3586 
G01 X1.9707 Y0.3585 
G01 X1.9719 Y0.3573 
G01 X1.9726 Y0.3556 
G01 X1.9726 Y0.3105 
G01 X1.9719 Y0.3089 
G01 X1.9707 Y0.3076 
G01 X1.9705 Y0.3075 
G01 X1.9705 Y0.0473 
G01 X1.9691 Y0.0421 
G01 X1.9664 Y0.0374 
G01 X1.9626 Y0.0336 
G01 X1.9579 Y0.0309 
G01 X1.9527 Y0.0295 
G01 X0.8473 Y0.0295 
G01 X0.8421 Y0.0309 
G01 X0.8374 Y0.0336 
G01 X0.8336 Y0.0374 
G01 X0.8309 Y0.0421 
G01 X0.8295 Y0.0473 
G01 X0.8295 Y0.2161 
G01 X0.8115 Y0.2341 
G01 X0.8115 Y0.2659 
G01 X0.8341 Y0.2885 
G01 X0.8659 Y0.2885 
G01 X0.8885 Y0.2659 
G01 X0.8885 Y0.2341 
G01 X0.8705 Y0.2161 
G01 X0.8705 Y0.0705 
G01 X1.9295 Y0.0705 
G01 X1.9295 Y0.3033 
G01 X1.9259 Y0.3069 
G01 X1.8885 Y0.3069 
G01 X1.8868 Y0.3076 
G01 X1.8856 Y0.3089 
G01 X1.8849 Y0.3105 
G01 X1.8849 Y0.3556 
G01 X1.8856 Y0.3573 
G01 X1.8868 Y0.3585 
G01 X1.8885 Y0.3592 
G01 X1.9259 Y0.3592 
G01 X1.9295 Y0.3628 
G01 X1.9295 Y0.3738 
G01 X1.8885 Y0.3738 
G01 X1.8868 Y0.3745 
G01 X1.8856 Y0.3758 
G01 X1.8849 Y0.3775 
G01 X1.8849 Y0.4225 
G01 X1.8856 Y0.4242 
G01 X1.8868 Y0.4255 
G01 X1.8885 Y0.4262 
G01 X1.9295 Y0.4262 
G01 X1.9295 Y0.4408 
G01 X1.8885 Y0.4408 
G01 X1.8868 Y0.4415 
G01 X1.8856 Y0.4427 
G01 X1.8849 Y0.4444 
G01 X1.8849 Y0.4895 
G01 X1.8856 Y0.4911 
G01 X1.8868 Y0.4924 
G01 X1.8885 Y0.4931 
G01 X1.9259 Y0.4931 
G01 X1.9295 Y0.4967 
G01 X1.9295 Y0.7295 
G01 X0.8085 Y0.7295 
G01 X0.7325 Y0.6535 
G01 X0.7325 Y0.6365 
G01 X0.7135 Y0.6175 
G01 X0.6865 Y0.6175 
G01 X0.6745 Y0.6295 
G01 X0.5808 Y0.6295 
G01 X0.5787 Y0.6264 
G01 X0.5736 Y0.6213 
G01 X0.5675 Y0.6172 
G01 X0.5608 Y0.6144 
G01 X0.5536 Y0.6130 
G01 X0.5464 Y0.6130 
G01 X0.5392 Y0.6144 
G01 X0.5325 Y0.6172 
G01 X0.5264 Y0.6213 
G01 X0.5213 Y0.6264 
G01 X0.5172 Y0.6325 
G01 X0.5144 Y0.6392 
G01 X0.5130 Y0.6464 
G01 X0.5130 Y0.6536 
G01 X0.5137 Y0.6573 
G01 X0.4515 Y0.7195 
G01 X0.4275 Y0.7195 
G01 X0.4266 Y0.7182 
G01 X0.4218 Y0.7134 
G01 X0.4162 Y0.7097 
G01 X0.4100 Y0.7071 
G01 X0.4034 Y0.7058 
G01 X0.3966 Y0.7058 
G01 X0.3900 Y0.7071 
G01 X0.3838 Y0.7097 
G01 X0.3782 Y0.7134 
G01 X0.3734 Y0.7182 
G01 X0.3725 Y0.7195 
G01 X0.3275 Y0.7195 
G01 X0.3266 Y0.7182 
G01 X0.3218 Y0.7134 
G01 X0.3162 Y0.7097 
G01 X0.3100 Y0.7071 
G01 X0.3034 Y0.7058 
G01 X0.3019 Y0.7058 
G01 X0.2229 Y0.5862 
G01 X0.2229 Y0.5659 
G01 X0.2426 Y0.5659 
G01 X0.2443 Y0.5652 
G01 X0.2455 Y0.5640 
G01 X0.2462 Y0.5623 
G01 X0.2462 Y0.5133 
G01 X0.2455 Y0.5116 
G01 X0.2443 Y0.5104 
G00 Z0.1000 
G00 X0.1487 Y0.5689 
G01 Z-0.0070 F10.00 
G01 X0.1410 Y0.5630 F20.00 
G01 X0.1327 Y0.5582 
G01 X0.1237 Y0.5545 
G01 X0.1144 Y0.5520 
G01 X0.1048 Y0.5507 
G01 X0.0952 Y0.5507 
G01 X0.0856 Y0.5520 
G01 X0.0763 Y0.5545 
G01 X0.0673 Y0.5582 
G01 X0.0590 Y0.5630 
G01 X0.0513 Y0.5689 
G01 X0.0445 Y0.5757 
G01 X0.0386 Y0.5834 
G01 X0.0337 Y0.5917 
G01 X0.0300 Y0.6007 
G01 X0.0275 Y0.6100 
G01 X0.0263 Y0.6196 
G01 X0.0263 Y0.6292 
G01 X0.0275 Y0.6388 
G01 X0.0300 Y0.6482 
G01 X0.0337 Y0.6571 
G01 X0.0386 Y0.6654 
G01 X0.0445 Y0.6731 
G01 X0.0513 Y0.6799 
G01 X0.0590 Y0.6858 
G01 X0.0673 Y0.6907 
G01 X0.0763 Y0.6944 
G01 X0.0856 Y0.6969 
G01 X0.0952 Y0.6981 
G01 X0.1048 Y0.6981 
G01 X0.1144 Y0.6969 
G01 X0.1237 Y0.6944 
G01 X0.1327 Y0.6907 
G01 X0.1410 Y0.6858 
G01 X0.1487 Y0.6799 
G01 X0.1555 Y0.6731 
G01 X0.1614 Y0.6654 
G01 X0.1663 Y0.6571 
G01 X0.1700 Y0.6482 
G01 X0.1725 Y0.6388 
G01 X0.1737 Y0.6292 
G01 X0.1737 Y0.6196 
G01 X0.1725 Y0.6100 
G01 X0.1700 Y0.6007 
G01 X0.1663 Y0.5917 
G01 X0.1614 Y0.5834 
G01 X0.1555 Y0.5757 
G01 X0.1487 Y0.5689 
G00 Z0.1000 
G00 X0.8115 Y0.5659 
G01 Z-0.0070 F10.00 
G01 X0.8341 Y0.5885 F20.00 
G01 X0.8659 Y0.5885 
G01 X0.8885 Y0.5659 
G01 X0.8885 Y0.5341 
G01 X0.8659 Y0.5115 
G01 X0.8341 Y0.5115 
G01 X0.8115 Y0.5341 
G01 X0.8115 Y0.5659 
G00 Z0.1000 
G00 X0.8341 Y0.4885 
G01 Z-0.0070 F10.00 
G01 X0.8659 Y0.4885 F20.00 
G01 X0.8885 Y0.4659 
G01 X0.8885 Y0.4341 
G01 X0.8659 Y0.4115 
G01 X0.8405 Y0.4115 
G01 X0.7875 Y0.3585 
G01 X0.7875 Y0.3345 
G01 X0.7655 Y0.3125 
G01 X0.7345 Y0.3125 
G01 X0.7125 Y0.3345 
G01 X0.7125 Y0.3655 
G01 X0.7345 Y0.3875 
G01 X0.7585 Y0.3875 
G01 X0.8115 Y0.4405 
G01 X0.8115 Y0.4659 
G01 X0.8341 Y0.4885 
G00 Z0.1000 
G00 X0.8341 Y0.3885 
G01 Z-0.0070 F10.00 
G01 X0.8659 Y0.3885 F20.00 
G01 X0.8885 Y0.3659 
G01 X0.8885 Y0.3341 
G01 X0.8659 Y0.3115 
G01 X0.8405 Y0.3115 
G01 X0.7875 Y0.2585 
G01 X0.7875 Y0.2345 
G01 X0.7655 Y0.2125 
G01 X0.7345 Y0.2125 
G01 X0.7125 Y0.2345 
G01 X0.7125 Y0.2655 
G01 X0.7345 Y0.2875 
G01 X0.7585 Y0.2875 
G01 X0.8115 Y0.3405 
G01 X0.8115 Y0.3659 
G01 X0.8341 Y0.3885 
G00 Z0.1000 
G00 X1.1341 Y0.3885 
G01 Z-0.0070 F10.00 
G01 X1.1659 Y0.3885 F20.00 
G01 X1.1710 Y0.3834 
G01 X1.2125 Y0.4042 
G01 X1.2125 Y0.4155 
G01 X1.2345 Y0.4375 
G01 X1.2655 Y0.4375 
G01 X1.2875 Y0.4155 
G01 X1.2875 Y0.3845 
G01 X1.2655 Y0.3625 
G01 X1.2345 Y0.3625 
G01 X1.2299 Y0.3670 
G01 X1.1885 Y0.3463 
G01 X1.1885 Y0.3341 
G01 X1.1659 Y0.3115 
G01 X1.1341 Y0.3115 
G01 X1.1115 Y0.3341 
G01 X1.1115 Y0.3659 
G01 X1.1341 Y0.3885 
G00 Z0.1000 
G00 X1.1341 Y0.4115 
G01 Z-0.0070 F10.00 
G01 X1.1115 Y0.4341 F20.00 
G01 X1.1115 Y0.4659 
G01 X1.1341 Y0.4885 
G01 X1.1659 Y0.4885 
G01 X1.1710 Y0.4834 
G01 X1.2125 Y0.5042 
G01 X1.2125 Y0.5155 
G01 X1.2345 Y0.5375 
G01 X1.2655 Y0.5375 
G01 X1.2875 Y0.5155 
G01 X1.2875 Y0.4845 
G01 X1.2655 Y0.4625 
G01 X1.2345 Y0.4625 
G01 X1.2299 Y0.4670 
G01 X1.1885 Y0.4463 
G01 X1.1885 Y0.4341 
G01 X1.1659 Y0.4115 
G01 X1.1341 Y0.4115 
G00 Z0.1000 
G00 X1.1341 Y0.2885 
G01 Z-0.0070 F10.00 
G01 X1.1659 Y0.2885 F20.00 
G01 X1.1710 Y0.2834 
G01 X1.2125 Y0.3042 
G01 X1.2125 Y0.3155 
G01 X1.2345 Y0.3375 
G01 X1.2655 Y0.3375 
G01 X1.2875 Y0.3155 
G01 X1.2875 Y0.2845 
G01 X1.2655 Y0.2625 
G01 X1.2345 Y0.2625 
G01 X1.2299 Y0.2670 
G01 X1.1885 Y0.2463 
G01 X1.1885 Y0.2341 
G01 X1.1659 Y0.2115 
G01 X1.1341 Y0.2115 
G01 X1.1115 Y0.2341 
G01 X1.1115 Y0.2659 
G01 X1.1341 Y0.2885 
G00 Z0.1000 
G00 X1.6125 Y0.2845 
G01 Z-0.0070 F10.00 
G01 X1.6125 Y0.3155 F20.00 
G01 X1.6345 Y0.3375 
G01 X1.6655 Y0.3375 
G01 X1.6750 Y0.3281 
G01 X1.7274 Y0.3424 
G01 X1.7274 Y0.3556 
G01 X1.7281 Y0.3573 
G01 X1.7293 Y0.3585 
G01 X1.7310 Y0.3592 
G01 X1.8115 Y0.3592 
G01 X1.8132 Y0.3585 
G01 X1.8144 Y0.3573 
G01 X1.8151 Y0.3556 
G01 X1.8151 Y0.3105 
G01 X1.8144 Y0.3089 
G01 X1.8132 Y0.3076 
G01 X1.8115 Y0.3069 
G01 X1.7533 Y0.3069 
G01 X1.6875 Y0.2890 
G01 X1.6875 Y0.2845 
G01 X1.6655 Y0.2625 
G01 X1.6345 Y0.2625 
G01 X1.6125 Y0.2845 
G00 Z0.1000 
G00 X1.6125 Y0.3845 
G01 Z-0.0070 F10.00 
G01 X1.6125 Y0.4155 F20.00 
G01 X1.6345 Y0.4375 
G01 X1.6655 Y0.4375 
G01 X1.6825 Y0.4205 
G01 X1.7274 Y0.4205 
G01 X1.7274 Y0.4225 
G01 X1.7281 Y0.4242 
G01 X1.7293 Y0.4255 
G01 X1.7310 Y0.4262 
G01 X1.8115 Y0.4262 
G01 X1.8132 Y0.4255 
G01 X1.8144 Y0.4242 
G01 X1.8151 Y0.4225 
G01 X1.8151 Y0.3775 
G01 X1.8144 Y0.3758 
G01 X1.8132 Y0.3745 
G01 X1.8115 Y0.3738 
G01 X1.7310 Y0.3738 
G01 X1.7293 Y0.3745 
G01 X1.7281 Y0.3758 
G01 X1.7274 Y0.3775 
G01 X1.7274 Y0.3795 
G01 X1.6825 Y0.3795 
G01 X1.6655 Y0.3625 
G01 X1.6345 Y0.3625 
G01 X1.6125 Y0.3845 
G00 Z0.1000 
G00 X1.6125 Y0.4845 
G01 Z-0.0070 F10.00 
G01 X1.6125 Y0.5155 F20.00 
G01 X1.6345 Y0.5375 
G01 X1.6655 Y0.5375 
G01 X1.6875 Y0.5155 
G01 X1.6875 Y0.5110 
G01 X1.7533 Y0.4931 
G01 X1.8115 Y0.4931 
G01 X1.8132 Y0.4924 
G01 X1.8144 Y0.4911 
G01 X1.8151 Y0.4895 
G01 X1.8151 Y0.4444 
G01 X1.8144 Y0.4427 
G01 X1.8132 Y0.4415 
G01 X1.8115 Y0.4408 
G01 X1.7310 Y0.4408 
G01 X1.7293 Y0.4415 
G01 X1.7281 Y0.4427 
G01 X1.7274 Y0.4444 
G01 X1.7274 Y0.4576 
G01 X1.6750 Y0.4719 
G01 X1.6655 Y0.4625 
G01 X1.6345 Y0.4625 
G01 X1.6125 Y0.4845 
G00 Z0.1000 
G00 X0.0407 Y0.1236 
G01 Z-0.0070 F10.00 
G01 X0.0344 Y0.1318 F20.00 
G01 X0.0293 Y0.1407 
G01 X0.0253 Y0.1502 
G01 X0.0226 Y0.1602 
G01 X0.0213 Y0.1704 
G01 X0.0213 Y0.1807 
G01 X0.0226 Y0.1910 
G01 X0.0253 Y0.2009 
G01 X0.0293 Y0.2105 
G01 X0.0344 Y0.2194 
G01 X0.0407 Y0.2276 
G01 X0.0480 Y0.2349 
G01 X0.0562 Y0.2412 
G01 X0.0651 Y0.2463 
G01 X0.0746 Y0.2503 
G01 X0.0846 Y0.2530 
G01 X0.0948 Y0.2543 
G01 X0.1052 Y0.2543 
G01 X0.1154 Y0.2530 
G01 X0.1254 Y0.2503 
G01 X0.1349 Y0.2463 
G01 X0.1438 Y0.2412 
G01 X0.1520 Y0.2349 
G01 X0.1593 Y0.2276 
G01 X0.1656 Y0.2194 
G01 X0.1707 Y0.2105 
G01 X0.1747 Y0.2009 
G01 X0.1769 Y0.1929 
G01 X0.1769 Y0.2291 
G01 X0.1611 Y0.2291 
G01 X0.1576 Y0.2305 
G01 X0.1549 Y0.2332 
G01 X0.1535 Y0.2367 
G01 X0.1535 Y0.2877 
G01 X0.1549 Y0.2912 
G01 X0.1576 Y0.2939 
G01 X0.1611 Y0.2953 
G01 X0.2436 Y0.2953 
G01 X0.2471 Y0.2939 
G01 X0.2498 Y0.2912 
G01 X0.2512 Y0.2877 
G01 X0.2512 Y0.2367 
G01 X0.2498 Y0.2332 
G01 X0.2471 Y0.2305 
G01 X0.2436 Y0.2291 
G01 X0.2279 Y0.2291 
G01 X0.2279 Y0.0755 
G01 X0.5245 Y0.0755 
G01 X0.5245 Y0.5080 
G01 X0.5156 Y0.5080 
G01 X0.5121 Y0.5094 
G01 X0.5094 Y0.5121 
G01 X0.5080 Y0.5156 
G01 X0.5080 Y0.5844 
G01 X0.5094 Y0.5879 
G01 X0.5121 Y0.5906 
G01 X0.5156 Y0.5920 
G01 X0.5844 Y0.5920 
G01 X0.5879 Y0.5906 
G01 X0.5906 Y0.5879 
G01 X0.5920 Y0.5844 
G01 X0.5920 Y0.5755 
G01 X0.6725 Y0.5755 
G01 X0.6761 Y0.5791 
G01 X0.6822 Y0.5832 
G01 X0.6891 Y0.5861 
G01 X0.6963 Y0.5875 
G01 X0.7014 Y0.5875 
G01 X0.7802 Y0.6663 
G01 X0.7837 Y0.6698 
G01 X0.7879 Y0.6726 
G01 X0.7926 Y0.6745 
G01 X0.7975 Y0.6755 
G01 X1.1525 Y0.6755 
G01 X1.1574 Y0.6745 
G01 X1.1621 Y0.6726 
G01 X1.1663 Y0.6698 
G01 X1.1698 Y0.6663 
G01 X1.1726 Y0.6621 
G01 X1.1745 Y0.6574 
G01 X1.1755 Y0.6525 
G01 X1.1755 Y0.5860 
G01 X1.1935 Y0.5680 
G01 X1.1935 Y0.5320 
G01 X1.1680 Y0.5065 
G01 X1.1320 Y0.5065 
G01 X1.1065 Y0.5320 
G01 X1.1065 Y0.5680 
G01 X1.1245 Y0.5860 
G01 X1.1245 Y0.6245 
G01 X0.8106 Y0.6245 
G01 X0.7375 Y0.5514 
G01 X0.7375 Y0.5463 
G01 X0.7361 Y0.5391 
G01 X0.7332 Y0.5322 
G01 X0.7291 Y0.5261 
G01 X0.7239 Y0.5209 
G01 X0.7178 Y0.5168 
G01 X0.7109 Y0.5139 
G01 X0.7037 Y0.5125 
G01 X0.6963 Y0.5125 
G01 X0.6891 Y0.5139 
G01 X0.6822 Y0.5168 
G01 X0.6761 Y0.5209 
G01 X0.6725 Y0.5245 
G01 X0.5920 Y0.5245 
G01 X0.5920 Y0.5156 
G01 X0.5906 Y0.5121 
G01 X0.5879 Y0.5094 
G01 X0.5844 Y0.5080 
G01 X0.5755 Y0.5080 
G01 X0.5755 Y0.0755 
G01 X0.6842 Y0.0755 
G01 X0.7110 Y0.1289 
G01 X0.7075 Y0.1324 
G01 X0.7075 Y0.1676 
G01 X0.7324 Y0.1925 
G01 X0.7676 Y0.1925 
G01 X0.7925 Y0.1676 
G01 X0.7925 Y0.1324 
G01 X0.7676 Y0.1075 
G01 X0.7573 Y0.1075 
G01 X0.7232 Y0.0394 
G01 X0.7226 Y0.0379 
G01 X0.7221 Y0.0372 
G01 X0.7217 Y0.0363 
G01 X0.7207 Y0.0351 
G01 X0.7198 Y0.0337 
G01 X0.7192 Y0.0331 
G01 X0.7186 Y0.0324 
G01 X0.7174 Y0.0313 
G01 X0.7163 Y0.0302 
G01 X0.7155 Y0.0297 
G01 X0.7148 Y0.0291 
G01 X0.7134 Y0.0283 
G01 X0.7121 Y0.0274 
G01 X0.7112 Y0.0271 
G01 X0.7104 Y0.0266 
G01 X0.7089 Y0.0261 
G01 X0.7074 Y0.0255 
G01 X0.7065 Y0.0253 
G01 X0.7057 Y0.0250 
G01 X0.7041 Y0.0248 
G01 X0.7025 Y0.0245 
G01 X0.7016 Y0.0245 
G01 X0.7007 Y0.0244 
G01 X0.6991 Y0.0245 
G01 X0.1975 Y0.0245 
G01 X0.1926 Y0.0255 
G01 X0.1879 Y0.0274 
G01 X0.1837 Y0.0302 
G01 X0.1802 Y0.0337 
G01 X0.1774 Y0.0379 
G01 X0.1755 Y0.0426 
G01 X0.1745 Y0.0475 
G01 X0.1745 Y0.0525 
G01 X0.1755 Y0.0574 
G01 X0.1769 Y0.0608 
G01 X0.1769 Y0.1583 
G01 X0.1747 Y0.1502 
G01 X0.1707 Y0.1407 
G01 X0.1656 Y0.1318 
G01 X0.1593 Y0.1236 
G01 X0.1520 Y0.1163 
G01 X0.1438 Y0.1100 
G01 X0.1349 Y0.1048 
G01 X0.1254 Y0.1009 
G01 X0.1154 Y0.0982 
G01 X0.1052 Y0.0969 
G01 X0.0948 Y0.0969 
G01 X0.0846 Y0.0982 
G01 X0.0746 Y0.1009 
G01 X0.0651 Y0.1048 
G01 X0.0562 Y0.1100 
G01 X0.0480 Y0.1163 
G01 X0.0407 Y0.1236 
G00 Z0.1000 
G00 X0.3075 Y0.1324 
G01 Z-0.0070 F10.00 
G01 X0.3075 Y0.1676 F20.00 
G01 X0.3245 Y0.1846 
G01 X0.3245 Y0.2154 
G01 X0.3075 Y0.2324 
G01 X0.3075 Y0.2564 
G01 X0.2364 Y0.3275 
G01 X0.1611 Y0.3275 
G01 X0.1576 Y0.3290 
G01 X0.1549 Y0.3316 
G01 X0.1535 Y0.3351 
G01 X0.1535 Y0.3861 
G01 X0.1549 Y0.3896 
G01 X0.1576 Y0.3923 
G01 X0.1611 Y0.3938 
G01 X0.2436 Y0.3938 
G01 X0.2471 Y0.3923 
G01 X0.2498 Y0.3896 
G01 X0.2512 Y0.3861 
G01 X0.2512 Y0.3833 
G01 X0.2514 Y0.3832 
G01 X0.2556 Y0.3804 
G01 X0.3436 Y0.2925 
G01 X0.3676 Y0.2925 
G01 X0.3846 Y0.2755 
G01 X0.4245 Y0.2755 
G01 X0.4245 Y0.3894 
G01 X0.3924 Y0.4215 
G01 X0.3886 Y0.4223 
G01 X0.3814 Y0.4252 
G01 X0.3750 Y0.4295 
G01 X0.3695 Y0.4350 
G01 X0.3652 Y0.4414 
G01 X0.3623 Y0.4486 
G01 X0.3608 Y0.4561 
G01 X0.3608 Y0.4639 
G01 X0.3623 Y0.4714 
G01 X0.3652 Y0.4786 
G01 X0.3695 Y0.4850 
G01 X0.3750 Y0.4905 
G01 X0.3814 Y0.4948 
G01 X0.3886 Y0.4977 
G01 X0.3961 Y0.4992 
G01 X0.4039 Y0.4992 
G01 X0.4114 Y0.4977 
G01 X0.4186 Y0.4948 
G01 X0.4250 Y0.4905 
G01 X0.4305 Y0.4850 
G01 X0.4348 Y0.4786 
G01 X0.4377 Y0.4714 
G01 X0.4392 Y0.4639 
G01 X0.4392 Y0.4561 
G01 X0.4377 Y0.4486 
G01 X0.4376 Y0.4484 
G01 X0.4663 Y0.4198 
G01 X0.4698 Y0.4163 
G01 X0.4726 Y0.4121 
G01 X0.4745 Y0.4074 
G01 X0.4755 Y0.4025 
G01 X0.4755 Y0.2475 
G01 X0.4745 Y0.2426 
G01 X0.4726 Y0.2379 
G01 X0.4698 Y0.2337 
G01 X0.4663 Y0.2302 
G01 X0.4621 Y0.2274 
G01 X0.4574 Y0.2255 
G01 X0.4525 Y0.2245 
G01 X0.3846 Y0.2245 
G01 X0.3755 Y0.2154 
G01 X0.3755 Y0.1846 
G01 X0.3925 Y0.1676 
G01 X0.3925 Y0.1324 
G01 X0.3676 Y0.1075 
G01 X0.3324 Y0.1075 
G01 X0.3075 Y0.1324 
G00 Z0.1000 
G00 X0.3075 Y0.3324 
G01 Z-0.0070 F10.00 
G01 X0.3075 Y0.3564 F20.00 
G01 X0.2802 Y0.3837 
G01 X0.2774 Y0.3879 
G01 X0.2755 Y0.3926 
G01 X0.2745 Y0.3975 
G01 X0.2745 Y0.4139 
G01 X0.2512 Y0.4139 
G01 X0.2498 Y0.4104 
G01 X0.2471 Y0.4077 
G01 X0.2436 Y0.4062 
G01 X0.1611 Y0.4062 
G01 X0.1576 Y0.4077 
G01 X0.1549 Y0.4104 
G01 X0.1535 Y0.4139 
G01 X0.1535 Y0.4649 
G01 X0.1549 Y0.4684 
G01 X0.1576 Y0.4710 
G01 X0.1611 Y0.4725 
G01 X0.2436 Y0.4725 
G01 X0.2471 Y0.4710 
G01 X0.2498 Y0.4684 
G01 X0.2512 Y0.4649 
G01 X0.2610 Y0.4649 
G01 X0.2623 Y0.4714 
G01 X0.2652 Y0.4786 
G01 X0.2695 Y0.4850 
G01 X0.2750 Y0.4905 
G01 X0.2814 Y0.4948 
G01 X0.2886 Y0.4977 
G01 X0.2961 Y0.4992 
G01 X0.3039 Y0.4992 
G01 X0.3114 Y0.4977 
G01 X0.3186 Y0.4948 
G01 X0.3250 Y0.4905 
G01 X0.3305 Y0.4850 
G01 X0.3348 Y0.4786 
G01 X0.3377 Y0.4714 
G01 X0.3392 Y0.4639 
G01 X0.3392 Y0.4561 
G01 X0.3377 Y0.4486 
G01 X0.3348 Y0.4414 
G01 X0.3305 Y0.4350 
G01 X0.3255 Y0.4300 
G01 X0.3255 Y0.4106 
G01 X0.3436 Y0.3925 
G01 X0.3676 Y0.3925 
G01 X0.3925 Y0.3676 
G01 X0.3925 Y0.3324 
G01 X0.3676 Y0.3075 
G01 X0.3324 Y0.3075 
G01 X0.3075 Y0.3324 
G00 Z0.1000 
G00 X0.2471 Y0.5061 
G01 Z-0.0070 F10.00 
G01 X0.2436 Y0.5047 F20.00 
G01 X0.1611 Y0.5047 
G01 X0.1576 Y0.5061 
G01 X0.1549 Y0.5088 
G01 X0.1535 Y0.5123 
G01 X0.1535 Y0.5633 
G01 X0.1549 Y0.5668 
G01 X0.1576 Y0.5695 
G01 X0.1611 Y0.5709 
G01 X0.1769 Y0.5709 
G01 X0.1769 Y0.5923 
G01 X0.1769 Y0.5948 
G01 X0.1769 Y0.5949 
G01 X0.1773 Y0.5973 
G01 X0.1778 Y0.5997 
G01 X0.1778 Y0.5998 
G01 X0.1788 Y0.6021 
G01 X0.1797 Y0.6043 
G01 X0.1798 Y0.6044 
G01 X0.1811 Y0.6065 
G01 X0.2622 Y0.7291 
G01 X0.2608 Y0.7361 
G01 X0.2608 Y0.7439 
G01 X0.2623 Y0.7514 
G01 X0.2652 Y0.7586 
G01 X0.2695 Y0.7650 
G01 X0.2750 Y0.7705 
G01 X0.2814 Y0.7748 
G01 X0.2886 Y0.7777 
G01 X0.2961 Y0.7792 
G01 X0.3039 Y0.7792 
G01 X0.3114 Y0.7777 
G01 X0.3186 Y0.7748 
G01 X0.3250 Y0.7705 
G01 X0.3300 Y0.7655 
G01 X0.3700 Y0.7655 
G01 X0.3750 Y0.7705 
G01 X0.3814 Y0.7748 
G01 X0.3886 Y0.7777 
G01 X0.3961 Y0.7792 
G01 X0.4039 Y0.7792 
G01 X0.4114 Y0.7777 
G01 X0.4186 Y0.7748 
G01 X0.4250 Y0.7705 
G01 X0.4300 Y0.7655 
G01 X0.4625 Y0.7655 
G01 X0.4674 Y0.7645 
G01 X0.4721 Y0.7626 
G01 X0.4763 Y0.7598 
G01 X0.5444 Y0.6916 
G01 X0.5467 Y0.6920 
G01 X0.5533 Y0.6920 
G01 X0.5598 Y0.6910 
G01 X0.5661 Y0.6889 
G01 X0.5720 Y0.6859 
G01 X0.5774 Y0.6820 
G01 X0.5820 Y0.6774 
G01 X0.5834 Y0.6755 
G01 X0.6725 Y0.6755 
G01 X0.6845 Y0.6875 
G01 X0.7014 Y0.6875 
G01 X0.7802 Y0.7663 
G01 X0.7837 Y0.7698 
G01 X0.7879 Y0.7726 
G01 X0.7926 Y0.7745 
G01 X0.7975 Y0.7755 
G01 X1.9525 Y0.7755 
G01 X1.9574 Y0.7745 
G01 X1.9621 Y0.7726 
G01 X1.9663 Y0.7698 
G01 X1.9698 Y0.7663 
G01 X1.9726 Y0.7621 
G01 X1.9745 Y0.7574 
G01 X1.9755 Y0.7525 
G01 X1.9755 Y0.4946 
G01 X1.9762 Y0.4940 
G01 X1.9776 Y0.4905 
G01 X1.9776 Y0.4434 
G01 X1.9762 Y0.4399 
G01 X1.9755 Y0.4392 
G01 X1.9755 Y0.4277 
G01 X1.9762 Y0.4270 
G01 X1.9776 Y0.4235 
G01 X1.9776 Y0.3765 
G01 X1.9762 Y0.3730 
G01 X1.9755 Y0.3723 
G01 X1.9755 Y0.3608 
G01 X1.9762 Y0.3601 
G01 X1.9776 Y0.3566 
G01 X1.9776 Y0.3095 
G01 X1.9762 Y0.3060 
G01 X1.9755 Y0.3054 
G01 X1.9755 Y0.0475 
G01 X1.9745 Y0.0426 
G01 X1.9726 Y0.0379 
G01 X1.9698 Y0.0337 
G01 X1.9663 Y0.0302 
G01 X1.9621 Y0.0274 
G01 X1.9574 Y0.0255 
G01 X1.9525 Y0.0245 
G01 X0.8475 Y0.0245 
G01 X0.8426 Y0.0255 
G01 X0.8379 Y0.0274 
G01 X0.8337 Y0.0302 
G01 X0.8302 Y0.0337 
G01 X0.8274 Y0.0379 
G01 X0.8255 Y0.0426 
G01 X0.8245 Y0.0475 
G01 X0.8245 Y0.2140 
G01 X0.8065 Y0.2320 
G01 X0.8065 Y0.2680 
G01 X0.8320 Y0.2935 
G01 X0.8680 Y0.2935 
G01 X0.8935 Y0.2680 
G01 X0.8935 Y0.2320 
G01 X0.8755 Y0.2140 
G01 X0.8755 Y0.0755 
G01 X1.9245 Y0.0755 
G01 X1.9245 Y0.3012 
G01 X1.9238 Y0.3019 
G01 X1.8875 Y0.3019 
G01 X1.8840 Y0.3034 
G01 X1.8813 Y0.3060 
G01 X1.8799 Y0.3095 
G01 X1.8799 Y0.3566 
G01 X1.8813 Y0.3601 
G01 X1.8840 Y0.3628 
G01 X1.8875 Y0.3642 
G01 X1.9238 Y0.3642 
G01 X1.9245 Y0.3649 
G01 X1.9245 Y0.3688 
G01 X1.8875 Y0.3688 
G01 X1.8840 Y0.3703 
G01 X1.8813 Y0.3730 
G01 X1.8799 Y0.3765 
G01 X1.8799 Y0.4235 
G01 X1.8813 Y0.4270 
G01 X1.8840 Y0.4297 
G01 X1.8875 Y0.4312 
G01 X1.9245 Y0.4312 
G01 X1.9245 Y0.4358 
G01 X1.8875 Y0.4358 
G01 X1.8840 Y0.4372 
G01 X1.8813 Y0.4399 
G01 X1.8799 Y0.4434 
G01 X1.8799 Y0.4905 
G01 X1.8813 Y0.4940 
G01 X1.8840 Y0.4966 
G01 X1.8875 Y0.4981 
G01 X1.9238 Y0.4981 
G01 X1.9245 Y0.4988 
G01 X1.9245 Y0.7245 
G01 X0.8106 Y0.7245 
G01 X0.7375 Y0.6514 
G01 X0.7375 Y0.6345 
G01 X0.7155 Y0.6125 
G01 X0.6845 Y0.6125 
G01 X0.6725 Y0.6245 
G01 X0.5834 Y0.6245 
G01 X0.5820 Y0.6226 
G01 X0.5774 Y0.6180 
G01 X0.5720 Y0.6141 
G01 X0.5661 Y0.6111 
G01 X0.5598 Y0.6090 
G01 X0.5533 Y0.6080 
G01 X0.5467 Y0.6080 
G01 X0.5402 Y0.6090 
G01 X0.5339 Y0.6111 
G01 X0.5280 Y0.6141 
G01 X0.5226 Y0.6180 
G01 X0.5180 Y0.6226 
G01 X0.5141 Y0.6280 
G01 X0.5111 Y0.6339 
G01 X0.5090 Y0.6402 
G01 X0.5080 Y0.6467 
G01 X0.5080 Y0.6533 
G01 X0.5084 Y0.6556 
G01 X0.4494 Y0.7145 
G01 X0.4300 Y0.7145 
G01 X0.4250 Y0.7095 
G01 X0.4186 Y0.7052 
G01 X0.4114 Y0.7023 
G01 X0.4039 Y0.7008 
G01 X0.3961 Y0.7008 
G01 X0.3886 Y0.7023 
G01 X0.3814 Y0.7052 
G01 X0.3750 Y0.7095 
G01 X0.3700 Y0.7145 
G01 X0.3300 Y0.7145 
G01 X0.3250 Y0.7095 
G01 X0.3186 Y0.7052 
G01 X0.3114 Y0.7023 
G01 X0.3048 Y0.7010 
G01 X0.2279 Y0.5847 
G01 X0.2279 Y0.5709 
G01 X0.2436 Y0.5709 
G01 X0.2471 Y0.5695 
G01 X0.2498 Y0.5668 
G01 X0.2512 Y0.5633 
G01 X0.2512 Y0.5123 
G01 X0.2498 Y0.5088 
G01 X0.2471 Y0.5061 
G00 Z0.1000 
G00 X0.1520 Y0.5651 
G01 Z-0.0070 F10.00 
G01 X0.1438 Y0.5588 F20.00 
G01 X0.1349 Y0.5537 
G01 X0.1254 Y0.5497 
G01 X0.1154 Y0.5470 
G01 X0.1052 Y0.5457 
G01 X0.0948 Y0.5457 
G01 X0.0846 Y0.5470 
G01 X0.0746 Y0.5497 
G01 X0.0651 Y0.5537 
G01 X0.0562 Y0.5588 
G01 X0.0480 Y0.5651 
G01 X0.0407 Y0.5724 
G01 X0.0344 Y0.5806 
G01 X0.0293 Y0.5895 
G01 X0.0253 Y0.5991 
G01 X0.0226 Y0.6090 
G01 X0.0213 Y0.6193 
G01 X0.0213 Y0.6296 
G01 X0.0226 Y0.6398 
G01 X0.0253 Y0.6498 
G01 X0.0293 Y0.6593 
G01 X0.0344 Y0.6682 
G01 X0.0407 Y0.6764 
G01 X0.0480 Y0.6837 
G01 X0.0562 Y0.6900 
G01 X0.0651 Y0.6952 
G01 X0.0746 Y0.6991 
G01 X0.0846 Y0.7018 
G01 X0.0948 Y0.7031 
G01 X0.1052 Y0.7031 
G01 X0.1154 Y0.7018 
G01 X0.1254 Y0.6991 
G01 X0.1349 Y0.6952 
G01 X0.1438 Y0.6900 
G01 X0.1520 Y0.6837 
G01 X0.1593 Y0.6764 
G01 X0.1656 Y0.6682 
G01 X0.1707 Y0.6593 
G01 X0.1747 Y0.6498 
G01 X0.1774 Y0.6398 
G01 X0.1787 Y0.6296 
G01 X0.1787 Y0.6193 
G01 X0.1774 Y0.6090 
G01 X0.1747 Y0.5991 
G01 X0.1707 Y0.5895 
G01 X0.1656 Y0.5806 
G01 X0.1593 Y0.5724 
G01 X0.1520 Y0.5651 
G00 Z0.1000 
G00 X0.8065 Y0.5680 
G01 Z-0.0070 F10.00 
G01 X0.8320 Y0.5935 F20.00 
G01 X0.8680 Y0.5935 
G01 X0.8935 Y0.5680 
G01 X0.8935 Y0.5320 
G01 X0.8680 Y0.5065 
G01 X0.8320 Y0.5065 
G01 X0.8065 Y0.5320 
G01 X0.8065 Y0.5680 
G00 Z0.1000 
G00 X0.8320 Y0.4935 
G01 Z-0.0070 F10.00 
G01 X0.8680 Y0.4935 F20.00 
G01 X0.8935 Y0.4680 
G01 X0.8935 Y0.4320 
G01 X0.8680 Y0.4065 
G01 X0.8426 Y0.4065 
G01 X0.7925 Y0.3564 
G01 X0.7925 Y0.3324 
G01 X0.7676 Y0.3075 
G01 X0.7324 Y0.3075 
G01 X0.7075 Y0.3324 
G01 X0.7075 Y0.3676 
G01 X0.7324 Y0.3925 
G01 X0.7564 Y0.3925 
G01 X0.8065 Y0.4426 
G01 X0.8065 Y0.4680 
G01 X0.8320 Y0.4935 
G00 Z0.1000 
G00 X0.8320 Y0.3935 
G01 Z-0.0070 F10.00 
G01 X0.8680 Y0.3935 F20.00 
G01 X0.8935 Y0.3680 
G01 X0.8935 Y0.3320 
G01 X0.8680 Y0.3065 
G01 X0.8426 Y0.3065 
G01 X0.7925 Y0.2564 
G01 X0.7925 Y0.2324 
G01 X0.7676 Y0.2075 
G01 X0.7324 Y0.2075 
G01 X0.7075 Y0.2324 
G01 X0.7075 Y0.2676 
G01 X0.7324 Y0.2925 
G01 X0.7564 Y0.2925 
G01 X0.8065 Y0.3426 
G01 X0.8065 Y0.3680 
G01 X0.8320 Y0.3935 
G00 Z0.1000 
G00 X1.1320 Y0.3935 
G01 Z-0.0070 F10.00 
G01 X1.1680 Y0.3935 F20.00 
G01 X1.1720 Y0.3895 
G01 X1.2075 Y0.4073 
G01 X1.2075 Y0.4176 
G01 X1.2324 Y0.4425 
G01 X1.2676 Y0.4425 
G01 X1.2925 Y0.4176 
G01 X1.2925 Y0.3824 
G01 X1.2676 Y0.3575 
G01 X1.2324 Y0.3575 
G01 X1.2289 Y0.3610 
G01 X1.1935 Y0.3432 
G01 X1.1935 Y0.3320 
G01 X1.1680 Y0.3065 
G01 X1.1320 Y0.3065 
G01 X1.1065 Y0.3320 
G01 X1.1065 Y0.3680 
G01 X1.1320 Y0.3935 
G00 Z0.1000 
G00 X1.1320 Y0.4065 
G01 Z-0.0070 F10.00 
G01 X1.1065 Y0.4320 F20.00 
G01 X1.1065 Y0.4680 
G01 X1.1320 Y0.4935 
G01 X1.1680 Y0.4935 
G01 X1.1720 Y0.4895 
G01 X1.2075 Y0.5073 
G01 X1.2075 Y0.5176 
G01 X1.2324 Y0.5425 
G01 X1.2676 Y0.5425 
G01 X1.2925 Y0.5176 
G01 X1.2925 Y0.4824 
G01 X1.2676 Y0.4575 
G01 X1.2324 Y0.4575 
G01 X1.2289 Y0.4610 
G01 X1.1935 Y0.4432 
G01 X1.1935 Y0.4320 
G01 X1.1680 Y0.4065 
G01 X1.1320 Y0.4065 
G00 Z0.1000 
G00 X1.1320 Y0.2935 
G01 Z-0.0070 F10.00 
G01 X1.1680 Y0.2935 F20.00 
G01 X1.1720 Y0.2895 
G01 X1.2075 Y0.3073 
G01 X1.2075 Y0.3176 
G01 X1.2324 Y0.3425 
G01 X1.2676 Y0.3425 
G01 X1.2925 Y0.3176 
G01 X1.2925 Y0.2824 
G01 X1.2676 Y0.2575 
G01 X1.2324 Y0.2575 
G01 X1.2289 Y0.2610 
G01 X1.1935 Y0.2432 
G01 X1.1935 Y0.2320 
G01 X1.1680 Y0.2065 
G01 X1.1320 Y0.2065 
G01 X1.1065 Y0.2320 
G01 X1.1065 Y0.2680 
G01 X1.1320 Y0.2935 
G00 Z0.1000 
G00 X1.6075 Y0.2824 
G01 Z-0.0070 F10.00 
G01 X1.6075 Y0.3176 F20.00 
G01 X1.6324 Y0.3425 
G01 X1.6676 Y0.3425 
G01 X1.6765 Y0.3336 
G01 X1.7224 Y0.3462 
G01 X1.7224 Y0.3566 
G01 X1.7238 Y0.3601 
G01 X1.7265 Y0.3628 
G01 X1.7300 Y0.3642 
G01 X1.8125 Y0.3642 
G01 X1.8160 Y0.3628 
G01 X1.8187 Y0.3601 
G01 X1.8201 Y0.3566 
G01 X1.8201 Y0.3095 
G01 X1.8187 Y0.3060 
G01 X1.8160 Y0.3034 
G01 X1.8125 Y0.3019 
G01 X1.7539 Y0.3019 
G01 X1.6925 Y0.2852 
G01 X1.6925 Y0.2824 
G01 X1.6676 Y0.2575 
G01 X1.6324 Y0.2575 
G01 X1.6075 Y0.2824 
G00 Z0.1000 
G00 X1.6075 Y0.3824 
G01 Z-0.0070 F10.00 
G01 X1.6075 Y0.4176 F20.00 
G01 X1.6324 Y0.4425 
G01 X1.6676 Y0.4425 
G01 X1.6846 Y0.4255 
G01 X1.7232 Y0.4255 
G01 X1.7238 Y0.4270 
G01 X1.7265 Y0.4297 
G01 X1.7300 Y0.4312 
G01 X1.8125 Y0.4312 
G01 X1.8160 Y0.4297 
G01 X1.8187 Y0.4270 
G01 X1.8201 Y0.4235 
G01 X1.8201 Y0.3765 
G01 X1.8187 Y0.3730 
G01 X1.8160 Y0.3703 
G01 X1.8125 Y0.3688 
G01 X1.7300 Y0.3688 
G01 X1.7265 Y0.3703 
G01 X1.7238 Y0.3730 
G01 X1.7232 Y0.3745 
G01 X1.6846 Y0.3745 
G01 X1.6676 Y0.3575 
G01 X1.6324 Y0.3575 
G01 X1.6075 Y0.3824 
G00 Z0.1000 
G00 X1.6075 Y0.4824 
G01 Z-0.0070 F10.00 
G01 X1.6075 Y0.5176 F20.00 
G01 X1.6324 Y0.5425 
G01 X1.6676 Y0.5425 
G01 X1.6925 Y0.5176 
G01 X1.6925 Y0.5148 
G01 X1.7539 Y0.4981 
G01 X1.8125 Y0.4981 
G01 X1.8160 Y0.4966 
G01 X1.8187 Y0.4940 
G01 X1.8201 Y0.4905 
G01 X1.8201 Y0.4434 
G01 X1.8187 Y0.4399 
G01 X1.8160 Y0.4372 
G01 X1.8125 Y0.4358 
G01 X1.7300 Y0.4358 
G01 X1.7265 Y0.4372 
G01 X1.7238 Y0.4399 
G01 X1.7224 Y0.4434 
G01 X1.7224 Y0.4538 
G01 X1.6765 Y0.4664 
G01 X1.6676 Y0.4575 
G01 X1.6324 Y0.4575 
G01 X1.6075 Y0.4824 
G00 Z0.1000 
G00 X0.0369 Y0.1203 
G01 Z-0.0070 F10.00 
G01 X0.0302 Y0.1290 F20.00 
G01 X0.0248 Y0.1385 
G01 X0.0206 Y0.1486 
G01 X0.0177 Y0.1592 
G01 X0.0163 Y0.1701 
G01 X0.0163 Y0.1811 
G01 X0.0177 Y0.1920 
G01 X0.0206 Y0.2026 
G01 X0.0248 Y0.2127 
G01 X0.0302 Y0.2222 
G01 X0.0369 Y0.2309 
G01 X0.0447 Y0.2387 
G01 X0.0534 Y0.2453 
G01 X0.0629 Y0.2508 
G01 X0.0730 Y0.2550 
G01 X0.0836 Y0.2579 
G01 X0.0945 Y0.2593 
G01 X0.1055 Y0.2593 
G01 X0.1164 Y0.2579 
G01 X0.1270 Y0.2550 
G01 X0.1371 Y0.2508 
G01 X0.1466 Y0.2453 
G01 X0.1485 Y0.2439 
G01 X0.1485 Y0.2877 
G01 X0.1495 Y0.2914 
G01 X0.1514 Y0.2947 
G01 X0.1541 Y0.2974 
G01 X0.1574 Y0.2993 
G01 X0.1611 Y0.3003 
G01 X0.2436 Y0.3003 
G01 X0.2473 Y0.2993 
G01 X0.2506 Y0.2974 
G01 X0.2533 Y0.2947 
G01 X0.2552 Y0.2914 
G01 X0.2562 Y0.2877 
G01 X0.2562 Y0.2367 
G01 X0.2552 Y0.2330 
G01 X0.2533 Y0.2297 
G01 X0.2506 Y0.2270 
G01 X0.2473 Y0.2251 
G01 X0.2436 Y0.2241 
G01 X0.2329 Y0.2241 
G01 X0.2329 Y0.0805 
G01 X0.5195 Y0.0805 
G01 X0.5195 Y0.5030 
G01 X0.5156 Y0.5030 
G01 X0.5119 Y0.5040 
G01 X0.5086 Y0.5059 
G01 X0.5059 Y0.5086 
G01 X0.5040 Y0.5119 
G01 X0.5030 Y0.5156 
G01 X0.5030 Y0.5844 
G01 X0.5040 Y0.5881 
G01 X0.5059 Y0.5914 
G01 X0.5086 Y0.5941 
G01 X0.5119 Y0.5960 
G01 X0.5156 Y0.5970 
G01 X0.5844 Y0.5970 
G01 X0.5881 Y0.5960 
G01 X0.5914 Y0.5941 
G01 X0.5941 Y0.5914 
G01 X0.5960 Y0.5881 
G01 X0.5970 Y0.5844 
G01 X0.5970 Y0.5805 
G01 X0.6704 Y0.5805 
G01 X0.6723 Y0.5824 
G01 X0.6777 Y0.5863 
G01 X0.6837 Y0.5894 
G01 X0.6900 Y0.5915 
G01 X0.6967 Y0.5925 
G01 X0.6994 Y0.5925 
G01 X0.7144 Y0.6075 
G01 X0.6824 Y0.6075 
G01 X0.6704 Y0.6195 
G01 X0.5859 Y0.6195 
G01 X0.5858 Y0.6194 
G01 X0.5806 Y0.6142 
G01 X0.5746 Y0.6098 
G01 X0.5680 Y0.6064 
G01 X0.5610 Y0.6042 
G01 X0.5537 Y0.6030 
G01 X0.5463 Y0.6030 
G01 X0.5390 Y0.6042 
G01 X0.5320 Y0.6064 
G01 X0.5254 Y0.6098 
G01 X0.5194 Y0.6142 
G01 X0.5142 Y0.6194 
G01 X0.5098 Y0.6254 
G01 X0.5064 Y0.6320 
G01 X0.5042 Y0.6390 
G01 X0.5030 Y0.6463 
G01 X0.5030 Y0.6537 
G01 X0.5030 Y0.6538 
G01 X0.4474 Y0.7095 
G01 X0.4320 Y0.7095 
G01 X0.4288 Y0.7063 
G01 X0.4232 Y0.7022 
G01 X0.4170 Y0.6990 
G01 X0.4104 Y0.6969 
G01 X0.4035 Y0.6958 
G01 X0.3965 Y0.6958 
G01 X0.3896 Y0.6969 
G01 X0.3830 Y0.6990 
G01 X0.3768 Y0.7022 
G01 X0.3712 Y0.7063 
G01 X0.3680 Y0.7095 
G01 X0.3320 Y0.7095 
G01 X0.3288 Y0.7063 
G01 X0.3232 Y0.7022 
G01 X0.3170 Y0.6990 
G01 X0.3104 Y0.6969 
G01 X0.3078 Y0.6965 
G01 X0.2329 Y0.5832 
G01 X0.2329 Y0.5759 
G01 X0.2436 Y0.5759 
G01 X0.2473 Y0.5749 
G01 X0.2506 Y0.5730 
G01 X0.2533 Y0.5703 
G01 X0.2552 Y0.5670 
G01 X0.2562 Y0.5633 
G01 X0.2562 Y0.5123 
G01 X0.2552 Y0.5086 
G01 X0.2533 Y0.5053 
G01 X0.2506 Y0.5026 
G01 X0.2473 Y0.5007 
G01 X0.2436 Y0.4997 
G01 X0.1611 Y0.4997 
G01 X0.1574 Y0.5007 
G01 X0.1541 Y0.5026 
G01 X0.1514 Y0.5053 
G01 X0.1495 Y0.5086 
G01 X0.1485 Y0.5123 
G01 X0.1485 Y0.5561 
G01 X0.1466 Y0.5547 
G01 X0.1371 Y0.5492 
G01 X0.1270 Y0.5450 
G01 X0.1164 Y0.5421 
G01 X0.1055 Y0.5407 
G01 X0.0945 Y0.5407 
G01 X0.0836 Y0.5421 
G01 X0.0730 Y0.5450 
G01 X0.0629 Y0.5492 
G01 X0.0534 Y0.5547 
G01 X0.0447 Y0.5613 
G01 X0.0369 Y0.5691 
G01 X0.0302 Y0.5778 
G01 X0.0248 Y0.5873 
G01 X0.0206 Y0.5974 
G01 X0.0177 Y0.6080 
G01 X0.0163 Y0.6189 
G01 X0.0163 Y0.6299 
G01 X0.0177 Y0.6408 
G01 X0.0206 Y0.6514 
G01 X0.0248 Y0.6615 
G01 X0.0302 Y0.6710 
G01 X0.0369 Y0.6797 
G01 X0.0447 Y0.6875 
G01 X0.0534 Y0.6942 
G01 X0.0629 Y0.6996 
G01 X0.0730 Y0.7038 
G01 X0.0836 Y0.7067 
G01 X0.0945 Y0.7081 
G01 X0.1055 Y0.7081 
G01 X0.1164 Y0.7067 
G01 X0.1270 Y0.7038 
G01 X0.1371 Y0.6996 
G01 X0.1466 Y0.6942 
G01 X0.1553 Y0.6875 
G01 X0.1631 Y0.6797 
G01 X0.1698 Y0.6710 
G01 X0.1752 Y0.6615 
G01 X0.1794 Y0.6514 
G01 X0.1823 Y0.6408 
G01 X0.1837 Y0.6299 
G01 X0.1837 Y0.6195 
G01 X0.2568 Y0.7300 
G01 X0.2558 Y0.7365 
G01 X0.2558 Y0.7435 
G01 X0.2569 Y0.7504 
G01 X0.2590 Y0.7570 
G01 X0.2622 Y0.7632 
G01 X0.2663 Y0.7688 
G01 X0.2712 Y0.7737 
G01 X0.2768 Y0.7778 
G01 X0.2830 Y0.7810 
G01 X0.2896 Y0.7831 
G01 X0.2965 Y0.7842 
G01 X0.3035 Y0.7842 
G01 X0.3104 Y0.7831 
G01 X0.3170 Y0.7810 
G01 X0.3232 Y0.7778 
G01 X0.3288 Y0.7737 
G01 X0.3320 Y0.7705 
G01 X0.3680 Y0.7705 
G01 X0.3712 Y0.7737 
G01 X0.3768 Y0.7778 
G01 X0.3830 Y0.7810 
G01 X0.3896 Y0.7831 
G01 X0.3965 Y0.7842 
G01 X0.4035 Y0.7842 
G01 X0.4104 Y0.7831 
G01 X0.4170 Y0.7810 
G01 X0.4232 Y0.7778 
G01 X0.4288 Y0.7737 
G01 X0.4320 Y0.7705 
G01 X0.4630 Y0.7705 
G01 X0.4689 Y0.7693 
G01 X0.4744 Y0.7670 
G01 X0.4794 Y0.7637 
G01 X0.5462 Y0.6970 
G01 X0.5463 Y0.6970 
G01 X0.5537 Y0.6970 
G01 X0.5610 Y0.6958 
G01 X0.5680 Y0.6936 
G01 X0.5746 Y0.6902 
G01 X0.5806 Y0.6858 
G01 X0.5858 Y0.6806 
G01 X0.5859 Y0.6805 
G01 X0.6704 Y0.6805 
G01 X0.6824 Y0.6925 
G01 X0.6994 Y0.6925 
G01 X0.7763 Y0.7694 
G01 X0.7806 Y0.7737 
G01 X0.7856 Y0.7770 
G01 X0.7911 Y0.7793 
G01 X0.7970 Y0.7805 
G01 X1.9530 Y0.7805 
G01 X1.9589 Y0.7793 
G01 X1.9644 Y0.7770 
G01 X1.9694 Y0.7737 
G01 X1.9737 Y0.7694 
G01 X1.9770 Y0.7644 
G01 X1.9793 Y0.7589 
G01 X1.9805 Y0.7530 
G01 X1.9805 Y0.4961 
G01 X1.9816 Y0.4942 
G01 X1.9826 Y0.4905 
G01 X1.9826 Y0.4434 
G01 X1.9816 Y0.4397 
G01 X1.9805 Y0.4377 
G01 X1.9805 Y0.4292 
G01 X1.9816 Y0.4273 
G01 X1.9826 Y0.4236 
G01 X1.9826 Y0.3764 
G01 X1.9816 Y0.3727 
G01 X1.9805 Y0.3708 
G01 X1.9805 Y0.3623 
G01 X1.9816 Y0.3603 
G01 X1.9826 Y0.3566 
G01 X1.9826 Y0.3095 
G01 X1.9816 Y0.3058 
G01 X1.9805 Y0.3039 
G01 X1.9805 Y0.0470 
G01 X1.9793 Y0.0411 
G01 X1.9770 Y0.0356 
G01 X1.9737 Y0.0306 
G01 X1.9694 Y0.0263 
G01 X1.9644 Y0.0230 
G01 X1.9589 Y0.0207 
G01 X1.9530 Y0.0195 
G01 X0.8470 Y0.0195 
G01 X0.8411 Y0.0207 
G01 X0.8356 Y0.0230 
G01 X0.8306 Y0.0263 
G01 X0.8263 Y0.0306 
G01 X0.8230 Y0.0356 
G01 X0.8207 Y0.0411 
G01 X0.8195 Y0.0470 
G01 X0.8195 Y0.2119 
G01 X0.8015 Y0.2299 
G01 X0.8015 Y0.2584 
G01 X0.7975 Y0.2544 
G01 X0.7975 Y0.2303 
G01 X0.7697 Y0.2025 
G01 X0.7303 Y0.2025 
G01 X0.7025 Y0.2303 
G01 X0.7025 Y0.2697 
G01 X0.7303 Y0.2975 
G01 X0.7544 Y0.2975 
G01 X0.7594 Y0.3025 
G01 X0.7303 Y0.3025 
G01 X0.7025 Y0.3303 
G01 X0.7025 Y0.3697 
G01 X0.7303 Y0.3975 
G01 X0.7544 Y0.3975 
G01 X0.8015 Y0.4446 
G01 X0.8015 Y0.4701 
G01 X0.8299 Y0.4985 
G01 X0.8701 Y0.4985 
G01 X0.8985 Y0.4701 
G01 X0.8985 Y0.4299 
G01 X0.8701 Y0.4015 
G01 X0.8446 Y0.4015 
G01 X0.8416 Y0.3985 
G01 X0.8701 Y0.3985 
G01 X0.8985 Y0.3701 
G01 X0.8985 Y0.3299 
G01 X0.8701 Y0.3015 
G01 X0.8446 Y0.3015 
G01 X0.8416 Y0.2985 
G01 X0.8701 Y0.2985 
G01 X0.8985 Y0.2701 
G01 X0.8985 Y0.2299 
G01 X0.8805 Y0.2119 
G01 X0.8805 Y0.0805 
G01 X1.9195 Y0.0805 
G01 X1.9195 Y0.2969 
G01 X1.8875 Y0.2969 
G01 X1.8838 Y0.2979 
G01 X1.8805 Y0.2998 
G01 X1.8778 Y0.3025 
G01 X1.8759 Y0.3058 
G01 X1.8749 Y0.3095 
G01 X1.8749 Y0.3566 
G01 X1.8759 Y0.3603 
G01 X1.8778 Y0.3636 
G01 X1.8805 Y0.3663 
G01 X1.8808 Y0.3665 
G01 X1.8805 Y0.3667 
G01 X1.8778 Y0.3694 
G01 X1.8759 Y0.3727 
G01 X1.8749 Y0.3764 
G01 X1.8749 Y0.4236 
G01 X1.8759 Y0.4273 
G01 X1.8778 Y0.4306 
G01 X1.8805 Y0.4333 
G01 X1.8808 Y0.4335 
G01 X1.8805 Y0.4337 
G01 X1.8778 Y0.4364 
G01 X1.8759 Y0.4397 
G01 X1.8749 Y0.4434 
G01 X1.8749 Y0.4905 
G01 X1.8759 Y0.4942 
G01 X1.8778 Y0.4975 
G01 X1.8805 Y0.5002 
G01 X1.8838 Y0.5021 
G01 X1.8875 Y0.5031 
G01 X1.9195 Y0.5031 
G01 X1.9195 Y0.7195 
G01 X0.8126 Y0.7195 
G01 X0.7425 Y0.6494 
G01 X0.7425 Y0.6356 
G01 X0.7763 Y0.6694 
G01 X0.7806 Y0.6737 
G01 X0.7856 Y0.6770 
G01 X0.7911 Y0.6793 
G01 X0.7970 Y0.6805 
G01 X1.1530 Y0.6805 
G01 X1.1589 Y0.6793 
G01 X1.1644 Y0.6770 
G01 X1.1694 Y0.6737 
G01 X1.1737 Y0.6694 
G01 X1.1770 Y0.6644 
G01 X1.1793 Y0.6589 
G01 X1.1805 Y0.6530 
G01 X1.1805 Y0.5881 
G01 X1.1985 Y0.5701 
G01 X1.1985 Y0.5299 
G01 X1.1701 Y0.5015 
G01 X1.1299 Y0.5015 
G01 X1.1015 Y0.5299 
G01 X1.1015 Y0.5701 
G01 X1.1195 Y0.5881 
G01 X1.1195 Y0.6195 
G01 X0.8126 Y0.6195 
G01 X0.7425 Y0.5494 
G01 X0.7425 Y0.5467 
G01 X0.7415 Y0.5400 
G01 X0.7394 Y0.5337 
G01 X0.7363 Y0.5277 
G01 X0.7324 Y0.5223 
G01 X0.7277 Y0.5176 
G01 X0.7223 Y0.5137 
G01 X0.7163 Y0.5106 
G01 X0.7100 Y0.5085 
G01 X0.7033 Y0.5075 
G01 X0.6967 Y0.5075 
G01 X0.6900 Y0.5085 
G01 X0.6837 Y0.5106 
G01 X0.6777 Y0.5137 
G01 X0.6723 Y0.5176 
G01 X0.6704 Y0.5195 
G01 X0.5970 Y0.5195 
G01 X0.5970 Y0.5156 
G01 X0.5960 Y0.5119 
G01 X0.5941 Y0.5086 
G01 X0.5914 Y0.5059 
G01 X0.5881 Y0.5040 
G01 X0.5844 Y0.5030 
G01 X0.5805 Y0.5030 
G01 X0.5805 Y0.0805 
G01 X0.6811 Y0.0805 
G01 X0.7049 Y0.1279 
G01 X0.7025 Y0.1303 
G01 X0.7025 Y0.1697 
G01 X0.7303 Y0.1975 
G01 X0.7697 Y0.1975 
G01 X0.7975 Y0.1697 
G01 X0.7975 Y0.1303 
G01 X0.7697 Y0.1025 
G01 X0.7603 Y0.1025 
G01 X0.7278 Y0.0373 
G01 X0.7270 Y0.0356 
G01 X0.7264 Y0.0346 
G01 X0.7259 Y0.0337 
G01 X0.7248 Y0.0322 
G01 X0.7237 Y0.0306 
G01 X0.7229 Y0.0298 
G01 X0.7223 Y0.0289 
G01 X0.7208 Y0.0277 
G01 X0.7194 Y0.0263 
G01 X0.7185 Y0.0257 
G01 X0.7177 Y0.0250 
G01 X0.7160 Y0.0240 
G01 X0.7144 Y0.0230 
G01 X0.7134 Y0.0226 
G01 X0.7125 Y0.0220 
G01 X0.7107 Y0.0214 
G01 X0.7089 Y0.0207 
G01 X0.7078 Y0.0205 
G01 X0.7068 Y0.0201 
G01 X0.7049 Y0.0199 
G01 X0.7030 Y0.0195 
G01 X0.7019 Y0.0195 
G01 X0.7008 Y0.0194 
G01 X0.6989 Y0.0195 
G01 X0.1970 Y0.0195 
G01 X0.1911 Y0.0207 
G01 X0.1856 Y0.0230 
G01 X0.1806 Y0.0263 
G01 X0.1763 Y0.0306 
G01 X0.1730 Y0.0356 
G01 X0.1707 Y0.0411 
G01 X0.1695 Y0.0470 
G01 X0.1695 Y0.0530 
G01 X0.1707 Y0.0589 
G01 X0.1719 Y0.0618 
G01 X0.1719 Y0.1326 
G01 X0.1698 Y0.1290 
G01 X0.1631 Y0.1203 
G01 X0.1553 Y0.1125 
G01 X0.1466 Y0.1058 
G01 X0.1371 Y0.1003 
G01 X0.1270 Y0.0962 
G01 X0.1164 Y0.0933 
G01 X0.1055 Y0.0919 
G01 X0.0945 Y0.0919 
G01 X0.0836 Y0.0933 
G01 X0.0730 Y0.0962 
G01 X0.0629 Y0.1003 
G01 X0.0534 Y0.1058 
G01 X0.0447 Y0.1125 
G01 X0.0369 Y0.1203 
G00 Z0.1000 
G00 X0.1719 Y0.2185 
G01 Z-0.0070 F10.00 
G01 X0.1719 Y0.2241 F20.00 
G01 X0.1683 Y0.2241 
G01 X0.1698 Y0.2222 
G01 X0.1719 Y0.2185 
G00 Z0.1000 
G00 X0.1611 Y0.3225 
G01 Z-0.0070 F10.00 
G01 X0.1574 Y0.3235 F20.00 
G01 X0.1541 Y0.3254 
G01 X0.1514 Y0.3281 
G01 X0.1495 Y0.3314 
G01 X0.1485 Y0.3351 
G01 X0.1485 Y0.3862 
G01 X0.1495 Y0.3898 
G01 X0.1514 Y0.3932 
G01 X0.1541 Y0.3959 
G01 X0.1574 Y0.3978 
G01 X0.1611 Y0.3988 
G01 X0.2436 Y0.3988 
G01 X0.2473 Y0.3978 
G01 X0.2506 Y0.3959 
G01 X0.2533 Y0.3932 
G01 X0.2552 Y0.3898 
G01 X0.2562 Y0.3862 
G01 X0.2562 Y0.3860 
G01 X0.2588 Y0.3843 
G01 X0.3025 Y0.3406 
G01 X0.3025 Y0.3544 
G01 X0.2763 Y0.3806 
G01 X0.2730 Y0.3856 
G01 X0.2707 Y0.3911 
G01 X0.2695 Y0.3970 
G01 X0.2695 Y0.4089 
G01 X0.2545 Y0.4089 
G01 X0.2533 Y0.4068 
G01 X0.2506 Y0.4041 
G01 X0.2473 Y0.4022 
G01 X0.2436 Y0.4012 
G01 X0.1611 Y0.4012 
G01 X0.1574 Y0.4022 
G01 X0.1541 Y0.4041 
G01 X0.1514 Y0.4068 
G01 X0.1495 Y0.4102 
G01 X0.1485 Y0.4138 
G01 X0.1485 Y0.4649 
G01 X0.1495 Y0.4686 
G01 X0.1514 Y0.4719 
G01 X0.1541 Y0.4746 
G01 X0.1574 Y0.4765 
G01 X0.1611 Y0.4775 
G01 X0.2436 Y0.4775 
G01 X0.2473 Y0.4765 
G01 X0.2506 Y0.4746 
G01 X0.2533 Y0.4719 
G01 X0.2545 Y0.4699 
G01 X0.2568 Y0.4699 
G01 X0.2569 Y0.4704 
G01 X0.2590 Y0.4770 
G01 X0.2622 Y0.4832 
G01 X0.2663 Y0.4888 
G01 X0.2712 Y0.4937 
G01 X0.2768 Y0.4978 
G01 X0.2830 Y0.5010 
G01 X0.2896 Y0.5031 
G01 X0.2965 Y0.5042 
G01 X0.3035 Y0.5042 
G01 X0.3104 Y0.5031 
G01 X0.3170 Y0.5010 
G01 X0.3232 Y0.4978 
G01 X0.3288 Y0.4937 
G01 X0.3337 Y0.4888 
G01 X0.3378 Y0.4832 
G01 X0.3410 Y0.4770 
G01 X0.3431 Y0.4704 
G01 X0.3442 Y0.4635 
G01 X0.3442 Y0.4565 
G01 X0.3431 Y0.4496 
G01 X0.3410 Y0.4430 
G01 X0.3378 Y0.4368 
G01 X0.3337 Y0.4312 
G01 X0.3305 Y0.4280 
G01 X0.3305 Y0.4126 
G01 X0.3456 Y0.3975 
G01 X0.3697 Y0.3975 
G01 X0.3975 Y0.3697 
G01 X0.3975 Y0.3303 
G01 X0.3697 Y0.3025 
G01 X0.3406 Y0.3025 
G01 X0.3456 Y0.2975 
G01 X0.3697 Y0.2975 
G01 X0.3867 Y0.2805 
G01 X0.4195 Y0.2805 
G01 X0.4195 Y0.3874 
G01 X0.3901 Y0.4168 
G01 X0.3896 Y0.4169 
G01 X0.3830 Y0.4190 
G01 X0.3768 Y0.4222 
G01 X0.3712 Y0.4263 
G01 X0.3663 Y0.4312 
G01 X0.3622 Y0.4368 
G01 X0.3590 Y0.4430 
G01 X0.3569 Y0.4496 
G01 X0.3558 Y0.4565 
G01 X0.3558 Y0.4635 
G01 X0.3569 Y0.4704 
G01 X0.3590 Y0.4770 
G01 X0.3622 Y0.4832 
G01 X0.3663 Y0.4888 
G01 X0.3712 Y0.4937 
G01 X0.3768 Y0.4978 
G01 X0.3830 Y0.5010 
G01 X0.3896 Y0.5031 
G01 X0.3965 Y0.5042 
G01 X0.4035 Y0.5042 
G01 X0.4104 Y0.5031 
G01 X0.4170 Y0.5010 
G01 X0.4232 Y0.4978 
G01 X0.4288 Y0.4937 
G01 X0.4337 Y0.4888 
G01 X0.4378 Y0.4832 
G01 X0.4410 Y0.4770 
G01 X0.4431 Y0.4704 
G01 X0.4442 Y0.4635 
G01 X0.4442 Y0.4565 
G01 X0.4432 Y0.4500 
G01 X0.4694 Y0.4237 
G01 X0.4737 Y0.4194 
G01 X0.4770 Y0.4144 
G01 X0.4793 Y0.4089 
G01 X0.4805 Y0.4030 
G01 X0.4805 Y0.2470 
G01 X0.4793 Y0.2411 
G01 X0.4770 Y0.2356 
G01 X0.4737 Y0.2306 
G01 X0.4694 Y0.2263 
G01 X0.4644 Y0.2230 
G01 X0.4589 Y0.2207 
G01 X0.4530 Y0.2195 
G01 X0.3867 Y0.2195 
G01 X0.3805 Y0.2133 
G01 X0.3805 Y0.1867 
G01 X0.3975 Y0.1697 
G01 X0.3975 Y0.1303 
G01 X0.3697 Y0.1025 
G01 X0.3303 Y0.1025 
G01 X0.3025 Y0.1303 
G01 X0.3025 Y0.1697 
G01 X0.3195 Y0.1867 
G01 X0.3195 Y0.2133 
G01 X0.3025 Y0.2303 
G01 X0.3025 Y0.2544 
G01 X0.2344 Y0.3225 
G01 X0.1611 Y0.3225 
G00 Z0.1000 
G00 X0.1683 Y0.5759 
G01 Z-0.0070 F10.00 
G01 X0.1719 Y0.5759 F20.00 
G01 X0.1719 Y0.5815 
G01 X0.1698 Y0.5778 
G01 X0.1683 Y0.5759 
G00 Z0.1000 
G00 X0.8015 Y0.5701 
G01 Z-0.0070 F10.00 
G01 X0.8299 Y0.5985 F20.00 
G01 X0.8701 Y0.5985 
G01 X0.8985 Y0.5701 
G01 X0.8985 Y0.5299 
G01 X0.8701 Y0.5015 
G01 X0.8299 Y0.5015 
G01 X0.8015 Y0.5299 
G01 X0.8015 Y0.5701 
G00 Z0.1000 
G00 X0.8015 Y0.3584 
G01 Z-0.0070 F10.00 
G01 X0.7975 Y0.3544 F20.00 
G01 X0.7975 Y0.3406 
G01 X0.8015 Y0.3446 
G01 X0.8015 Y0.3584 
G00 Z0.1000 
G00 X1.1015 Y0.3701 
G01 Z-0.0070 F10.00 
G01 X1.1299 Y0.3985 F20.00 
G01 X1.1701 Y0.3985 
G01 X1.1730 Y0.3956 
G01 X1.2025 Y0.4103 
G01 X1.2025 Y0.4197 
G01 X1.2303 Y0.4475 
G01 X1.2697 Y0.4475 
G01 X1.2975 Y0.4197 
G01 X1.2975 Y0.3803 
G01 X1.2697 Y0.3525 
G01 X1.2303 Y0.3525 
G01 X1.2279 Y0.3549 
G01 X1.1985 Y0.3401 
G01 X1.1985 Y0.3299 
G01 X1.1701 Y0.3015 
G01 X1.1299 Y0.3015 
G01 X1.1015 Y0.3299 
G01 X1.1015 Y0.3701 
G00 Z0.1000 
G00 X1.1015 Y0.4299 
G01 Z-0.0070 F10.00 
G01 X1.1015 Y0.4701 F20.00 
G01 X1.1299 Y0.4985 
G01 X1.1701 Y0.4985 
G01 X1.1730 Y0.4956 
G01 X1.2025 Y0.5103 
G01 X1.2025 Y0.5197 
G01 X1.2303 Y0.5475 
G01 X1.2697 Y0.5475 
G01 X1.2975 Y0.5197 
G01 X1.2975 Y0.4803 
G01 X1.2697 Y0.4525 
G01 X1.2303 Y0.4525 
G01 X1.2279 Y0.4549 
G01 X1.1985 Y0.4401 
G01 X1.1985 Y0.4299 
G01 X1.1701 Y0.4015 
G01 X1.1299 Y0.4015 
G01 X1.1015 Y0.4299 
G00 Z0.1000 
G00 X1.1299 Y0.2985 
G01 Z-0.0070 F10.00 
G01 X1.1701 Y0.2985 F20.00 
G01 X1.1730 Y0.2956 
G01 X1.2025 Y0.3103 
G01 X1.2025 Y0.3197 
G01 X1.2303 Y0.3475 
G01 X1.2697 Y0.3475 
G01 X1.2975 Y0.3197 
G01 X1.2975 Y0.2803 
G01 X1.2697 Y0.2525 
G01 X1.2303 Y0.2525 
G01 X1.2279 Y0.2549 
G01 X1.1985 Y0.2401 
G01 X1.1985 Y0.2299 
G01 X1.1701 Y0.2015 
G01 X1.1299 Y0.2015 
G01 X1.1015 Y0.2299 
G01 X1.1015 Y0.2701 
G01 X1.1299 Y0.2985 
G00 Z0.1000 
G00 X1.6025 Y0.2803 
G01 Z-0.0070 F10.00 
G01 X1.6025 Y0.3197 F20.00 
G01 X1.6303 Y0.3475 
G01 X1.6697 Y0.3475 
G01 X1.6779 Y0.3392 
G01 X1.7174 Y0.3500 
G01 X1.7174 Y0.3566 
G01 X1.7184 Y0.3603 
G01 X1.7203 Y0.3636 
G01 X1.7230 Y0.3663 
G01 X1.7233 Y0.3665 
G01 X1.7230 Y0.3667 
G01 X1.7203 Y0.3694 
G01 X1.6867 Y0.3695 
G01 X1.6697 Y0.3525 
G01 X1.6303 Y0.3525 
G01 X1.6025 Y0.3803 
G01 X1.6025 Y0.4197 
G01 X1.6303 Y0.4475 
G01 X1.6697 Y0.4475 
G01 X1.6867 Y0.4305 
G01 X1.7203 Y0.4305 
G01 X1.7230 Y0.4333 
G01 X1.7233 Y0.4335 
G01 X1.7230 Y0.4337 
G01 X1.7203 Y0.4364 
G01 X1.7184 Y0.4397 
G01 X1.7174 Y0.4434 
G01 X1.7174 Y0.4500 
G01 X1.6779 Y0.4608 
G01 X1.6697 Y0.4525 
G01 X1.6303 Y0.4525 
G01 X1.6025 Y0.4803 
G01 X1.6025 Y0.5197 
G01 X1.6303 Y0.5475 
G01 X1.6697 Y0.5475 
G01 X1.6975 Y0.5197 
G01 X1.6975 Y0.5187 
G01 X1.7546 Y0.5031 
G01 X1.8125 Y0.5031 
G01 X1.8162 Y0.5021 
G01 X1.8195 Y0.5002 
G01 X1.8222 Y0.4975 
G01 X1.8241 Y0.4942 
G01 X1.8251 Y0.4905 
G01 X1.8251 Y0.4434 
G01 X1.8241 Y0.4397 
G01 X1.8222 Y0.4364 
G01 X1.8195 Y0.4337 
G01 X1.8192 Y0.4335 
G01 X1.8195 Y0.4333 
G01 X1.8222 Y0.4306 
G01 X1.8241 Y0.4273 
G01 X1.8251 Y0.4236 
G01 X1.8251 Y0.3764 
G01 X1.8241 Y0.3727 
G01 X1.8222 Y0.3694 
G01 X1.8195 Y0.3667 
G01 X1.8192 Y0.3665 
G01 X1.8195 Y0.3663 
G01 X1.8222 Y0.3636 
G01 X1.8241 Y0.3603 
G01 X1.8251 Y0.3566 
G01 X1.8251 Y0.3095 
G01 X1.8241 Y0.3058 
G01 X1.8222 Y0.3025 
G01 X1.8195 Y0.2998 
G01 X1.8162 Y0.2979 
G01 X1.8125 Y0.2969 
G01 X1.7546 Y0.2969 
G01 X1.6975 Y0.2813 
G01 X1.6975 Y0.2803 
G01 X1.6697 Y0.2525 
G01 X1.6303 Y0.2525 
G01 X1.6025 Y0.2803 
G00 Z0.1000 
G00 X0.0332 Y0.1170 
G01 Z-0.0070 F10.00 
G01 X0.0261 Y0.1262 F20.00 
G01 X0.0203 Y0.1363 
G01 X0.0158 Y0.1470 
G01 X0.0128 Y0.1582 
G01 X0.0113 Y0.1698 
G01 X0.0113 Y0.1814 
G01 X0.0128 Y0.1929 
G01 X0.0158 Y0.2042 
G01 X0.0203 Y0.2149 
G01 X0.0261 Y0.2250 
G01 X0.0332 Y0.2342 
G01 X0.0414 Y0.2424 
G01 X0.0506 Y0.2495 
G01 X0.0607 Y0.2553 
G01 X0.0714 Y0.2598 
G01 X0.0827 Y0.2628 
G01 X0.0942 Y0.2643 
G01 X0.1058 Y0.2643 
G01 X0.1173 Y0.2628 
G01 X0.1286 Y0.2598 
G01 X0.1393 Y0.2553 
G01 X0.1435 Y0.2529 
G01 X0.1435 Y0.2884 
G01 X0.1448 Y0.2934 
G01 X0.1474 Y0.2978 
G01 X0.1510 Y0.3014 
G01 X0.1555 Y0.3040 
G01 X0.1604 Y0.3053 
G01 X0.2443 Y0.3053 
G01 X0.2445 Y0.3053 
G01 X0.2323 Y0.3175 
G01 X0.1604 Y0.3175 
G01 X0.1555 Y0.3188 
G01 X0.1510 Y0.3214 
G01 X0.1474 Y0.3250 
G01 X0.1448 Y0.3295 
G01 X0.1435 Y0.3344 
G01 X0.1435 Y0.3868 
G01 X0.1448 Y0.3918 
G01 X0.1474 Y0.3962 
G01 X0.1510 Y0.3999 
G01 X0.1513 Y0.4000 
G01 X0.1510 Y0.4001 
G01 X0.1474 Y0.4038 
G01 X0.1448 Y0.4082 
G01 X0.1435 Y0.4132 
G01 X0.1435 Y0.4656 
G01 X0.1448 Y0.4705 
G01 X0.1474 Y0.4750 
G01 X0.1510 Y0.4786 
G01 X0.1555 Y0.4812 
G01 X0.1604 Y0.4825 
G01 X0.2443 Y0.4825 
G01 X0.2493 Y0.4812 
G01 X0.2537 Y0.4786 
G01 X0.2541 Y0.4782 
G01 X0.2544 Y0.4789 
G01 X0.2579 Y0.4858 
G01 X0.2625 Y0.4921 
G01 X0.2679 Y0.4975 
G01 X0.2742 Y0.5021 
G01 X0.2811 Y0.5056 
G01 X0.2885 Y0.5080 
G01 X0.2961 Y0.5092 
G01 X0.3039 Y0.5092 
G01 X0.3115 Y0.5080 
G01 X0.3189 Y0.5056 
G01 X0.3258 Y0.5021 
G01 X0.3321 Y0.4975 
G01 X0.3375 Y0.4921 
G01 X0.3421 Y0.4858 
G01 X0.3456 Y0.4789 
G01 X0.3480 Y0.4715 
G01 X0.3492 Y0.4639 
G01 X0.3492 Y0.4561 
G01 X0.3480 Y0.4485 
G01 X0.3456 Y0.4411 
G01 X0.3421 Y0.4342 
G01 X0.3375 Y0.4279 
G01 X0.3355 Y0.4259 
G01 X0.3355 Y0.4147 
G01 X0.3477 Y0.4025 
G01 X0.3717 Y0.4025 
G01 X0.4025 Y0.3717 
G01 X0.4025 Y0.3283 
G01 X0.3742 Y0.3000 
G01 X0.3887 Y0.2855 
G01 X0.4145 Y0.2855 
G01 X0.4145 Y0.3853 
G01 X0.3875 Y0.4123 
G01 X0.3811 Y0.4144 
G01 X0.3742 Y0.4179 
G01 X0.3679 Y0.4225 
G01 X0.3625 Y0.4279 
G01 X0.3579 Y0.4342 
G01 X0.3544 Y0.4411 
G01 X0.3520 Y0.4485 
G01 X0.3508 Y0.4561 
G01 X0.3508 Y0.4639 
G01 X0.3520 Y0.4715 
G01 X0.3544 Y0.4789 
G01 X0.3579 Y0.4858 
G01 X0.3625 Y0.4921 
G01 X0.3679 Y0.4975 
G01 X0.3742 Y0.5021 
G01 X0.3811 Y0.5056 
G01 X0.3885 Y0.5080 
G01 X0.3961 Y0.5092 
G01 X0.4039 Y0.5092 
G01 X0.4115 Y0.5080 
G01 X0.4189 Y0.5056 
G01 X0.4258 Y0.5021 
G01 X0.4321 Y0.4975 
G01 X0.4375 Y0.4921 
G01 X0.4421 Y0.4858 
G01 X0.4456 Y0.4789 
G01 X0.4480 Y0.4715 
G01 X0.4492 Y0.4639 
G01 X0.4492 Y0.4561 
G01 X0.4485 Y0.4517 
G01 X0.4726 Y0.4276 
G01 X0.4776 Y0.4226 
G01 X0.4815 Y0.4168 
G01 X0.4841 Y0.4104 
G01 X0.4855 Y0.4035 
G01 X0.4855 Y0.2465 
G01 X0.4841 Y0.2396 
G01 X0.4815 Y0.2332 
G01 X0.4776 Y0.2274 
G01 X0.4726 Y0.2224 
G01 X0.4668 Y0.2185 
G01 X0.4604 Y0.2159 
G01 X0.4535 Y0.2145 
G01 X0.3887 Y0.2145 
G01 X0.3855 Y0.2113 
G01 X0.3855 Y0.1887 
G01 X0.4025 Y0.1717 
G01 X0.4025 Y0.1283 
G01 X0.3717 Y0.0975 
G01 X0.3283 Y0.0975 
G01 X0.2975 Y0.1283 
G01 X0.2975 Y0.1717 
G01 X0.3145 Y0.1887 
G01 X0.3145 Y0.2113 
G01 X0.2975 Y0.2283 
G01 X0.2975 Y0.2523 
G01 X0.2612 Y0.2886 
G01 X0.2612 Y0.2884 
G01 X0.2612 Y0.2360 
G01 X0.2599 Y0.2311 
G01 X0.2573 Y0.2266 
G01 X0.2537 Y0.2230 
G01 X0.2493 Y0.2204 
G01 X0.2443 Y0.2191 
G01 X0.2379 Y0.2191 
G01 X0.2379 Y0.0855 
G01 X0.5145 Y0.0855 
G01 X0.5145 Y0.4981 
G01 X0.5100 Y0.4993 
G01 X0.5055 Y0.5019 
G01 X0.5019 Y0.5055 
G01 X0.4993 Y0.5100 
G01 X0.4980 Y0.5149 
G01 X0.4980 Y0.5851 
G01 X0.4993 Y0.5900 
G01 X0.5019 Y0.5945 
G01 X0.5055 Y0.5981 
G01 X0.5100 Y0.6007 
G01 X0.5149 Y0.6020 
G01 X0.5297 Y0.6020 
G01 X0.5227 Y0.6055 
G01 X0.5161 Y0.6103 
G01 X0.5103 Y0.6161 
G01 X0.5055 Y0.6227 
G01 X0.5018 Y0.6300 
G01 X0.4993 Y0.6378 
G01 X0.4980 Y0.6459 
G01 X0.4980 Y0.6518 
G01 X0.4453 Y0.7045 
G01 X0.4341 Y0.7045 
G01 X0.4321 Y0.7025 
G01 X0.4258 Y0.6979 
G01 X0.4189 Y0.6944 
G01 X0.4115 Y0.6920 
G01 X0.4039 Y0.6908 
G01 X0.3961 Y0.6908 
G01 X0.3885 Y0.6920 
G01 X0.3811 Y0.6944 
G01 X0.3742 Y0.6979 
G01 X0.3679 Y0.7025 
G01 X0.3659 Y0.7045 
G01 X0.3341 Y0.7045 
G01 X0.3321 Y0.7025 
G01 X0.3258 Y0.6979 
G01 X0.3189 Y0.6944 
G01 X0.3115 Y0.6920 
G01 X0.3107 Y0.6919 
G01 X0.2379 Y0.5817 
G01 X0.2379 Y0.5809 
G01 X0.2443 Y0.5809 
G01 X0.2493 Y0.5796 
G01 X0.2537 Y0.5770 
G01 X0.2573 Y0.5734 
G01 X0.2599 Y0.5689 
G01 X0.2612 Y0.5640 
G01 X0.2612 Y0.5116 
G01 X0.2599 Y0.5066 
G01 X0.2573 Y0.5022 
G01 X0.2537 Y0.4986 
G01 X0.2493 Y0.4960 
G01 X0.2443 Y0.4947 
G01 X0.1604 Y0.4947 
G01 X0.1555 Y0.4960 
G01 X0.1510 Y0.4986 
G01 X0.1474 Y0.5022 
G01 X0.1448 Y0.5066 
G01 X0.1435 Y0.5116 
G01 X0.1435 Y0.5471 
G01 X0.1393 Y0.5447 
G01 X0.1286 Y0.5402 
G01 X0.1173 Y0.5372 
G01 X0.1058 Y0.5357 
G01 X0.0942 Y0.5357 
G01 X0.0827 Y0.5372 
G01 X0.0714 Y0.5402 
G01 X0.0607 Y0.5447 
G01 X0.0506 Y0.5505 
G01 X0.0414 Y0.5576 
G01 X0.0332 Y0.5658 
G01 X0.0261 Y0.5750 
G01 X0.0203 Y0.5851 
G01 X0.0158 Y0.5958 
G01 X0.0128 Y0.6071 
G01 X0.0113 Y0.6186 
G01 X0.0113 Y0.6302 
G01 X0.0128 Y0.6418 
G01 X0.0158 Y0.6530 
G01 X0.0203 Y0.6637 
G01 X0.0261 Y0.6738 
G01 X0.0332 Y0.6830 
G01 X0.0414 Y0.6913 
G01 X0.0506 Y0.6983 
G01 X0.0607 Y0.7041 
G01 X0.0714 Y0.7086 
G01 X0.0827 Y0.7116 
G01 X0.0942 Y0.7131 
G01 X0.1058 Y0.7131 
G01 X0.1173 Y0.7116 
G01 X0.1286 Y0.7086 
G01 X0.1393 Y0.7041 
G01 X0.1494 Y0.6983 
G01 X0.1586 Y0.6913 
G01 X0.1668 Y0.6830 
G01 X0.1739 Y0.6738 
G01 X0.1797 Y0.6637 
G01 X0.1842 Y0.6530 
G01 X0.1872 Y0.6418 
G01 X0.1881 Y0.6351 
G01 X0.2516 Y0.7311 
G01 X0.2508 Y0.7361 
G01 X0.2508 Y0.7439 
G01 X0.2520 Y0.7515 
G01 X0.2544 Y0.7589 
G01 X0.2579 Y0.7658 
G01 X0.2625 Y0.7721 
G01 X0.2679 Y0.7775 
G01 X0.2742 Y0.7821 
G01 X0.2811 Y0.7856 
G01 X0.2885 Y0.7880 
G01 X0.2961 Y0.7892 
G01 X0.3039 Y0.7892 
G01 X0.3115 Y0.7880 
G01 X0.3189 Y0.7856 
G01 X0.3258 Y0.7821 
G01 X0.3321 Y0.7775 
G01 X0.3341 Y0.7755 
G01 X0.3659 Y0.7755 
G01 X0.3679 Y0.7775 
G01 X0.3742 Y0.7821 
G01 X0.3811 Y0.7856 
G01 X0.3885 Y0.7880 
G01 X0.3961 Y0.7892 
G01 X0.4039 Y0.7892 
G01 X0.4115 Y0.7880 
G01 X0.4189 Y0.7856 
G01 X0.4258 Y0.7821 
G01 X0.4321 Y0.7775 
G01 X0.4341 Y0.7755 
G01 X0.4635 Y0.7755 
G01 X0.4704 Y0.7741 
G01 X0.4768 Y0.7715 
G01 X0.4826 Y0.7676 
G01 X0.5482 Y0.7020 
G01 X0.5541 Y0.7020 
G01 X0.5622 Y0.7007 
G01 X0.5700 Y0.6982 
G01 X0.5773 Y0.6945 
G01 X0.5839 Y0.6897 
G01 X0.5880 Y0.6855 
G01 X0.6683 Y0.6855 
G01 X0.6803 Y0.6975 
G01 X0.6973 Y0.6975 
G01 X0.7724 Y0.7726 
G01 X0.7774 Y0.7776 
G01 X0.7832 Y0.7815 
G01 X0.7896 Y0.7841 
G01 X0.7965 Y0.7855 
G01 X1.9535 Y0.7855 
G01 X1.9604 Y0.7841 
G01 X1.9668 Y0.7815 
G01 X1.9726 Y0.7776 
G01 X1.9776 Y0.7726 
G01 X1.9815 Y0.7668 
G01 X1.9841 Y0.7604 
G01 X1.9855 Y0.7535 
G01 X1.9855 Y0.4975 
G01 X1.9863 Y0.4961 
G01 X1.9876 Y0.4911 
G01 X1.9876 Y0.4427 
G01 X1.9863 Y0.4377 
G01 X1.9855 Y0.4364 
G01 X1.9855 Y0.4305 
G01 X1.9863 Y0.4292 
G01 X1.9876 Y0.4242 
G01 X1.9876 Y0.3758 
G01 X1.9863 Y0.3708 
G01 X1.9855 Y0.3695 
G01 X1.9855 Y0.3636 
G01 X1.9863 Y0.3623 
G01 X1.9876 Y0.3573 
G01 X1.9876 Y0.3089 
G01 X1.9863 Y0.3039 
G01 X1.9855 Y0.3025 
G01 X1.9855 Y0.0465 
G01 X1.9841 Y0.0396 
G01 X1.9815 Y0.0332 
G01 X1.9776 Y0.0274 
G01 X1.9726 Y0.0224 
G01 X1.9668 Y0.0185 
G01 X1.9604 Y0.0159 
G01 X1.9535 Y0.0145 
G01 X0.8465 Y0.0145 
G01 X0.8396 Y0.0159 
G01 X0.8332 Y0.0185 
G01 X0.8274 Y0.0224 
G01 X0.8224 Y0.0274 
G01 X0.8185 Y0.0332 
G01 X0.8159 Y0.0396 
G01 X0.8145 Y0.0465 
G01 X0.8145 Y0.2098 
G01 X0.7993 Y0.2250 
G01 X0.7742 Y0.2000 
G01 X0.8025 Y0.1717 
G01 X0.8025 Y0.1283 
G01 X0.7717 Y0.0975 
G01 X0.7634 Y0.0975 
G01 X0.7323 Y0.0353 
G01 X0.7315 Y0.0332 
G01 X0.7308 Y0.0321 
G01 X0.7302 Y0.0310 
G01 X0.7288 Y0.0292 
G01 X0.7276 Y0.0274 
G01 X0.7267 Y0.0265 
G01 X0.7259 Y0.0255 
G01 X0.7242 Y0.0240 
G01 X0.7226 Y0.0224 
G01 X0.7216 Y0.0217 
G01 X0.7206 Y0.0209 
G01 X0.7187 Y0.0198 
G01 X0.7168 Y0.0185 
G01 X0.7156 Y0.0181 
G01 X0.7145 Y0.0174 
G01 X0.7124 Y0.0167 
G01 X0.7104 Y0.0159 
G01 X0.7091 Y0.0156 
G01 X0.7079 Y0.0152 
G01 X0.7057 Y0.0149 
G01 X0.7035 Y0.0145 
G01 X0.7022 Y0.0145 
G01 X0.7010 Y0.0143 
G01 X0.6987 Y0.0145 
G01 X0.1965 Y0.0145 
G01 X0.1896 Y0.0159 
G01 X0.1832 Y0.0185 
G01 X0.1774 Y0.0224 
G01 X0.1724 Y0.0274 
G01 X0.1685 Y0.0332 
G01 X0.1659 Y0.0396 
G01 X0.1645 Y0.0465 
G01 X0.1645 Y0.0535 
G01 X0.1659 Y0.0604 
G01 X0.1669 Y0.0628 
G01 X0.1669 Y0.1170 
G01 X0.1586 Y0.1087 
G01 X0.1494 Y0.1017 
G01 X0.1393 Y0.0959 
G01 X0.1286 Y0.0914 
G01 X0.1173 Y0.0884 
G01 X0.1058 Y0.0869 
G01 X0.0942 Y0.0869 
G01 X0.0827 Y0.0884 
G01 X0.0714 Y0.0914 
G01 X0.0607 Y0.0959 
G01 X0.0506 Y0.1017 
G01 X0.0414 Y0.1087 
G01 X0.0332 Y0.1170 
G00 Z0.1000 
G00 X0.2606 Y0.3891 
G01 Z-0.0070 F10.00 
G01 X0.2620 Y0.3882 F20.00 
G01 X0.2716 Y0.3786 
G01 X0.2685 Y0.3832 
G01 X0.2659 Y0.3896 
G01 X0.2645 Y0.3965 
G01 X0.2645 Y0.4039 
G01 X0.2574 Y0.4039 
G01 X0.2537 Y0.4001 
G01 X0.2535 Y0.4000 
G01 X0.2537 Y0.3999 
G01 X0.2573 Y0.3962 
G01 X0.2599 Y0.3918 
G01 X0.2606 Y0.3891 
G00 Z0.1000 
G00 X0.5855 Y0.4981 
G01 Z-0.0070 F10.00 
G01 X0.5855 Y0.0855 F20.00 
G01 X0.6781 Y0.0855 
G01 X0.6988 Y0.1270 
G01 X0.6975 Y0.1283 
G01 X0.6975 Y0.1717 
G01 X0.7258 Y0.2000 
G01 X0.6975 Y0.2283 
G01 X0.6975 Y0.2717 
G01 X0.7258 Y0.3000 
G01 X0.6975 Y0.3283 
G01 X0.6975 Y0.3717 
G01 X0.7283 Y0.4025 
G01 X0.7523 Y0.4025 
G01 X0.7965 Y0.4467 
G01 X0.7965 Y0.4722 
G01 X0.8243 Y0.5000 
G01 X0.7965 Y0.5278 
G01 X0.7965 Y0.5722 
G01 X0.8278 Y0.6035 
G01 X0.8722 Y0.6035 
G01 X0.9035 Y0.5722 
G01 X0.9035 Y0.5278 
G01 X0.8757 Y0.5000 
G01 X0.9035 Y0.4722 
G01 X0.9035 Y0.4278 
G01 X0.8757 Y0.4000 
G01 X0.9035 Y0.3722 
G01 X0.9035 Y0.3278 
G01 X0.8757 Y0.3000 
G01 X0.9035 Y0.2722 
G01 X0.9035 Y0.2278 
G01 X0.8855 Y0.2098 
G01 X0.8855 Y0.0855 
G01 X1.9145 Y0.0855 
G01 X1.9145 Y0.2919 
G01 X1.8868 Y0.2919 
G01 X1.8818 Y0.2932 
G01 X1.8774 Y0.2958 
G01 X1.8738 Y0.2994 
G01 X1.8712 Y0.3039 
G01 X1.8699 Y0.3089 
G01 X1.8699 Y0.3573 
G01 X1.8712 Y0.3623 
G01 X1.8737 Y0.3665 
G01 X1.8712 Y0.3708 
G01 X1.8699 Y0.3758 
G01 X1.8699 Y0.4242 
G01 X1.8712 Y0.4292 
G01 X1.8737 Y0.4335 
G01 X1.8712 Y0.4377 
G01 X1.8699 Y0.4427 
G01 X1.8699 Y0.4911 
G01 X1.8712 Y0.4961 
G01 X1.8738 Y0.5006 
G01 X1.8774 Y0.5042 
G01 X1.8818 Y0.5068 
G01 X1.8868 Y0.5081 
G01 X1.9145 Y0.5081 
G01 X1.9145 Y0.7145 
G01 X0.8147 Y0.7145 
G01 X0.7786 Y0.6784 
G01 X0.7832 Y0.6815 
G01 X0.7896 Y0.6841 
G01 X0.7965 Y0.6855 
G01 X1.1535 Y0.6855 
G01 X1.1604 Y0.6841 
G01 X1.1668 Y0.6815 
G01 X1.1726 Y0.6776 
G01 X1.1776 Y0.6726 
G01 X1.1815 Y0.6668 
G01 X1.1841 Y0.6604 
G01 X1.1855 Y0.6535 
G01 X1.1855 Y0.5902 
G01 X1.2035 Y0.5722 
G01 X1.2035 Y0.5278 
G01 X1.1807 Y0.5050 
G01 X1.1975 Y0.5134 
G01 X1.1975 Y0.5217 
G01 X1.2283 Y0.5525 
G01 X1.2717 Y0.5525 
G01 X1.3025 Y0.5217 
G01 X1.3025 Y0.4783 
G01 X1.2742 Y0.4500 
G01 X1.3025 Y0.4217 
G01 X1.3025 Y0.3783 
G01 X1.2742 Y0.3500 
G01 X1.3025 Y0.3217 
G01 X1.3025 Y0.2783 
G01 X1.2717 Y0.2475 
G01 X1.2283 Y0.2475 
G01 X1.2270 Y0.2488 
G01 X1.2035 Y0.2371 
G01 X1.2035 Y0.2278 
G01 X1.1722 Y0.1965 
G01 X1.1278 Y0.1965 
G01 X1.0965 Y0.2278 
G01 X1.0965 Y0.2722 
G01 X1.1243 Y0.3000 
G01 X1.0965 Y0.3278 
G01 X1.0965 Y0.3722 
G01 X1.1243 Y0.4000 
G01 X1.0965 Y0.4278 
G01 X1.0965 Y0.4722 
G01 X1.1243 Y0.5000 
G01 X1.0965 Y0.5278 
G01 X1.0965 Y0.5722 
G01 X1.1145 Y0.5902 
G01 X1.1145 Y0.6145 
G01 X0.8147 Y0.6145 
G01 X0.7475 Y0.5473 
G01 X0.7475 Y0.5463 
G01 X0.7463 Y0.5389 
G01 X0.7440 Y0.5318 
G01 X0.7406 Y0.5251 
G01 X0.7362 Y0.5191 
G01 X0.7309 Y0.5138 
G01 X0.7249 Y0.5094 
G01 X0.7182 Y0.5060 
G01 X0.7111 Y0.5037 
G01 X0.7037 Y0.5025 
G01 X0.6963 Y0.5025 
G01 X0.6889 Y0.5037 
G01 X0.6818 Y0.5060 
G01 X0.6751 Y0.5094 
G01 X0.6691 Y0.5138 
G01 X0.6683 Y0.5145 
G01 X0.6019 Y0.5145 
G01 X0.6007 Y0.5100 
G01 X0.5981 Y0.5055 
G01 X0.5945 Y0.5019 
G01 X0.5900 Y0.4993 
G01 X0.5855 Y0.4981 
G00 Z0.1000 
G00 X0.6019 Y0.5855 
G01 Z-0.0070 F10.00 
G01 X0.6683 Y0.5855 F20.00 
G01 X0.6691 Y0.5862 
G01 X0.6751 Y0.5906 
G01 X0.6818 Y0.5940 
G01 X0.6889 Y0.5963 
G01 X0.6963 Y0.5975 
G01 X0.6973 Y0.5975 
G01 X0.7023 Y0.6025 
G01 X0.6803 Y0.6025 
G01 X0.6683 Y0.6145 
G01 X0.5880 Y0.6145 
G01 X0.5839 Y0.6103 
G01 X0.5773 Y0.6055 
G01 X0.5703 Y0.6020 
G01 X0.5851 Y0.6020 
G01 X0.5900 Y0.6007 
G01 X0.5945 Y0.5981 
G01 X0.5981 Y0.5945 
G01 X0.6007 Y0.5900 
G01 X0.6019 Y0.5855 
G00 Z0.1000 
G00 X1.2035 Y0.4371 
G01 Z-0.0070 F10.00 
G01 X1.2035 Y0.4278 F20.00 
G01 X1.1807 Y0.4050 
G01 X1.1975 Y0.4134 
G01 X1.1975 Y0.4217 
G01 X1.2221 Y0.4464 
G01 X1.2035 Y0.4371 
G00 Z0.1000 
G00 X1.2035 Y0.3371 
G01 Z-0.0070 F10.00 
G01 X1.2035 Y0.3278 F20.00 
G01 X1.1807 Y0.3050 
G01 X1.1975 Y0.3134 
G01 X1.1975 Y0.3217 
G01 X1.2221 Y0.3464 
G01 X1.2035 Y0.3371 
G00 Z0.1000 
G00 X1.5975 Y0.3217 
G01 Z-0.0070 F10.00 
G01 X1.6258 Y0.3500 F20.00 
G01 X1.5975 Y0.3783 
G01 X1.5975 Y0.4217 
G01 X1.6258 Y0.4500 
G01 X1.5975 Y0.4783 
G01 X1.5975 Y0.5217 
G01 X1.6283 Y0.5525 
G01 X1.6717 Y0.5525 
G01 X1.7015 Y0.5228 
G01 X1.7553 Y0.5081 
G01 X1.8132 Y0.5081 
G01 X1.8182 Y0.5068 
G01 X1.8226 Y0.5042 
G01 X1.8262 Y0.5006 
G01 X1.8288 Y0.4961 
G01 X1.8301 Y0.4911 
G01 X1.8301 Y0.4427 
G01 X1.8288 Y0.4377 
G01 X1.8263 Y0.4335 
G01 X1.8288 Y0.4292 
G01 X1.8301 Y0.4242 
G01 X1.8301 Y0.3758 
G01 X1.8288 Y0.3708 
G01 X1.8263 Y0.3665 
G01 X1.8288 Y0.3623 
G01 X1.8301 Y0.3573 
G01 X1.8301 Y0.3089 
G01 X1.8288 Y0.3039 
G01 X1.8262 Y0.2994 
G01 X1.8226 Y0.2958 
G01 X1.8182 Y0.2932 
G01 X1.8132 Y0.2919 
G01 X1.7553 Y0.2919 
G01 X1.7015 Y0.2772 
G01 X1.6717 Y0.2475 
G01 X1.6283 Y0.2475 
G01 X1.5975 Y0.2783 
G01 X1.5975 Y0.3217 
G00 Z0.1000 
G00 X1.6794 Y0.3448 
G01 Z-0.0070 F10.00 
G01 X1.7124 Y0.3538 F20.00 
G01 X1.7124 Y0.3573 
G01 X1.7137 Y0.3623 
G01 X1.7150 Y0.3645 
G01 X1.6887 Y0.3645 
G01 X1.6742 Y0.3500 
G01 X1.6794 Y0.3448 
G00 Z0.1000 
G00 X1.6887 Y0.4355 
G01 Z-0.0070 F10.00 
G01 X1.7150 Y0.4355 F20.00 
G01 X1.7137 Y0.4377 
G01 X1.7124 Y0.4427 
G01 X1.7124 Y0.4462 
G01 X1.6794 Y0.4552 
G01 X1.6742 Y0.4500 
G01 X1.6887 Y0.4355 
G00 Z0.1000 
G00 X0.0300 Y0.1130 
G01 Z-0.0070 F10.00 
G01 X0.0235 Y0.1213 F20.00 
G01 X0.0179 Y0.1302 
G01 X0.0133 Y0.1397 
G01 X0.0098 Y0.1496 
G01 X0.0075 Y0.1599 
G01 X0.0063 Y0.1703 
G01 X0.0063 Y0.1809 
G01 X0.0075 Y0.1913 
G01 X0.0098 Y0.2016 
G01 X0.0133 Y0.2115 
G01 X0.0179 Y0.2210 
G01 X0.0235 Y0.2299 
G01 X0.0300 Y0.2381 
G01 X0.0375 Y0.2456 
G01 X0.0457 Y0.2521 
G01 X0.0546 Y0.2577 
G01 X0.0641 Y0.2623 
G01 X0.0740 Y0.2658 
G01 X0.0843 Y0.2681 
G01 X0.0947 Y0.2693 
G01 X0.1053 Y0.2693 
G01 X0.1157 Y0.2681 
G01 X0.1260 Y0.2658 
G01 X0.1359 Y0.2623 
G01 X0.1385 Y0.2611 
G01 X0.1385 Y0.2882 
G01 X0.1394 Y0.2930 
G01 X0.1413 Y0.2974 
G01 X0.1440 Y0.3014 
G01 X0.1474 Y0.3049 
G01 X0.1514 Y0.3075 
G01 X0.1558 Y0.3094 
G01 X0.1606 Y0.3103 
G01 X0.2324 Y0.3103 
G01 X0.2302 Y0.3125 
G01 X0.1606 Y0.3125 
G01 X0.1558 Y0.3134 
G01 X0.1514 Y0.3153 
G01 X0.1474 Y0.3180 
G01 X0.1440 Y0.3214 
G01 X0.1413 Y0.3254 
G01 X0.1394 Y0.3299 
G01 X0.1385 Y0.3346 
G01 X0.1385 Y0.3867 
G01 X0.1394 Y0.3914 
G01 X0.1413 Y0.3959 
G01 X0.1440 Y0.3999 
G01 X0.1441 Y0.4000 
G01 X0.1440 Y0.4001 
G01 X0.1413 Y0.4041 
G01 X0.1394 Y0.4086 
G01 X0.1385 Y0.4133 
G01 X0.1385 Y0.4654 
G01 X0.1394 Y0.4701 
G01 X0.1413 Y0.4746 
G01 X0.1440 Y0.4786 
G01 X0.1474 Y0.4820 
G01 X0.1514 Y0.4847 
G01 X0.1558 Y0.4866 
G01 X0.1606 Y0.4875 
G01 X0.2441 Y0.4875 
G01 X0.2489 Y0.4866 
G01 X0.2520 Y0.4853 
G01 X0.2536 Y0.4884 
G01 X0.2586 Y0.4953 
G01 X0.2647 Y0.5014 
G01 X0.2716 Y0.5064 
G01 X0.2792 Y0.5102 
G01 X0.2873 Y0.5129 
G01 X0.2957 Y0.5142 
G01 X0.3043 Y0.5142 
G01 X0.3127 Y0.5129 
G01 X0.3208 Y0.5102 
G01 X0.3284 Y0.5064 
G01 X0.3353 Y0.5014 
G01 X0.3414 Y0.4953 
G01 X0.3464 Y0.4884 
G01 X0.3500 Y0.4813 
G01 X0.3536 Y0.4884 
G01 X0.3586 Y0.4953 
G01 X0.3647 Y0.5014 
G01 X0.3716 Y0.5064 
G01 X0.3792 Y0.5102 
G01 X0.3873 Y0.5129 
G01 X0.3957 Y0.5142 
G01 X0.4043 Y0.5142 
G01 X0.4127 Y0.5129 
G01 X0.4208 Y0.5102 
G01 X0.4284 Y0.5064 
G01 X0.4353 Y0.5014 
G01 X0.4414 Y0.4953 
G01 X0.4464 Y0.4884 
G01 X0.4502 Y0.4808 
G01 X0.4529 Y0.4727 
G01 X0.4542 Y0.4643 
G01 X0.4542 Y0.4557 
G01 X0.4539 Y0.4534 
G01 X0.4758 Y0.4315 
G01 X0.4815 Y0.4258 
G01 X0.4859 Y0.4192 
G01 X0.4889 Y0.4118 
G01 X0.4905 Y0.4040 
G01 X0.4905 Y0.2460 
G01 X0.4889 Y0.2382 
G01 X0.4859 Y0.2308 
G01 X0.4815 Y0.2242 
G01 X0.4758 Y0.2185 
G01 X0.4692 Y0.2141 
G01 X0.4618 Y0.2111 
G01 X0.4540 Y0.2095 
G01 X0.3908 Y0.2095 
G01 X0.3905 Y0.2092 
G01 X0.3905 Y0.1908 
G01 X0.4075 Y0.1738 
G01 X0.4075 Y0.1262 
G01 X0.3738 Y0.0925 
G01 X0.3262 Y0.0925 
G01 X0.2925 Y0.1262 
G01 X0.2925 Y0.1738 
G01 X0.3095 Y0.1908 
G01 X0.3095 Y0.2092 
G01 X0.2925 Y0.2262 
G01 X0.2925 Y0.2502 
G01 X0.2662 Y0.2765 
G01 X0.2662 Y0.2362 
G01 X0.2653 Y0.2314 
G01 X0.2634 Y0.2270 
G01 X0.2608 Y0.2230 
G01 X0.2574 Y0.2196 
G01 X0.2533 Y0.2169 
G01 X0.2489 Y0.2150 
G01 X0.2441 Y0.2141 
G01 X0.2429 Y0.2141 
G01 X0.2429 Y0.0905 
G01 X0.5095 Y0.0905 
G01 X0.5095 Y0.4943 
G01 X0.5059 Y0.4958 
G01 X0.5019 Y0.4985 
G01 X0.4985 Y0.5019 
G01 X0.4958 Y0.5059 
G01 X0.4939 Y0.5104 
G01 X0.4930 Y0.5151 
G01 X0.4930 Y0.5849 
G01 X0.4939 Y0.5896 
G01 X0.4958 Y0.5941 
G01 X0.4985 Y0.5981 
G01 X0.5019 Y0.6015 
G01 X0.5059 Y0.6042 
G01 X0.5104 Y0.6061 
G01 X0.5128 Y0.6066 
G01 X0.5065 Y0.6129 
G01 X0.5012 Y0.6201 
G01 X0.4972 Y0.6281 
G01 X0.4944 Y0.6367 
G01 X0.4930 Y0.6455 
G01 X0.4930 Y0.6497 
G01 X0.4432 Y0.6995 
G01 X0.4362 Y0.6995 
G01 X0.4353 Y0.6986 
G01 X0.4284 Y0.6936 
G01 X0.4208 Y0.6898 
G01 X0.4127 Y0.6871 
G01 X0.4043 Y0.6858 
G01 X0.3957 Y0.6858 
G01 X0.3873 Y0.6871 
G01 X0.3792 Y0.6898 
G01 X0.3716 Y0.6936 
G01 X0.3647 Y0.6986 
G01 X0.3638 Y0.6995 
G01 X0.3362 Y0.6995 
G01 X0.3353 Y0.6986 
G01 X0.3284 Y0.6936 
G01 X0.3208 Y0.6898 
G01 X0.3138 Y0.6875 
G01 X0.2464 Y0.5855 
G01 X0.2489 Y0.5850 
G01 X0.2533 Y0.5831 
G01 X0.2574 Y0.5804 
G01 X0.2608 Y0.5770 
G01 X0.2634 Y0.5730 
G01 X0.2653 Y0.5686 
G01 X0.2662 Y0.5638 
G01 X0.2662 Y0.5118 
G01 X0.2653 Y0.5070 
G01 X0.2634 Y0.5026 
G01 X0.2608 Y0.4986 
G01 X0.2574 Y0.4951 
G01 X0.2533 Y0.4925 
G01 X0.2489 Y0.4906 
G01 X0.2441 Y0.4897 
G01 X0.1606 Y0.4897 
G01 X0.1558 Y0.4906 
G01 X0.1514 Y0.4925 
G01 X0.1474 Y0.4951 
G01 X0.1440 Y0.4986 
G01 X0.1413 Y0.5026 
G01 X0.1394 Y0.5070 
G01 X0.1385 Y0.5118 
G01 X0.1385 Y0.5389 
G01 X0.1359 Y0.5377 
G01 X0.1260 Y0.5342 
G01 X0.1157 Y0.5319 
G01 X0.1053 Y0.5307 
G01 X0.0947 Y0.5307 
G01 X0.0843 Y0.5319 
G01 X0.0740 Y0.5342 
G01 X0.0641 Y0.5377 
G01 X0.0546 Y0.5423 
G01 X0.0457 Y0.5479 
G01 X0.0375 Y0.5544 
G01 X0.0300 Y0.5619 
G01 X0.0235 Y0.5701 
G01 X0.0179 Y0.5790 
G01 X0.0133 Y0.5885 
G01 X0.0098 Y0.5984 
G01 X0.0075 Y0.6087 
G01 X0.0063 Y0.6191 
G01 X0.0063 Y0.6297 
G01 X0.0075 Y0.6401 
G01 X0.0098 Y0.6504 
G01 X0.0133 Y0.6603 
G01 X0.0179 Y0.6698 
G01 X0.0235 Y0.6787 
G01 X0.0300 Y0.6870 
G01 X0.0375 Y0.6944 
G01 X0.0457 Y0.7010 
G01 X0.0546 Y0.7066 
G01 X0.0641 Y0.7111 
G01 X0.0740 Y0.7146 
G01 X0.0843 Y0.7169 
G01 X0.0947 Y0.7181 
G01 X0.1053 Y0.7181 
G01 X0.1157 Y0.7169 
G01 X0.1260 Y0.7146 
G01 X0.1359 Y0.7111 
G01 X0.1454 Y0.7066 
G01 X0.1543 Y0.7010 
G01 X0.1625 Y0.6944 
G01 X0.1700 Y0.6870 
G01 X0.1765 Y0.6787 
G01 X0.1821 Y0.6698 
G01 X0.1867 Y0.6603 
G01 X0.1902 Y0.6504 
G01 X0.1907 Y0.6482 
G01 X0.2463 Y0.7323 
G01 X0.2458 Y0.7357 
G01 X0.2458 Y0.7443 
G01 X0.2471 Y0.7527 
G01 X0.2498 Y0.7608 
G01 X0.2536 Y0.7684 
G01 X0.2586 Y0.7753 
G01 X0.2647 Y0.7814 
G01 X0.2716 Y0.7864 
G01 X0.2792 Y0.7902 
G01 X0.2873 Y0.7929 
G01 X0.2957 Y0.7942 
G01 X0.3043 Y0.7942 
G01 X0.3127 Y0.7929 
G01 X0.3208 Y0.7902 
G01 X0.3284 Y0.7864 
G01 X0.3353 Y0.7814 
G01 X0.3362 Y0.7805 
G01 X0.3638 Y0.7805 
G01 X0.3647 Y0.7814 
G01 X0.3716 Y0.7864 
G01 X0.3792 Y0.7902 
G01 X0.3873 Y0.7929 
G01 X0.3957 Y0.7942 
G01 X0.4043 Y0.7942 
G01 X0.4127 Y0.7929 
G01 X0.4208 Y0.7902 
G01 X0.4284 Y0.7864 
G01 X0.4353 Y0.7814 
G01 X0.4362 Y0.7805 
G01 X0.4640 Y0.7805 
G01 X0.4718 Y0.7789 
G01 X0.4792 Y0.7759 
G01 X0.4858 Y0.7715 
G01 X0.5503 Y0.7070 
G01 X0.5545 Y0.7070 
G01 X0.5633 Y0.7056 
G01 X0.5719 Y0.7028 
G01 X0.5799 Y0.6988 
G01 X0.5871 Y0.6935 
G01 X0.5901 Y0.6905 
G01 X0.6663 Y0.6905 
G01 X0.6783 Y0.7025 
G01 X0.6952 Y0.7025 
G01 X0.7685 Y0.7758 
G01 X0.7742 Y0.7815 
G01 X0.7808 Y0.7859 
G01 X0.7882 Y0.7889 
G01 X0.7960 Y0.7905 
G01 X1.9540 Y0.7905 
G01 X1.9618 Y0.7889 
G01 X1.9692 Y0.7859 
G01 X1.9758 Y0.7815 
G01 X1.9815 Y0.7758 
G01 X1.9859 Y0.7692 
G01 X1.9889 Y0.7618 
G01 X1.9905 Y0.7540 
G01 X1.9905 Y0.4986 
G01 X1.9917 Y0.4957 
G01 X1.9926 Y0.4910 
G01 X1.9926 Y0.4429 
G01 X1.9917 Y0.4381 
G01 X1.9905 Y0.4353 
G01 X1.9905 Y0.4316 
G01 X1.9917 Y0.4288 
G01 X1.9926 Y0.4241 
G01 X1.9926 Y0.3759 
G01 X1.9917 Y0.3712 
G01 X1.9905 Y0.3684 
G01 X1.9905 Y0.3647 
G01 X1.9917 Y0.3619 
G01 X1.9926 Y0.3571 
G01 X1.9926 Y0.3090 
G01 X1.9917 Y0.3043 
G01 X1.9905 Y0.3014 
G01 X1.9905 Y0.0460 
G01 X1.9889 Y0.0382 
G01 X1.9859 Y0.0308 
G01 X1.9815 Y0.0242 
G01 X1.9758 Y0.0185 
G01 X1.9692 Y0.0141 
G01 X1.9618 Y0.0111 
G01 X1.9540 Y0.0095 
G01 X0.8460 Y0.0095 
G01 X0.8382 Y0.0111 
G01 X0.8308 Y0.0141 
G01 X0.8242 Y0.0185 
G01 X0.8185 Y0.0242 
G01 X0.8141 Y0.0308 
G01 X0.8111 Y0.0382 
G01 X0.8095 Y0.0460 
G01 X0.8095 Y0.2078 
G01 X0.7993 Y0.2180 
G01 X0.7813 Y0.2000 
G01 X0.8075 Y0.1738 
G01 X0.8075 Y0.1262 
G01 X0.7738 Y0.0925 
G01 X0.7665 Y0.0925 
G01 X0.7369 Y0.0332 
G01 X0.7359 Y0.0308 
G01 X0.7351 Y0.0296 
G01 X0.7344 Y0.0283 
G01 X0.7329 Y0.0263 
G01 X0.7315 Y0.0242 
G01 X0.7304 Y0.0232 
G01 X0.7295 Y0.0220 
G01 X0.7276 Y0.0203 
G01 X0.7258 Y0.0185 
G01 X0.7246 Y0.0177 
G01 X0.7235 Y0.0168 
G01 X0.7213 Y0.0155 
G01 X0.7192 Y0.0141 
G01 X0.7178 Y0.0136 
G01 X0.7166 Y0.0128 
G01 X0.7142 Y0.0120 
G01 X0.7118 Y0.0111 
G01 X0.7104 Y0.0108 
G01 X0.7090 Y0.0103 
G01 X0.7065 Y0.0100 
G01 X0.7040 Y0.0095 
G01 X0.7025 Y0.0095 
G01 X0.7011 Y0.0093 
G01 X0.6986 Y0.0095 
G01 X0.1960 Y0.0095 
G01 X0.1882 Y0.0111 
G01 X0.1808 Y0.0141 
G01 X0.1742 Y0.0185 
G01 X0.1685 Y0.0242 
G01 X0.1641 Y0.0308 
G01 X0.1611 Y0.0382 
G01 X0.1595 Y0.0460 
G01 X0.1595 Y0.0540 
G01 X0.1611 Y0.0618 
G01 X0.1619 Y0.0638 
G01 X0.1619 Y0.1051 
G01 X0.1543 Y0.0990 
G01 X0.1454 Y0.0934 
G01 X0.1359 Y0.0889 
G01 X0.1260 Y0.0854 
G01 X0.1157 Y0.0831 
G01 X0.1053 Y0.0819 
G01 X0.0947 Y0.0819 
G01 X0.0843 Y0.0831 
G01 X0.0740 Y0.0854 
G01 X0.0641 Y0.0889 
G01 X0.0546 Y0.0934 
G01 X0.0457 Y0.0990 
G01 X0.0375 Y0.1056 
G01 X0.0300 Y0.1130 
G00 Z0.1000 
G00 X0.3813 Y0.3000 
G01 Z-0.0070 F10.00 
G01 X0.3908 Y0.2905 F20.00 
G01 X0.4095 Y0.2905 
G01 X0.4095 Y0.3832 
G01 X0.3848 Y0.4079 
G01 X0.3792 Y0.4098 
G01 X0.3716 Y0.4136 
G01 X0.3647 Y0.4186 
G01 X0.3586 Y0.4247 
G01 X0.3536 Y0.4316 
G01 X0.3500 Y0.4387 
G01 X0.3464 Y0.4316 
G01 X0.3414 Y0.4247 
G01 X0.3405 Y0.4238 
G01 X0.3405 Y0.4168 
G01 X0.3498 Y0.4075 
G01 X0.3738 Y0.4075 
G01 X0.4075 Y0.3738 
G01 X0.4075 Y0.3262 
G01 X0.3813 Y0.3000 
G00 Z0.1000 
G00 X0.6925 Y0.3262 
G01 Z-0.0070 F10.00 
G01 X0.6925 Y0.3738 F20.00 
G01 X0.7262 Y0.4075 
G01 X0.7502 Y0.4075 
G01 X0.7915 Y0.4488 
G01 X0.7915 Y0.4742 
G01 X0.8173 Y0.5000 
G01 X0.7915 Y0.5258 
G01 X0.7915 Y0.5742 
G01 X0.8258 Y0.6085 
G01 X0.8742 Y0.6085 
G01 X0.9085 Y0.5742 
G01 X0.9085 Y0.5258 
G01 X0.8827 Y0.5000 
G01 X0.9085 Y0.4742 
G01 X0.9085 Y0.4258 
G01 X0.8827 Y0.4000 
G01 X0.9085 Y0.3742 
G01 X0.9085 Y0.3258 
G01 X0.8827 Y0.3000 
G01 X0.9085 Y0.2742 
G01 X0.9085 Y0.2258 
G01 X0.8905 Y0.2078 
G01 X0.8905 Y0.0905 
G01 X1.9095 Y0.0905 
G01 X1.9095 Y0.2869 
G01 X1.8870 Y0.2869 
G01 X1.8822 Y0.2879 
G01 X1.8778 Y0.2897 
G01 X1.8738 Y0.2924 
G01 X1.8703 Y0.2958 
G01 X1.8677 Y0.2998 
G01 X1.8658 Y0.3043 
G01 X1.8649 Y0.3090 
G01 X1.8649 Y0.3571 
G01 X1.8658 Y0.3619 
G01 X1.8677 Y0.3663 
G01 X1.8678 Y0.3665 
G01 X1.8677 Y0.3667 
G01 X1.8658 Y0.3712 
G01 X1.8649 Y0.3759 
G01 X1.8649 Y0.4241 
G01 X1.8658 Y0.4288 
G01 X1.8677 Y0.4333 
G01 X1.8678 Y0.4335 
G01 X1.8677 Y0.4337 
G01 X1.8658 Y0.4381 
G01 X1.8649 Y0.4429 
G01 X1.8649 Y0.4910 
G01 X1.8658 Y0.4957 
G01 X1.8677 Y0.5002 
G01 X1.8703 Y0.5042 
G01 X1.8738 Y0.5076 
G01 X1.8778 Y0.5103 
G01 X1.8822 Y0.5121 
G01 X1.8870 Y0.5131 
G01 X1.9095 Y0.5131 
G01 X1.9095 Y0.7095 
G01 X0.8168 Y0.7095 
G01 X0.7978 Y0.6905 
G01 X1.1540 Y0.6905 
G01 X1.1618 Y0.6889 
G01 X1.1692 Y0.6859 
G01 X1.1758 Y0.6815 
G01 X1.1815 Y0.6758 
G01 X1.1859 Y0.6692 
G01 X1.1889 Y0.6618 
G01 X1.1905 Y0.6540 
G01 X1.1905 Y0.5922 
G01 X1.2085 Y0.5742 
G01 X1.2085 Y0.5398 
G01 X1.2262 Y0.5575 
G01 X1.2738 Y0.5575 
G01 X1.3075 Y0.5238 
G01 X1.3075 Y0.4762 
G01 X1.2813 Y0.4500 
G01 X1.3075 Y0.4238 
G01 X1.3075 Y0.3762 
G01 X1.2813 Y0.3500 
G01 X1.3075 Y0.3238 
G01 X1.3075 Y0.2762 
G01 X1.2738 Y0.2425 
G01 X1.2262 Y0.2425 
G01 X1.2260 Y0.2427 
G01 X1.2085 Y0.2340 
G01 X1.2085 Y0.2258 
G01 X1.1742 Y0.1915 
G01 X1.1258 Y0.1915 
G01 X1.0915 Y0.2258 
G01 X1.0915 Y0.2742 
G01 X1.1173 Y0.3000 
G01 X1.0915 Y0.3258 
G01 X1.0915 Y0.3742 
G01 X1.1173 Y0.4000 
G01 X1.0915 Y0.4258 
G01 X1.0915 Y0.4742 
G01 X1.1173 Y0.5000 
G01 X1.0915 Y0.5258 
G01 X1.0915 Y0.5742 
G01 X1.1095 Y0.5922 
G01 X1.1095 Y0.6095 
G01 X0.8168 Y0.6095 
G01 X0.7524 Y0.5451 
G01 X0.7512 Y0.5377 
G01 X0.7487 Y0.5298 
G01 X0.7449 Y0.5225 
G01 X0.7400 Y0.5158 
G01 X0.7342 Y0.5100 
G01 X0.7275 Y0.5051 
G01 X0.7202 Y0.5013 
G01 X0.7123 Y0.4988 
G01 X0.7041 Y0.4975 
G01 X0.6959 Y0.4975 
G01 X0.6877 Y0.4988 
G01 X0.6798 Y0.5013 
G01 X0.6725 Y0.5051 
G01 X0.6664 Y0.5095 
G01 X0.6057 Y0.5095 
G01 X0.6042 Y0.5059 
G01 X0.6015 Y0.5019 
G01 X0.5981 Y0.4985 
G01 X0.5941 Y0.4958 
G01 X0.5905 Y0.4943 
G01 X0.5905 Y0.0905 
G01 X0.6750 Y0.0905 
G01 X0.6927 Y0.1260 
G01 X0.6925 Y0.1262 
G01 X0.6925 Y0.1738 
G01 X0.7187 Y0.2000 
G01 X0.6925 Y0.2262 
G01 X0.6925 Y0.2738 
G01 X0.7187 Y0.3000 
G01 X0.6925 Y0.3262 
G00 Z0.1000 
G00 X0.6780 Y0.5977 
G01 Z-0.0070 F10.00 
G01 X0.6663 Y0.6095 F20.00 
G01 X0.5901 Y0.6095 
G01 X0.5872 Y0.6066 
G01 X0.5896 Y0.6061 
G01 X0.5941 Y0.6042 
G01 X0.5981 Y0.6015 
G01 X0.6015 Y0.5981 
G01 X0.6042 Y0.5941 
G01 X0.6057 Y0.5905 
G01 X0.6664 Y0.5905 
G01 X0.6725 Y0.5949 
G01 X0.6780 Y0.5977 
G00 Z0.1000 
G00 X1.6262 Y0.5575 
G01 Z-0.0070 F10.00 
G01 X1.6738 Y0.5575 F20.00 
G01 X1.7041 Y0.5272 
G01 X1.7560 Y0.5131 
G01 X1.8130 Y0.5131 
G01 X1.8178 Y0.5121 
G01 X1.8222 Y0.5103 
G01 X1.8262 Y0.5076 
G01 X1.8297 Y0.5042 
G01 X1.8323 Y0.5002 
G01 X1.8342 Y0.4957 
G01 X1.8351 Y0.4910 
G01 X1.8351 Y0.4429 
G01 X1.8342 Y0.4381 
G01 X1.8323 Y0.4337 
G01 X1.8322 Y0.4335 
G01 X1.8323 Y0.4333 
G01 X1.8342 Y0.4288 
G01 X1.8351 Y0.4241 
G01 X1.8351 Y0.3759 
G01 X1.8342 Y0.3712 
G01 X1.8323 Y0.3667 
G01 X1.8322 Y0.3665 
G01 X1.8323 Y0.3663 
G01 X1.8342 Y0.3619 
G01 X1.8351 Y0.3571 
G01 X1.8351 Y0.3090 
G01 X1.8342 Y0.3043 
G01 X1.8323 Y0.2998 
G01 X1.8297 Y0.2958 
G01 X1.8262 Y0.2924 
G01 X1.8222 Y0.2897 
G01 X1.8178 Y0.2879 
G01 X1.8130 Y0.2869 
G01 X1.7560 Y0.2869 
G01 X1.7041 Y0.2728 
G01 X1.6738 Y0.2425 
G01 X1.6262 Y0.2425 
G01 X1.5925 Y0.2762 
G01 X1.5925 Y0.3238 
G01 X1.6187 Y0.3500 
G01 X1.5925 Y0.3762 
G01 X1.5925 Y0.4238 
G01 X1.6187 Y0.4500 
G01 X1.5925 Y0.4762 
G01 X1.5925 Y0.5238 
G01 X1.6262 Y0.5575 
G00 Z0.1000 
G00 X1.6820 Y0.4493 
G01 Z-0.0070 F10.00 
G01 X1.6908 Y0.4405 F20.00 
G01 X1.7079 Y0.4405 
G01 X1.7075 Y0.4423 
G01 X1.6820 Y0.4493 
G00 Z0.1000 
G00 X1.6820 Y0.3507 
G01 Z-0.0070 F10.00 
G01 X1.7075 Y0.3577 F20.00 
G01 X1.7079 Y0.3595 
G01 X1.6908 Y0.3595 
G01 X1.6820 Y0.3507 
G00 Z0.1000 
G00 Z0.100000
G00 X0.7000 Y0.5500 
G01 Z-0.0110 F20.00 
G01 Z0.100000
(R0.1000  P1.000000)
G00 X0.7000 Y0.6500 
G01 Z-0.032000
G01 Z0.100000
G00 X0.5500 Y0.5500 
G01 Z-0.032000
G01 Z0.100000
G00 X0.5500 Y0.6500 
G01 Z-0.032000
G01 Z0.100000
G00 X0.3000 Y0.4600 
G01 Z-0.032000
G01 Z0.100000
G00 X0.3000 Y0.7400 
G01 Z-0.032000
G01 Z0.100000
G00 X0.4000 Y0.4600 
G01 Z-0.032000
G01 Z0.100000
G00 X0.4000 Y0.7400 
G01 Z-0.032000
G01 Z0.100000
G00 X1.2500 Y0.4000 
G01 Z-0.032000
G01 Z0.100000
G00 X1.6500 Y0.4000 
G01 Z-0.032000
G01 Z0.100000
G00 X1.2500 Y0.5000 
G01 Z-0.032000
G01 Z0.100000
G00 X1.6500 Y0.5000 
G01 Z-0.032000
G01 Z0.100000
G00 X1.2500 Y0.3000 
G01 Z-0.032000
G01 Z0.100000
G00 X1.6500 Y0.3000 
G01 Z-0.032000
G01 Z0.100000
G00 X0.3500 Y0.3500 
G01 Z-0.032000
G01 Z0.100000
G00 X0.7500 Y0.3500 
G01 Z-0.032000
G01 Z0.100000
G00 X0.3500 Y0.2500 
G01 Z-0.032000
G01 Z0.100000
G00 X0.7500 Y0.2500 
G01 Z-0.032000
G01 Z0.100000
G00 X0.3500 Y0.1500 
G01 Z-0.032000
G01 Z0.100000
G00 X0.7500 Y0.1500 
G01 Z-0.032000
G01 Z0.100000
G00 X0.8500 Y0.5500 
G01 Z-0.032000
G01 Z0.100000
G00 X0.8500 Y0.4500 
G01 Z-0.032000
G01 Z0.100000
G00 X0.8500 Y0.3500 
G01 Z-0.032000
G01 Z0.100000
G00 X0.8500 Y0.2500 
G01 Z-0.032000
G01 Z0.100000
G00 X1.1500 Y0.2500 
G01 Z-0.032000
G01 Z0.100000
G00 X1.1500 Y0.3500 
G01 Z-0.032000
G01 Z0.100000
G00 X1.1500 Y0.4500 
G01 Z-0.032000
G01 Z0.100000
G00 X1.1500 Y0.5500 
G01 Z-0.032000
G01 Z0.100000
G00 X0.1000 Y0.6244 
G01 Z-0.032000
G01 Z0.100000
G00 X0.1000 Y0.1756 
G01 Z-0.032000
G01 Z0.100000
G00 X0.1000 Y0.4886 
G01 Z-0.032000
G01 Z0.100000
G00 X0.1000 Y0.3114 
G01 Z-0.032000
G01 Z0.100000
G00 Z0.5000 
M05
M02
