(.../pcb-gcode-3.6.2.4/pcb-gcode.ulp)
(Copyright 2005 - 2012 by John Johnson)
(See readme.txt for licensing terms.)
(This file generated from the board:)
(.../eagle/C1LabsBlinky/C1LabsBlinky.brd)
(Current profile is .../pcb-gcode-3.6.2.4/profiles/generic.pp  )
(This file generated 4/24/15 9:28 AM)
(Settings from pcb-machine.h)
(spindle on time = 3.0000)
(  Tool Size)
(0.0070 )
(spindle speed = 30000.0000)
(tool change at 0.0000 0.0000 1.0000 )
(feed rate xy = F20.00 )
(feed rate z  = F10.00 )
(Z Axis Settings)
(  High     Up        Down     Drill)
(0.5000 	0.1000 	-0.0070 	-0.0320 )
(Settings from pcb-defaults.h)
(isolate min = 0.0010)
(isolate max = 0.0200)
(isolate step = 0.0050)
(Generated top outlines, top drill, bottom outlines, bottom drill, )
(Unit of measure: inch)
(Inch Mode)
G20
(Absolute Coordinates)
G90
S30000
G00 Z0.5000 
G00 X0.0000 Y0.0000 
M03
G04 P3.000000
G00 Z0.1000 
G00 X-0.0445 Y0.1269 
G01 Z-0.0070 F10.00 
G01 X-0.0513 Y0.1201 F20.00 
G01 X-0.0590 Y0.1142 
G01 X-0.0673 Y0.1093 
G01 X-0.0763 Y0.1056 
G01 X-0.0856 Y0.1031 
G01 X-0.0952 Y0.1019 
G01 X-0.1048 Y0.1019 
G01 X-0.1144 Y0.1031 
G01 X-0.1237 Y0.1056 
G01 X-0.1327 Y0.1093 
G01 X-0.1410 Y0.1142 
G01 X-0.1487 Y0.1201 
G01 X-0.1555 Y0.1269 
G01 X-0.1614 Y0.1346 
G01 X-0.1663 Y0.1429 
G01 X-0.1700 Y0.1518 
G01 X-0.1725 Y0.1612 
G01 X-0.1737 Y0.1708 
G01 X-0.1737 Y0.1804 
G01 X-0.1725 Y0.1900 
G01 X-0.1700 Y0.1993 
G01 X-0.1663 Y0.2083 
G01 X-0.1614 Y0.2166 
G01 X-0.1555 Y0.2243 
G01 X-0.1487 Y0.2311 
G01 X-0.1410 Y0.2370 
G01 X-0.1327 Y0.2418 
G01 X-0.1237 Y0.2455 
G01 X-0.1144 Y0.2480 
G01 X-0.1048 Y0.2493 
G01 X-0.0952 Y0.2493 
G01 X-0.0856 Y0.2480 
G01 X-0.0763 Y0.2455 
G01 X-0.0673 Y0.2418 
G01 X-0.0590 Y0.2370 
G01 X-0.0513 Y0.2311 
G01 X-0.0445 Y0.2243 
G01 X-0.0386 Y0.2166 
G01 X-0.0337 Y0.2083 
G01 X-0.0300 Y0.1993 
G01 X-0.0275 Y0.1900 
G01 X-0.0263 Y0.1804 
G01 X-0.0263 Y0.1708 
G01 X-0.0275 Y0.1612 
G01 X-0.0300 Y0.1518 
G01 X-0.0337 Y0.1429 
G01 X-0.0386 Y0.1346 
G01 X-0.0445 Y0.1269 
G00 Z0.1000 
G00 X-0.3125 Y0.1345 
G01 Z-0.0070 F10.00 
G01 X-0.3345 Y0.1125 F20.00 
G01 X-0.3655 Y0.1125 
G01 X-0.3875 Y0.1345 
G01 X-0.3875 Y0.1655 
G01 X-0.3655 Y0.1875 
G01 X-0.3345 Y0.1875 
G01 X-0.3125 Y0.1655 
G01 X-0.3125 Y0.1345 
G00 Z0.1000 
G00 X-0.3125 Y0.2345 
G01 Z-0.0070 F10.00 
G01 X-0.3345 Y0.2125 F20.00 
G01 X-0.3655 Y0.2125 
G01 X-0.3875 Y0.2345 
G01 X-0.3875 Y0.2655 
G01 X-0.3655 Y0.2875 
G01 X-0.3345 Y0.2875 
G01 X-0.3125 Y0.2655 
G01 X-0.3125 Y0.2345 
G00 Z0.1000 
G00 X-0.3125 Y0.3345 
G01 Z-0.0070 F10.00 
G01 X-0.3345 Y0.3125 F20.00 
G01 X-0.3655 Y0.3125 
G01 X-0.3875 Y0.3345 
G01 X-0.3875 Y0.3655 
G01 X-0.3655 Y0.3875 
G01 X-0.3345 Y0.3875 
G01 X-0.3125 Y0.3655 
G01 X-0.3125 Y0.3345 
G00 Z0.1000 
G00 X-0.3100 Y0.4271 
G01 Z-0.0070 F10.00 
G01 X-0.3162 Y0.4297 F20.00 
G01 X-0.3218 Y0.4334 
G01 X-0.3266 Y0.4382 
G01 X-0.3303 Y0.4438 
G01 X-0.3329 Y0.4500 
G01 X-0.3342 Y0.4566 
G01 X-0.3342 Y0.4634 
G01 X-0.3329 Y0.4700 
G01 X-0.3303 Y0.4762 
G01 X-0.3266 Y0.4818 
G01 X-0.3218 Y0.4866 
G01 X-0.3162 Y0.4903 
G01 X-0.3100 Y0.4929 
G01 X-0.3034 Y0.4942 
G01 X-0.2966 Y0.4942 
G01 X-0.2900 Y0.4929 
G01 X-0.2838 Y0.4903 
G01 X-0.2782 Y0.4866 
G01 X-0.2734 Y0.4818 
G01 X-0.2697 Y0.4762 
G01 X-0.2671 Y0.4700 
G01 X-0.2658 Y0.4634 
G01 X-0.2658 Y0.4566 
G01 X-0.2671 Y0.4500 
G01 X-0.2697 Y0.4438 
G01 X-0.2734 Y0.4382 
G01 X-0.2782 Y0.4334 
G01 X-0.2838 Y0.4297 
G01 X-0.2900 Y0.4271 
G01 X-0.2966 Y0.4258 
G01 X-0.3034 Y0.4258 
G01 X-0.3100 Y0.4271 
G00 Z0.1000 
G00 X-0.3734 Y0.4382 
G01 Z-0.0070 F10.00 
G01 X-0.3782 Y0.4334 F20.00 
G01 X-0.3838 Y0.4297 
G01 X-0.3900 Y0.4271 
G01 X-0.3966 Y0.4258 
G01 X-0.4034 Y0.4258 
G01 X-0.4100 Y0.4271 
G01 X-0.4162 Y0.4297 
G01 X-0.4218 Y0.4334 
G01 X-0.4266 Y0.4382 
G01 X-0.4303 Y0.4438 
G01 X-0.4329 Y0.4500 
G01 X-0.4342 Y0.4566 
G01 X-0.4342 Y0.4634 
G01 X-0.4329 Y0.4700 
G01 X-0.4303 Y0.4762 
G01 X-0.4266 Y0.4818 
G01 X-0.4218 Y0.4866 
G01 X-0.4162 Y0.4903 
G01 X-0.4100 Y0.4929 
G01 X-0.4034 Y0.4942 
G01 X-0.3966 Y0.4942 
G01 X-0.3900 Y0.4929 
G01 X-0.3838 Y0.4903 
G01 X-0.3782 Y0.4866 
G01 X-0.3734 Y0.4818 
G01 X-0.3697 Y0.4762 
G01 X-0.3671 Y0.4700 
G01 X-0.3658 Y0.4634 
G01 X-0.3658 Y0.4566 
G01 X-0.3671 Y0.4500 
G01 X-0.3697 Y0.4438 
G01 X-0.3734 Y0.4382 
G00 Z0.1000 
G00 X-0.5137 Y0.5150 
G01 Z-0.0070 F10.00 
G01 X-0.5150 Y0.5137 F20.00 
G01 X-0.5166 Y0.5130 
G01 X-0.5834 Y0.5130 
G01 X-0.5850 Y0.5137 
G01 X-0.5863 Y0.5150 
G01 X-0.5870 Y0.5166 
G01 X-0.5870 Y0.5834 
G01 X-0.5863 Y0.5850 
G01 X-0.5850 Y0.5863 
G01 X-0.5834 Y0.5870 
G01 X-0.5166 Y0.5870 
G01 X-0.5150 Y0.5863 
G01 X-0.5137 Y0.5850 
G01 X-0.5130 Y0.5834 
G01 X-0.5130 Y0.5166 
G01 X-0.5137 Y0.5150 
G00 Z0.1000 
G00 X-0.5213 Y0.6264 
G01 Z-0.0070 F10.00 
G01 X-0.5264 Y0.6213 F20.00 
G01 X-0.5325 Y0.6172 
G01 X-0.5392 Y0.6144 
G01 X-0.5464 Y0.6130 
G01 X-0.5536 Y0.6130 
G01 X-0.5608 Y0.6144 
G01 X-0.5675 Y0.6172 
G01 X-0.5736 Y0.6213 
G01 X-0.5787 Y0.6264 
G01 X-0.5828 Y0.6325 
G01 X-0.5856 Y0.6392 
G01 X-0.5870 Y0.6464 
G01 X-0.5870 Y0.6536 
G01 X-0.5856 Y0.6608 
G01 X-0.5828 Y0.6675 
G01 X-0.5787 Y0.6736 
G01 X-0.5736 Y0.6787 
G01 X-0.5675 Y0.6828 
G01 X-0.5608 Y0.6856 
G01 X-0.5536 Y0.6870 
G01 X-0.5464 Y0.6870 
G01 X-0.5392 Y0.6856 
G01 X-0.5325 Y0.6828 
G01 X-0.5264 Y0.6787 
G01 X-0.5213 Y0.6736 
G01 X-0.5172 Y0.6675 
G01 X-0.5144 Y0.6608 
G01 X-0.5130 Y0.6536 
G01 X-0.5130 Y0.6464 
G01 X-0.5144 Y0.6392 
G01 X-0.5172 Y0.6325 
G01 X-0.5213 Y0.6264 
G00 Z0.1000 
G00 X-0.6675 Y0.6365 
G01 Z-0.0070 F10.00 
G01 X-0.6865 Y0.6175 F20.00 
G01 X-0.7135 Y0.6175 
G01 X-0.7325 Y0.6365 
G01 X-0.7325 Y0.6635 
G01 X-0.7135 Y0.6825 
G01 X-0.6865 Y0.6825 
G01 X-0.6675 Y0.6635 
G01 X-0.6675 Y0.6365 
G00 Z0.1000 
G00 X-0.6793 Y0.5752 
G01 Z-0.0070 F10.00 
G01 X-0.6748 Y0.5707 F20.00 
G01 X-0.6712 Y0.5654 
G01 X-0.6687 Y0.5595 
G01 X-0.6675 Y0.5532 
G01 X-0.6675 Y0.5468 
G01 X-0.6687 Y0.5405 
G01 X-0.6712 Y0.5346 
G01 X-0.6748 Y0.5293 
G01 X-0.6793 Y0.5248 
G01 X-0.6846 Y0.5212 
G01 X-0.6905 Y0.5187 
G01 X-0.6968 Y0.5175 
G01 X-0.7032 Y0.5175 
G01 X-0.7095 Y0.5187 
G01 X-0.7154 Y0.5212 
G01 X-0.7207 Y0.5248 
G01 X-0.7252 Y0.5293 
G01 X-0.7288 Y0.5346 
G01 X-0.7313 Y0.5405 
G01 X-0.7325 Y0.5468 
G01 X-0.7325 Y0.5532 
G01 X-0.7313 Y0.5595 
G01 X-0.7288 Y0.5654 
G01 X-0.7252 Y0.5707 
G01 X-0.7207 Y0.5752 
G01 X-0.7154 Y0.5788 
G01 X-0.7095 Y0.5813 
G01 X-0.7032 Y0.5825 
G01 X-0.6968 Y0.5825 
G01 X-0.6905 Y0.5813 
G01 X-0.6846 Y0.5788 
G01 X-0.6793 Y0.5752 
G00 Z0.1000 
G00 X-0.8115 Y0.5659 
G01 Z-0.0070 F10.00 
G01 X-0.8115 Y0.5341 F20.00 
G01 X-0.8341 Y0.5115 
G01 X-0.8659 Y0.5115 
G01 X-0.8885 Y0.5341 
G01 X-0.8885 Y0.5659 
G01 X-0.8659 Y0.5885 
G01 X-0.8341 Y0.5885 
G01 X-0.8115 Y0.5659 
G00 Z0.1000 
G00 X-0.8341 Y0.4885 
G01 Z-0.0070 F10.00 
G01 X-0.8115 Y0.4659 F20.00 
G01 X-0.8115 Y0.4341 
G01 X-0.8341 Y0.4115 
G01 X-0.8659 Y0.4115 
G01 X-0.8885 Y0.4341 
G01 X-0.8885 Y0.4659 
G01 X-0.8659 Y0.4885 
G01 X-0.8341 Y0.4885 
G00 Z0.1000 
G00 X-0.8341 Y0.3885 
G01 Z-0.0070 F10.00 
G01 X-0.8115 Y0.3659 F20.00 
G01 X-0.8115 Y0.3341 
G01 X-0.8341 Y0.3115 
G01 X-0.8659 Y0.3115 
G01 X-0.8885 Y0.3341 
G01 X-0.8885 Y0.3659 
G01 X-0.8659 Y0.3885 
G01 X-0.8341 Y0.3885 
G00 Z0.1000 
G00 X-0.7875 Y0.3655 
G01 Z-0.0070 F10.00 
G01 X-0.7655 Y0.3875 F20.00 
G01 X-0.7345 Y0.3875 
G01 X-0.7125 Y0.3655 
G01 X-0.7125 Y0.3345 
G01 X-0.7345 Y0.3125 
G01 X-0.7655 Y0.3125 
G01 X-0.7875 Y0.3345 
G01 X-0.7875 Y0.3655 
G00 Z0.1000 
G00 X-0.7875 Y0.2655 
G01 Z-0.0070 F10.00 
G01 X-0.7655 Y0.2875 F20.00 
G01 X-0.7345 Y0.2875 
G01 X-0.7125 Y0.2655 
G01 X-0.7125 Y0.2345 
G01 X-0.7345 Y0.2125 
G01 X-0.7655 Y0.2125 
G01 X-0.7875 Y0.2345 
G01 X-0.7875 Y0.2655 
G00 Z0.1000 
G00 X-0.8115 Y0.2659 
G01 Z-0.0070 F10.00 
G01 X-0.8115 Y0.2341 F20.00 
G01 X-0.8341 Y0.2115 
G01 X-0.8659 Y0.2115 
G01 X-0.8885 Y0.2341 
G01 X-0.8885 Y0.2659 
G01 X-0.8659 Y0.2885 
G01 X-0.8341 Y0.2885 
G01 X-0.8115 Y0.2659 
G00 Z0.1000 
G00 X-0.7875 Y0.1655 
G01 Z-0.0070 F10.00 
G01 X-0.7655 Y0.1875 F20.00 
G01 X-0.7345 Y0.1875 
G01 X-0.7125 Y0.1655 
G01 X-0.7125 Y0.1345 
G01 X-0.7345 Y0.1125 
G01 X-0.7655 Y0.1125 
G01 X-0.7875 Y0.1345 
G01 X-0.7875 Y0.1655 
G00 Z0.1000 
G00 X-1.1115 Y0.2341 
G01 Z-0.0070 F10.00 
G01 X-1.1341 Y0.2115 F20.00 
G01 X-1.1659 Y0.2115 
G01 X-1.1885 Y0.2341 
G01 X-1.1885 Y0.2659 
G01 X-1.1659 Y0.2885 
G01 X-1.1341 Y0.2885 
G01 X-1.1115 Y0.2659 
G01 X-1.1115 Y0.2341 
G00 Z0.1000 
G00 X-1.1115 Y0.3341 
G01 Z-0.0070 F10.00 
G01 X-1.1341 Y0.3115 F20.00 
G01 X-1.1659 Y0.3115 
G01 X-1.1885 Y0.3341 
G01 X-1.1885 Y0.3659 
G01 X-1.1659 Y0.3885 
G01 X-1.1341 Y0.3885 
G01 X-1.1115 Y0.3659 
G01 X-1.1115 Y0.3341 
G00 Z0.1000 
G00 X-1.1115 Y0.4341 
G01 Z-0.0070 F10.00 
G01 X-1.1341 Y0.4115 F20.00 
G01 X-1.1659 Y0.4115 
G01 X-1.1885 Y0.4341 
G01 X-1.1885 Y0.4659 
G01 X-1.1659 Y0.4885 
G01 X-1.1341 Y0.4885 
G01 X-1.1115 Y0.4659 
G01 X-1.1115 Y0.4341 
G00 Z0.1000 
G00 X-1.1115 Y0.5341 
G01 Z-0.0070 F10.00 
G01 X-1.1341 Y0.5115 F20.00 
G01 X-1.1659 Y0.5115 
G01 X-1.1885 Y0.5341 
G01 X-1.1885 Y0.5659 
G01 X-1.1659 Y0.5885 
G01 X-1.1341 Y0.5885 
G01 X-1.1115 Y0.5659 
G01 X-1.1115 Y0.5341 
G00 Z0.1000 
G00 X-1.2125 Y0.5155 
G01 Z-0.0070 F10.00 
G01 X-1.2125 Y0.4845 F20.00 
G01 X-1.2345 Y0.4625 
G01 X-1.2655 Y0.4625 
G01 X-1.2875 Y0.4845 
G01 X-1.2875 Y0.5155 
G01 X-1.2655 Y0.5375 
G01 X-1.2345 Y0.5375 
G01 X-1.2125 Y0.5155 
G00 Z0.1000 
G00 X-1.2345 Y0.4375 
G01 Z-0.0070 F10.00 
G01 X-1.2125 Y0.4155 F20.00 
G01 X-1.2125 Y0.3845 
G01 X-1.2345 Y0.3625 
G01 X-1.2655 Y0.3625 
G01 X-1.2875 Y0.3845 
G01 X-1.2875 Y0.4155 
G01 X-1.2655 Y0.4375 
G01 X-1.2345 Y0.4375 
G00 Z0.1000 
G00 X-1.2345 Y0.3375 
G01 Z-0.0070 F10.00 
G01 X-1.2125 Y0.3155 F20.00 
G01 X-1.2125 Y0.2845 
G01 X-1.2345 Y0.2625 
G01 X-1.2655 Y0.2625 
G01 X-1.2875 Y0.2845 
G01 X-1.2875 Y0.3155 
G01 X-1.2655 Y0.3375 
G01 X-1.2345 Y0.3375 
G00 Z0.1000 
G00 X-1.6345 Y0.3375 
G01 Z-0.0070 F10.00 
G01 X-1.6125 Y0.3155 F20.00 
G01 X-1.6125 Y0.2845 
G01 X-1.6345 Y0.2625 
G01 X-1.6655 Y0.2625 
G01 X-1.6875 Y0.2845 
G01 X-1.6875 Y0.3155 
G01 X-1.6655 Y0.3375 
G01 X-1.6345 Y0.3375 
G00 Z0.1000 
G00 X-1.6345 Y0.3625 
G01 Z-0.0070 F10.00 
G01 X-1.6655 Y0.3625 F20.00 
G01 X-1.6875 Y0.3845 
G01 X-1.6875 Y0.4155 
G01 X-1.6655 Y0.4375 
G01 X-1.6345 Y0.4375 
G01 X-1.6125 Y0.4155 
G01 X-1.6125 Y0.3845 
G01 X-1.6345 Y0.3625 
G00 Z0.1000 
G00 X-1.6345 Y0.4625 
G01 Z-0.0070 F10.00 
G01 X-1.6655 Y0.4625 F20.00 
G01 X-1.6875 Y0.4845 
G01 X-1.6875 Y0.5155 
G01 X-1.6655 Y0.5375 
G01 X-1.6345 Y0.5375 
G01 X-1.6125 Y0.5155 
G01 X-1.6125 Y0.4845 
G01 X-1.6345 Y0.4625 
G00 Z0.1000 
G00 X-0.4218 Y0.7134 
G01 Z-0.0070 F10.00 
G01 X-0.4266 Y0.7182 F20.00 
G01 X-0.4303 Y0.7238 
G01 X-0.4329 Y0.7300 
G01 X-0.4342 Y0.7366 
G01 X-0.4342 Y0.7434 
G01 X-0.4329 Y0.7500 
G01 X-0.4303 Y0.7562 
G01 X-0.4266 Y0.7618 
G01 X-0.4218 Y0.7666 
G01 X-0.4162 Y0.7703 
G01 X-0.4100 Y0.7729 
G01 X-0.4034 Y0.7742 
G01 X-0.3966 Y0.7742 
G01 X-0.3900 Y0.7729 
G01 X-0.3838 Y0.7703 
G01 X-0.3782 Y0.7666 
G01 X-0.3734 Y0.7618 
G01 X-0.3697 Y0.7562 
G01 X-0.3671 Y0.7500 
G01 X-0.3658 Y0.7434 
G01 X-0.3658 Y0.7366 
G01 X-0.3671 Y0.7300 
G01 X-0.3697 Y0.7238 
G01 X-0.3734 Y0.7182 
G01 X-0.3782 Y0.7134 
G01 X-0.3838 Y0.7097 
G01 X-0.3900 Y0.7071 
G01 X-0.3966 Y0.7058 
G01 X-0.4034 Y0.7058 
G01 X-0.4100 Y0.7071 
G01 X-0.4162 Y0.7097 
G01 X-0.4218 Y0.7134 
G00 Z0.1000 
G00 X-0.3218 Y0.7134 
G01 Z-0.0070 F10.00 
G01 X-0.3266 Y0.7182 F20.00 
G01 X-0.3303 Y0.7238 
G01 X-0.3329 Y0.7300 
G01 X-0.3342 Y0.7366 
G01 X-0.3342 Y0.7434 
G01 X-0.3329 Y0.7500 
G01 X-0.3303 Y0.7562 
G01 X-0.3266 Y0.7618 
G01 X-0.3218 Y0.7666 
G01 X-0.3162 Y0.7703 
G01 X-0.3100 Y0.7729 
G01 X-0.3034 Y0.7742 
G01 X-0.2966 Y0.7742 
G01 X-0.2900 Y0.7729 
G01 X-0.2838 Y0.7703 
G01 X-0.2782 Y0.7666 
G01 X-0.2734 Y0.7618 
G01 X-0.2697 Y0.7562 
G01 X-0.2671 Y0.7500 
G01 X-0.2658 Y0.7434 
G01 X-0.2658 Y0.7366 
G01 X-0.2671 Y0.7300 
G01 X-0.2697 Y0.7238 
G01 X-0.2734 Y0.7182 
G01 X-0.2782 Y0.7134 
G01 X-0.2838 Y0.7097 
G01 X-0.2900 Y0.7071 
G01 X-0.2966 Y0.7058 
G01 X-0.3034 Y0.7058 
G01 X-0.3100 Y0.7071 
G01 X-0.3162 Y0.7097 
G01 X-0.3218 Y0.7134 
G00 Z0.1000 
G00 X-0.1555 Y0.6731 
G01 Z-0.0070 F10.00 
G01 X-0.1487 Y0.6799 F20.00 
G01 X-0.1410 Y0.6858 
G01 X-0.1327 Y0.6907 
G01 X-0.1237 Y0.6944 
G01 X-0.1144 Y0.6969 
G01 X-0.1048 Y0.6981 
G01 X-0.0952 Y0.6981 
G01 X-0.0856 Y0.6969 
G01 X-0.0763 Y0.6944 
G01 X-0.0673 Y0.6907 
G01 X-0.0590 Y0.6858 
G01 X-0.0513 Y0.6799 
G01 X-0.0445 Y0.6731 
G01 X-0.0386 Y0.6654 
G01 X-0.0337 Y0.6571 
G01 X-0.0300 Y0.6482 
G01 X-0.0275 Y0.6388 
G01 X-0.0263 Y0.6292 
G01 X-0.0263 Y0.6196 
G01 X-0.0275 Y0.6100 
G01 X-0.0300 Y0.6007 
G01 X-0.0337 Y0.5917 
G01 X-0.0386 Y0.5834 
G01 X-0.0445 Y0.5757 
G01 X-0.0513 Y0.5689 
G01 X-0.0590 Y0.5630 
G01 X-0.0673 Y0.5582 
G01 X-0.0763 Y0.5545 
G01 X-0.0856 Y0.5520 
G01 X-0.0952 Y0.5507 
G01 X-0.1048 Y0.5507 
G01 X-0.1144 Y0.5520 
G01 X-0.1237 Y0.5545 
G01 X-0.1327 Y0.5582 
G01 X-0.1410 Y0.5630 
G01 X-0.1487 Y0.5689 
G01 X-0.1555 Y0.5757 
G01 X-0.1614 Y0.5834 
G01 X-0.1663 Y0.5917 
G01 X-0.1700 Y0.6007 
G01 X-0.1725 Y0.6100 
G01 X-0.1737 Y0.6196 
G01 X-0.1737 Y0.6292 
G01 X-0.1725 Y0.6388 
G01 X-0.1700 Y0.6482 
G01 X-0.1663 Y0.6571 
G01 X-0.1614 Y0.6654 
G01 X-0.1555 Y0.6731 
G00 Z0.1000 
G00 X-0.0407 Y0.1236 
G01 Z-0.0070 F10.00 
G01 X-0.0480 Y0.1163 F20.00 
G01 X-0.0562 Y0.1100 
G01 X-0.0651 Y0.1048 
G01 X-0.0746 Y0.1009 
G01 X-0.0846 Y0.0982 
G01 X-0.0948 Y0.0969 
G01 X-0.1052 Y0.0969 
G01 X-0.1154 Y0.0982 
G01 X-0.1254 Y0.1009 
G01 X-0.1349 Y0.1048 
G01 X-0.1438 Y0.1100 
G01 X-0.1520 Y0.1163 
G01 X-0.1593 Y0.1236 
G01 X-0.1656 Y0.1318 
G01 X-0.1707 Y0.1407 
G01 X-0.1747 Y0.1502 
G01 X-0.1774 Y0.1602 
G01 X-0.1787 Y0.1704 
G01 X-0.1787 Y0.1807 
G01 X-0.1774 Y0.1910 
G01 X-0.1747 Y0.2009 
G01 X-0.1707 Y0.2105 
G01 X-0.1656 Y0.2194 
G01 X-0.1593 Y0.2276 
G01 X-0.1520 Y0.2349 
G01 X-0.1438 Y0.2412 
G01 X-0.1349 Y0.2463 
G01 X-0.1254 Y0.2503 
G01 X-0.1154 Y0.2530 
G01 X-0.1052 Y0.2543 
G01 X-0.0948 Y0.2543 
G01 X-0.0846 Y0.2530 
G01 X-0.0746 Y0.2503 
G01 X-0.0651 Y0.2463 
G01 X-0.0562 Y0.2412 
G01 X-0.0480 Y0.2349 
G01 X-0.0407 Y0.2276 
G01 X-0.0344 Y0.2194 
G01 X-0.0293 Y0.2105 
G01 X-0.0253 Y0.2009 
G01 X-0.0226 Y0.1910 
G01 X-0.0213 Y0.1807 
G01 X-0.0213 Y0.1704 
G01 X-0.0226 Y0.1602 
G01 X-0.0253 Y0.1502 
G01 X-0.0293 Y0.1407 
G01 X-0.0344 Y0.1318 
G01 X-0.0407 Y0.1236 
G00 Z0.1000 
G00 X-0.3075 Y0.1324 
G01 Z-0.0070 F10.00 
G01 X-0.3324 Y0.1075 F20.00 
G01 X-0.3676 Y0.1075 
G01 X-0.3925 Y0.1324 
G01 X-0.3925 Y0.1676 
G01 X-0.3676 Y0.1925 
G01 X-0.3324 Y0.1925 
G01 X-0.3075 Y0.1676 
G01 X-0.3075 Y0.1324 
G00 Z0.1000 
G00 X-0.3075 Y0.2324 
G01 Z-0.0070 F10.00 
G01 X-0.3324 Y0.2075 F20.00 
G01 X-0.3676 Y0.2075 
G01 X-0.3925 Y0.2324 
G01 X-0.3925 Y0.2676 
G01 X-0.3676 Y0.2925 
G01 X-0.3324 Y0.2925 
G01 X-0.3075 Y0.2676 
G01 X-0.3075 Y0.2324 
G00 Z0.1000 
G00 X-0.3075 Y0.3324 
G01 Z-0.0070 F10.00 
G01 X-0.3324 Y0.3075 F20.00 
G01 X-0.3676 Y0.3075 
G01 X-0.3925 Y0.3324 
G01 X-0.3925 Y0.3676 
G01 X-0.3676 Y0.3925 
G01 X-0.3324 Y0.3925 
G01 X-0.3075 Y0.3676 
G01 X-0.3075 Y0.3324 
G00 Z0.1000 
G00 X-0.3039 Y0.4208 
G01 Z-0.0070 F10.00 
G01 X-0.3114 Y0.4223 F20.00 
G01 X-0.3186 Y0.4252 
G01 X-0.3250 Y0.4295 
G01 X-0.3305 Y0.4350 
G01 X-0.3348 Y0.4414 
G01 X-0.3377 Y0.4486 
G01 X-0.3392 Y0.4561 
G01 X-0.3392 Y0.4639 
G01 X-0.3377 Y0.4714 
G01 X-0.3348 Y0.4786 
G01 X-0.3305 Y0.4850 
G01 X-0.3250 Y0.4905 
G01 X-0.3186 Y0.4948 
G01 X-0.3114 Y0.4977 
G01 X-0.3039 Y0.4992 
G01 X-0.2961 Y0.4992 
G01 X-0.2886 Y0.4977 
G01 X-0.2814 Y0.4948 
G01 X-0.2750 Y0.4905 
G01 X-0.2695 Y0.4850 
G01 X-0.2652 Y0.4786 
G01 X-0.2623 Y0.4714 
G01 X-0.2608 Y0.4639 
G01 X-0.2608 Y0.4561 
G01 X-0.2623 Y0.4486 
G01 X-0.2652 Y0.4414 
G01 X-0.2695 Y0.4350 
G01 X-0.2750 Y0.4295 
G01 X-0.2814 Y0.4252 
G01 X-0.2886 Y0.4223 
G01 X-0.2961 Y0.4208 
G01 X-0.3039 Y0.4208 
G00 Z0.1000 
G00 X-0.3695 Y0.4350 
G01 Z-0.0070 F10.00 
G01 X-0.3750 Y0.4295 F20.00 
G01 X-0.3814 Y0.4252 
G01 X-0.3886 Y0.4223 
G01 X-0.3961 Y0.4208 
G01 X-0.4039 Y0.4208 
G01 X-0.4114 Y0.4223 
G01 X-0.4186 Y0.4252 
G01 X-0.4250 Y0.4295 
G01 X-0.4305 Y0.4350 
G01 X-0.4348 Y0.4414 
G01 X-0.4377 Y0.4486 
G01 X-0.4392 Y0.4561 
G01 X-0.4392 Y0.4639 
G01 X-0.4377 Y0.4714 
G01 X-0.4348 Y0.4786 
G01 X-0.4305 Y0.4850 
G01 X-0.4250 Y0.4905 
G01 X-0.4186 Y0.4948 
G01 X-0.4114 Y0.4977 
G01 X-0.4039 Y0.4992 
G01 X-0.3961 Y0.4992 
G01 X-0.3886 Y0.4977 
G01 X-0.3814 Y0.4948 
G01 X-0.3750 Y0.4905 
G01 X-0.3695 Y0.4850 
G01 X-0.3652 Y0.4786 
G01 X-0.3623 Y0.4714 
G01 X-0.3608 Y0.4639 
G01 X-0.3608 Y0.4561 
G01 X-0.3623 Y0.4486 
G01 X-0.3652 Y0.4414 
G01 X-0.3695 Y0.4350 
G00 Z0.1000 
G00 X-0.5094 Y0.5121 
G01 Z-0.0070 F10.00 
G01 X-0.5121 Y0.5094 F20.00 
G01 X-0.5156 Y0.5080 
G01 X-0.5844 Y0.5080 
G01 X-0.5879 Y0.5094 
G01 X-0.5906 Y0.5121 
G01 X-0.5920 Y0.5156 
G01 X-0.5920 Y0.5844 
G01 X-0.5906 Y0.5879 
G01 X-0.5879 Y0.5906 
G01 X-0.5844 Y0.5920 
G01 X-0.5156 Y0.5920 
G01 X-0.5121 Y0.5906 
G01 X-0.5094 Y0.5879 
G01 X-0.5080 Y0.5844 
G01 X-0.5080 Y0.5156 
G01 X-0.5094 Y0.5121 
G00 Z0.1000 
G00 X-0.5180 Y0.6226 
G01 Z-0.0070 F10.00 
G01 X-0.5226 Y0.6180 F20.00 
G01 X-0.5280 Y0.6141 
G01 X-0.5339 Y0.6111 
G01 X-0.5402 Y0.6090 
G01 X-0.5467 Y0.6080 
G01 X-0.5533 Y0.6080 
G01 X-0.5598 Y0.6090 
G01 X-0.5661 Y0.6111 
G01 X-0.5720 Y0.6141 
G01 X-0.5774 Y0.6180 
G01 X-0.5820 Y0.6226 
G01 X-0.5859 Y0.6280 
G01 X-0.5889 Y0.6339 
G01 X-0.5910 Y0.6402 
G01 X-0.5920 Y0.6467 
G01 X-0.5920 Y0.6533 
G01 X-0.5910 Y0.6598 
G01 X-0.5889 Y0.6661 
G01 X-0.5859 Y0.6720 
G01 X-0.5820 Y0.6774 
G01 X-0.5774 Y0.6820 
G01 X-0.5720 Y0.6859 
G01 X-0.5661 Y0.6889 
G01 X-0.5598 Y0.6910 
G01 X-0.5533 Y0.6920 
G01 X-0.5467 Y0.6920 
G01 X-0.5402 Y0.6910 
G01 X-0.5339 Y0.6889 
G01 X-0.5280 Y0.6859 
G01 X-0.5226 Y0.6820 
G01 X-0.5180 Y0.6774 
G01 X-0.5141 Y0.6720 
G01 X-0.5111 Y0.6661 
G01 X-0.5090 Y0.6598 
G01 X-0.5080 Y0.6533 
G01 X-0.5080 Y0.6467 
G01 X-0.5090 Y0.6402 
G01 X-0.5111 Y0.6339 
G01 X-0.5141 Y0.6280 
G01 X-0.5180 Y0.6226 
G00 Z0.1000 
G00 X-0.6625 Y0.6345 
G01 Z-0.0070 F10.00 
G01 X-0.6845 Y0.6125 F20.00 
G01 X-0.7155 Y0.6125 
G01 X-0.7375 Y0.6345 
G01 X-0.7375 Y0.6655 
G01 X-0.7155 Y0.6875 
G01 X-0.6845 Y0.6875 
G01 X-0.6625 Y0.6655 
G01 X-0.6625 Y0.6345 
G00 Z0.1000 
G00 X-0.6761 Y0.5791 
G01 Z-0.0070 F10.00 
G01 X-0.6709 Y0.5739 F20.00 
G01 X-0.6668 Y0.5678 
G01 X-0.6639 Y0.5609 
G01 X-0.6625 Y0.5537 
G01 X-0.6625 Y0.5463 
G01 X-0.6639 Y0.5391 
G01 X-0.6668 Y0.5322 
G01 X-0.6709 Y0.5261 
G01 X-0.6761 Y0.5209 
G01 X-0.6822 Y0.5168 
G01 X-0.6891 Y0.5139 
G01 X-0.6963 Y0.5125 
G01 X-0.7037 Y0.5125 
G01 X-0.7109 Y0.5139 
G01 X-0.7178 Y0.5168 
G01 X-0.7239 Y0.5209 
G01 X-0.7291 Y0.5261 
G01 X-0.7332 Y0.5322 
G01 X-0.7361 Y0.5391 
G01 X-0.7375 Y0.5463 
G01 X-0.7375 Y0.5537 
G01 X-0.7361 Y0.5609 
G01 X-0.7332 Y0.5678 
G01 X-0.7291 Y0.5739 
G01 X-0.7239 Y0.5791 
G01 X-0.7178 Y0.5832 
G01 X-0.7109 Y0.5861 
G01 X-0.7037 Y0.5875 
G01 X-0.6963 Y0.5875 
G01 X-0.6891 Y0.5861 
G01 X-0.6822 Y0.5832 
G01 X-0.6761 Y0.5791 
G00 Z0.1000 
G00 X-0.8065 Y0.5680 
G01 Z-0.0070 F10.00 
G01 X-0.8065 Y0.5320 F20.00 
G01 X-0.8320 Y0.5065 
G01 X-0.8680 Y0.5065 
G01 X-0.8935 Y0.5320 
G01 X-0.8935 Y0.5680 
G01 X-0.8680 Y0.5935 
G01 X-0.8320 Y0.5935 
G01 X-0.8065 Y0.5680 
G00 Z0.1000 
G00 X-0.8320 Y0.4935 
G01 Z-0.0070 F10.00 
G01 X-0.8065 Y0.4680 F20.00 
G01 X-0.8065 Y0.4320 
G01 X-0.8320 Y0.4065 
G01 X-0.8680 Y0.4065 
G01 X-0.8935 Y0.4320 
G01 X-0.8935 Y0.4680 
G01 X-0.8680 Y0.4935 
G01 X-0.8320 Y0.4935 
G00 Z0.1000 
G00 X-0.8320 Y0.3935 
G01 Z-0.0070 F10.00 
G01 X-0.8065 Y0.3680 F20.00 
G01 X-0.8065 Y0.3320 
G01 X-0.8320 Y0.3065 
G01 X-0.8680 Y0.3065 
G01 X-0.8935 Y0.3320 
G01 X-0.8935 Y0.3680 
G01 X-0.8680 Y0.3935 
G01 X-0.8320 Y0.3935 
G00 Z0.1000 
G00 X-0.7925 Y0.3676 
G01 Z-0.0070 F10.00 
G01 X-0.7676 Y0.3925 F20.00 
G01 X-0.7324 Y0.3925 
G01 X-0.7075 Y0.3676 
G01 X-0.7075 Y0.3324 
G01 X-0.7324 Y0.3075 
G01 X-0.7676 Y0.3075 
G01 X-0.7925 Y0.3324 
G01 X-0.7925 Y0.3676 
G00 Z0.1000 
G00 X-0.7925 Y0.2676 
G01 Z-0.0070 F10.00 
G01 X-0.7676 Y0.2925 F20.00 
G01 X-0.7324 Y0.2925 
G01 X-0.7075 Y0.2676 
G01 X-0.7075 Y0.2324 
G01 X-0.7324 Y0.2075 
G01 X-0.7676 Y0.2075 
G01 X-0.7925 Y0.2324 
G01 X-0.7925 Y0.2676 
G00 Z0.1000 
G00 X-0.8065 Y0.2680 
G01 Z-0.0070 F10.00 
G01 X-0.8065 Y0.2320 F20.00 
G01 X-0.8320 Y0.2065 
G01 X-0.8680 Y0.2065 
G01 X-0.8935 Y0.2320 
G01 X-0.8935 Y0.2680 
G01 X-0.8680 Y0.2935 
G01 X-0.8320 Y0.2935 
G01 X-0.8065 Y0.2680 
G00 Z0.1000 
G00 X-0.7925 Y0.1676 
G01 Z-0.0070 F10.00 
G01 X-0.7676 Y0.1925 F20.00 
G01 X-0.7324 Y0.1925 
G01 X-0.7075 Y0.1676 
G01 X-0.7075 Y0.1324 
G01 X-0.7324 Y0.1075 
G01 X-0.7676 Y0.1075 
G01 X-0.7925 Y0.1324 
G01 X-0.7925 Y0.1676 
G00 Z0.1000 
G00 X-1.1065 Y0.2320 
G01 Z-0.0070 F10.00 
G01 X-1.1320 Y0.2065 F20.00 
G01 X-1.1680 Y0.2065 
G01 X-1.1935 Y0.2320 
G01 X-1.1935 Y0.2680 
G01 X-1.1680 Y0.2935 
G01 X-1.1320 Y0.2935 
G01 X-1.1065 Y0.2680 
G01 X-1.1065 Y0.2320 
G00 Z0.1000 
G00 X-1.1065 Y0.3320 
G01 Z-0.0070 F10.00 
G01 X-1.1320 Y0.3065 F20.00 
G01 X-1.1680 Y0.3065 
G01 X-1.1935 Y0.3320 
G01 X-1.1935 Y0.3680 
G01 X-1.1680 Y0.3935 
G01 X-1.1320 Y0.3935 
G01 X-1.1065 Y0.3680 
G01 X-1.1065 Y0.3320 
G00 Z0.1000 
G00 X-1.1065 Y0.4320 
G01 Z-0.0070 F10.00 
G01 X-1.1320 Y0.4065 F20.00 
G01 X-1.1680 Y0.4065 
G01 X-1.1935 Y0.4320 
G01 X-1.1935 Y0.4680 
G01 X-1.1680 Y0.4935 
G01 X-1.1320 Y0.4935 
G01 X-1.1065 Y0.4680 
G01 X-1.1065 Y0.4320 
G00 Z0.1000 
G00 X-1.1065 Y0.5320 
G01 Z-0.0070 F10.00 
G01 X-1.1320 Y0.5065 F20.00 
G01 X-1.1680 Y0.5065 
G01 X-1.1935 Y0.5320 
G01 X-1.1935 Y0.5680 
G01 X-1.1680 Y0.5935 
G01 X-1.1320 Y0.5935 
G01 X-1.1065 Y0.5680 
G01 X-1.1065 Y0.5320 
G00 Z0.1000 
G00 X-1.2075 Y0.5176 
G01 Z-0.0070 F10.00 
G01 X-1.2075 Y0.4824 F20.00 
G01 X-1.2324 Y0.4575 
G01 X-1.2676 Y0.4575 
G01 X-1.2925 Y0.4824 
G01 X-1.2925 Y0.5176 
G01 X-1.2676 Y0.5425 
G01 X-1.2324 Y0.5425 
G01 X-1.2075 Y0.5176 
G00 Z0.1000 
G00 X-1.2324 Y0.4425 
G01 Z-0.0070 F10.00 
G01 X-1.2075 Y0.4176 F20.00 
G01 X-1.2075 Y0.3824 
G01 X-1.2324 Y0.3575 
G01 X-1.2676 Y0.3575 
G01 X-1.2925 Y0.3824 
G01 X-1.2925 Y0.4176 
G01 X-1.2676 Y0.4425 
G01 X-1.2324 Y0.4425 
G00 Z0.1000 
G00 X-1.2324 Y0.3425 
G01 Z-0.0070 F10.00 
G01 X-1.2075 Y0.3176 F20.00 
G01 X-1.2075 Y0.2824 
G01 X-1.2324 Y0.2575 
G01 X-1.2676 Y0.2575 
G01 X-1.2925 Y0.2824 
G01 X-1.2925 Y0.3176 
G01 X-1.2676 Y0.3425 
G01 X-1.2324 Y0.3425 
G00 Z0.1000 
G00 X-1.6324 Y0.3425 
G01 Z-0.0070 F10.00 
G01 X-1.6075 Y0.3176 F20.00 
G01 X-1.6075 Y0.2824 
G01 X-1.6324 Y0.2575 
G01 X-1.6676 Y0.2575 
G01 X-1.6925 Y0.2824 
G01 X-1.6925 Y0.3176 
G01 X-1.6676 Y0.3425 
G01 X-1.6324 Y0.3425 
G00 Z0.1000 
G00 X-1.6324 Y0.3575 
G01 Z-0.0070 F10.00 
G01 X-1.6676 Y0.3575 F20.00 
G01 X-1.6925 Y0.3824 
G01 X-1.6925 Y0.4176 
G01 X-1.6676 Y0.4425 
G01 X-1.6324 Y0.4425 
G01 X-1.6075 Y0.4176 
G01 X-1.6075 Y0.3824 
G01 X-1.6324 Y0.3575 
G00 Z0.1000 
G00 X-1.6324 Y0.4575 
G01 Z-0.0070 F10.00 
G01 X-1.6676 Y0.4575 F20.00 
G01 X-1.6925 Y0.4824 
G01 X-1.6925 Y0.5176 
G01 X-1.6676 Y0.5425 
G01 X-1.6324 Y0.5425 
G01 X-1.6075 Y0.5176 
G01 X-1.6075 Y0.4824 
G01 X-1.6324 Y0.4575 
G00 Z0.1000 
G00 X-0.4250 Y0.7095 
G01 Z-0.0070 F10.00 
G01 X-0.4305 Y0.7150 F20.00 
G01 X-0.4348 Y0.7214 
G01 X-0.4377 Y0.7286 
G01 X-0.4392 Y0.7361 
G01 X-0.4392 Y0.7439 
G01 X-0.4377 Y0.7514 
G01 X-0.4348 Y0.7586 
G01 X-0.4305 Y0.7650 
G01 X-0.4250 Y0.7705 
G01 X-0.4186 Y0.7748 
G01 X-0.4114 Y0.7777 
G01 X-0.4039 Y0.7792 
G01 X-0.3961 Y0.7792 
G01 X-0.3886 Y0.7777 
G01 X-0.3814 Y0.7748 
G01 X-0.3750 Y0.7705 
G01 X-0.3695 Y0.7650 
G01 X-0.3652 Y0.7586 
G01 X-0.3623 Y0.7514 
G01 X-0.3608 Y0.7439 
G01 X-0.3608 Y0.7361 
G01 X-0.3623 Y0.7286 
G01 X-0.3652 Y0.7214 
G01 X-0.3695 Y0.7150 
G01 X-0.3750 Y0.7095 
G01 X-0.3814 Y0.7052 
G01 X-0.3886 Y0.7023 
G01 X-0.3961 Y0.7008 
G01 X-0.4039 Y0.7008 
G01 X-0.4114 Y0.7023 
G01 X-0.4186 Y0.7052 
G01 X-0.4250 Y0.7095 
G00 Z0.1000 
G00 X-0.3250 Y0.7095 
G01 Z-0.0070 F10.00 
G01 X-0.3305 Y0.7150 F20.00 
G01 X-0.3348 Y0.7214 
G01 X-0.3377 Y0.7286 
G01 X-0.3392 Y0.7361 
G01 X-0.3392 Y0.7439 
G01 X-0.3377 Y0.7514 
G01 X-0.3348 Y0.7586 
G01 X-0.3305 Y0.7650 
G01 X-0.3250 Y0.7705 
G01 X-0.3186 Y0.7748 
G01 X-0.3114 Y0.7777 
G01 X-0.3039 Y0.7792 
G01 X-0.2961 Y0.7792 
G01 X-0.2886 Y0.7777 
G01 X-0.2814 Y0.7748 
G01 X-0.2750 Y0.7705 
G01 X-0.2695 Y0.7650 
G01 X-0.2652 Y0.7586 
G01 X-0.2623 Y0.7514 
G01 X-0.2608 Y0.7439 
G01 X-0.2608 Y0.7361 
G01 X-0.2623 Y0.7286 
G01 X-0.2652 Y0.7214 
G01 X-0.2695 Y0.7150 
G01 X-0.2750 Y0.7095 
G01 X-0.2814 Y0.7052 
G01 X-0.2886 Y0.7023 
G01 X-0.2961 Y0.7008 
G01 X-0.3039 Y0.7008 
G01 X-0.3114 Y0.7023 
G01 X-0.3186 Y0.7052 
G01 X-0.3250 Y0.7095 
G00 Z0.1000 
G00 X-0.1593 Y0.6764 
G01 Z-0.0070 F10.00 
G01 X-0.1520 Y0.6837 F20.00 
G01 X-0.1438 Y0.6900 
G01 X-0.1349 Y0.6952 
G01 X-0.1254 Y0.6991 
G01 X-0.1154 Y0.7018 
G01 X-0.1052 Y0.7031 
G01 X-0.0948 Y0.7031 
G01 X-0.0846 Y0.7018 
G01 X-0.0746 Y0.6991 
G01 X-0.0651 Y0.6952 
G01 X-0.0562 Y0.6900 
G01 X-0.0480 Y0.6837 
G01 X-0.0407 Y0.6764 
G01 X-0.0344 Y0.6682 
G01 X-0.0293 Y0.6593 
G01 X-0.0253 Y0.6498 
G01 X-0.0226 Y0.6398 
G01 X-0.0213 Y0.6296 
G01 X-0.0213 Y0.6193 
G01 X-0.0226 Y0.6090 
G01 X-0.0253 Y0.5991 
G01 X-0.0293 Y0.5895 
G01 X-0.0344 Y0.5806 
G01 X-0.0407 Y0.5724 
G01 X-0.0480 Y0.5651 
G01 X-0.0562 Y0.5588 
G01 X-0.0651 Y0.5537 
G01 X-0.0746 Y0.5497 
G01 X-0.0846 Y0.5470 
G01 X-0.0948 Y0.5457 
G01 X-0.1052 Y0.5457 
G01 X-0.1154 Y0.5470 
G01 X-0.1254 Y0.5497 
G01 X-0.1349 Y0.5537 
G01 X-0.1438 Y0.5588 
G01 X-0.1520 Y0.5651 
G01 X-0.1593 Y0.5724 
G01 X-0.1656 Y0.5806 
G01 X-0.1707 Y0.5895 
G01 X-0.1747 Y0.5991 
G01 X-0.1774 Y0.6090 
G01 X-0.1787 Y0.6193 
G01 X-0.1787 Y0.6296 
G01 X-0.1774 Y0.6398 
G01 X-0.1747 Y0.6498 
G01 X-0.1707 Y0.6593 
G01 X-0.1656 Y0.6682 
G01 X-0.1593 Y0.6764 
G00 Z0.1000 
G00 X-0.0369 Y0.1203 
G01 Z-0.0070 F10.00 
G01 X-0.0447 Y0.1125 F20.00 
G01 X-0.0534 Y0.1058 
G01 X-0.0629 Y0.1003 
G01 X-0.0730 Y0.0962 
G01 X-0.0836 Y0.0933 
G01 X-0.0945 Y0.0919 
G01 X-0.1055 Y0.0919 
G01 X-0.1164 Y0.0933 
G01 X-0.1270 Y0.0962 
G01 X-0.1371 Y0.1003 
G01 X-0.1466 Y0.1058 
G01 X-0.1553 Y0.1125 
G01 X-0.1631 Y0.1203 
G01 X-0.1698 Y0.1290 
G01 X-0.1752 Y0.1385 
G01 X-0.1794 Y0.1486 
G01 X-0.1823 Y0.1592 
G01 X-0.1837 Y0.1701 
G01 X-0.1837 Y0.1811 
G01 X-0.1823 Y0.1920 
G01 X-0.1794 Y0.2026 
G01 X-0.1752 Y0.2127 
G01 X-0.1698 Y0.2222 
G01 X-0.1631 Y0.2309 
G01 X-0.1553 Y0.2387 
G01 X-0.1466 Y0.2453 
G01 X-0.1371 Y0.2508 
G01 X-0.1270 Y0.2550 
G01 X-0.1164 Y0.2579 
G01 X-0.1055 Y0.2593 
G01 X-0.0945 Y0.2593 
G01 X-0.0836 Y0.2579 
G01 X-0.0730 Y0.2550 
G01 X-0.0629 Y0.2508 
G01 X-0.0534 Y0.2453 
G01 X-0.0447 Y0.2387 
G01 X-0.0369 Y0.2309 
G01 X-0.0302 Y0.2222 
G01 X-0.0248 Y0.2127 
G01 X-0.0206 Y0.2026 
G01 X-0.0177 Y0.1920 
G01 X-0.0163 Y0.1811 
G01 X-0.0163 Y0.1701 
G01 X-0.0177 Y0.1592 
G01 X-0.0206 Y0.1486 
G01 X-0.0248 Y0.1385 
G01 X-0.0302 Y0.1290 
G01 X-0.0369 Y0.1203 
G00 Z0.1000 
G00 X-0.3025 Y0.1303 
G01 Z-0.0070 F10.00 
G01 X-0.3303 Y0.1025 F20.00 
G01 X-0.3697 Y0.1025 
G01 X-0.3975 Y0.1303 
G01 X-0.3975 Y0.1697 
G01 X-0.3697 Y0.1975 
G01 X-0.3303 Y0.1975 
G01 X-0.3025 Y0.1697 
G01 X-0.3025 Y0.1303 
G00 Z0.1000 
G00 X-0.3025 Y0.2303 
G01 Z-0.0070 F10.00 
G01 X-0.3303 Y0.2025 F20.00 
G01 X-0.3697 Y0.2025 
G01 X-0.3975 Y0.2303 
G01 X-0.3975 Y0.2697 
G01 X-0.3697 Y0.2975 
G01 X-0.3303 Y0.2975 
G01 X-0.3025 Y0.2697 
G01 X-0.3025 Y0.2303 
G00 Z0.1000 
G00 X-0.3025 Y0.3303 
G01 Z-0.0070 F10.00 
G01 X-0.3303 Y0.3025 F20.00 
G01 X-0.3697 Y0.3025 
G01 X-0.3975 Y0.3303 
G01 X-0.3975 Y0.3697 
G01 X-0.3697 Y0.3975 
G01 X-0.3303 Y0.3975 
G01 X-0.3025 Y0.3697 
G01 X-0.3025 Y0.3303 
G00 Z0.1000 
G00 X-0.3035 Y0.4158 
G01 Z-0.0070 F10.00 
G01 X-0.3104 Y0.4169 F20.00 
G01 X-0.3170 Y0.4190 
G01 X-0.3232 Y0.4222 
G01 X-0.3288 Y0.4263 
G01 X-0.3337 Y0.4312 
G01 X-0.3378 Y0.4368 
G01 X-0.3410 Y0.4430 
G01 X-0.3431 Y0.4496 
G01 X-0.3442 Y0.4565 
G01 X-0.3442 Y0.4635 
G01 X-0.3431 Y0.4704 
G01 X-0.3410 Y0.4770 
G01 X-0.3378 Y0.4832 
G01 X-0.3337 Y0.4888 
G01 X-0.3288 Y0.4937 
G01 X-0.3232 Y0.4978 
G01 X-0.3170 Y0.5010 
G01 X-0.3104 Y0.5031 
G01 X-0.3035 Y0.5042 
G01 X-0.2965 Y0.5042 
G01 X-0.2896 Y0.5031 
G01 X-0.2830 Y0.5010 
G01 X-0.2768 Y0.4978 
G01 X-0.2712 Y0.4937 
G01 X-0.2663 Y0.4888 
G01 X-0.2622 Y0.4832 
G01 X-0.2590 Y0.4770 
G01 X-0.2569 Y0.4704 
G01 X-0.2558 Y0.4635 
G01 X-0.2558 Y0.4565 
G01 X-0.2569 Y0.4496 
G01 X-0.2590 Y0.4430 
G01 X-0.2622 Y0.4368 
G01 X-0.2663 Y0.4312 
G01 X-0.2712 Y0.4263 
G01 X-0.2768 Y0.4222 
G01 X-0.2830 Y0.4190 
G01 X-0.2896 Y0.4169 
G01 X-0.2965 Y0.4158 
G01 X-0.3035 Y0.4158 
G00 Z0.1000 
G00 X-0.3663 Y0.4312 
G01 Z-0.0070 F10.00 
G01 X-0.3712 Y0.4263 F20.00 
G01 X-0.3768 Y0.4222 
G01 X-0.3830 Y0.4190 
G01 X-0.3896 Y0.4169 
G01 X-0.3965 Y0.4158 
G01 X-0.4035 Y0.4158 
G01 X-0.4104 Y0.4169 
G01 X-0.4170 Y0.4190 
G01 X-0.4232 Y0.4222 
G01 X-0.4288 Y0.4263 
G01 X-0.4337 Y0.4312 
G01 X-0.4378 Y0.4368 
G01 X-0.4410 Y0.4430 
G01 X-0.4431 Y0.4496 
G01 X-0.4442 Y0.4565 
G01 X-0.4442 Y0.4635 
G01 X-0.4431 Y0.4704 
G01 X-0.4410 Y0.4770 
G01 X-0.4378 Y0.4832 
G01 X-0.4337 Y0.4888 
G01 X-0.4288 Y0.4937 
G01 X-0.4232 Y0.4978 
G01 X-0.4170 Y0.5010 
G01 X-0.4104 Y0.5031 
G01 X-0.4035 Y0.5042 
G01 X-0.3965 Y0.5042 
G01 X-0.3896 Y0.5031 
G01 X-0.3830 Y0.5010 
G01 X-0.3768 Y0.4978 
G01 X-0.3712 Y0.4937 
G01 X-0.3663 Y0.4888 
G01 X-0.3622 Y0.4832 
G01 X-0.3590 Y0.4770 
G01 X-0.3569 Y0.4704 
G01 X-0.3558 Y0.4635 
G01 X-0.3558 Y0.4565 
G01 X-0.3569 Y0.4496 
G01 X-0.3590 Y0.4430 
G01 X-0.3622 Y0.4368 
G01 X-0.3663 Y0.4312 
G00 Z0.1000 
G00 X-0.5059 Y0.5086 
G01 Z-0.0070 F10.00 
G01 X-0.5086 Y0.5059 F20.00 
G01 X-0.5119 Y0.5040 
G01 X-0.5156 Y0.5030 
G01 X-0.5844 Y0.5030 
G01 X-0.5881 Y0.5040 
G01 X-0.5914 Y0.5059 
G01 X-0.5941 Y0.5086 
G01 X-0.5960 Y0.5119 
G01 X-0.5970 Y0.5156 
G01 X-0.5970 Y0.5844 
G01 X-0.5960 Y0.5881 
G01 X-0.5941 Y0.5914 
G01 X-0.5914 Y0.5941 
G01 X-0.5881 Y0.5960 
G01 X-0.5844 Y0.5970 
G01 X-0.5156 Y0.5970 
G01 X-0.5119 Y0.5960 
G01 X-0.5086 Y0.5941 
G01 X-0.5059 Y0.5914 
G01 X-0.5040 Y0.5881 
G01 X-0.5030 Y0.5844 
G01 X-0.5030 Y0.5156 
G01 X-0.5040 Y0.5119 
G01 X-0.5059 Y0.5086 
G00 Z0.1000 
G00 X-0.5142 Y0.6194 
G01 Z-0.0070 F10.00 
G01 X-0.5194 Y0.6142 F20.00 
G01 X-0.5254 Y0.6098 
G01 X-0.5320 Y0.6064 
G01 X-0.5390 Y0.6042 
G01 X-0.5463 Y0.6030 
G01 X-0.5537 Y0.6030 
G01 X-0.5610 Y0.6042 
G01 X-0.5680 Y0.6064 
G01 X-0.5746 Y0.6098 
G01 X-0.5806 Y0.6142 
G01 X-0.5858 Y0.6194 
G01 X-0.5902 Y0.6254 
G01 X-0.5936 Y0.6320 
G01 X-0.5958 Y0.6390 
G01 X-0.5970 Y0.6463 
G01 X-0.5970 Y0.6537 
G01 X-0.5958 Y0.6610 
G01 X-0.5936 Y0.6680 
G01 X-0.5902 Y0.6746 
G01 X-0.5858 Y0.6806 
G01 X-0.5806 Y0.6858 
G01 X-0.5746 Y0.6902 
G01 X-0.5680 Y0.6936 
G01 X-0.5610 Y0.6958 
G01 X-0.5537 Y0.6970 
G01 X-0.5463 Y0.6970 
G01 X-0.5390 Y0.6958 
G01 X-0.5320 Y0.6936 
G01 X-0.5254 Y0.6902 
G01 X-0.5194 Y0.6858 
G01 X-0.5142 Y0.6806 
G01 X-0.5098 Y0.6746 
G01 X-0.5064 Y0.6680 
G01 X-0.5042 Y0.6610 
G01 X-0.5030 Y0.6537 
G01 X-0.5030 Y0.6463 
G01 X-0.5042 Y0.6390 
G01 X-0.5064 Y0.6320 
G01 X-0.5098 Y0.6254 
G01 X-0.5142 Y0.6194 
G00 Z0.1000 
G00 X-0.6575 Y0.6324 
G01 Z-0.0070 F10.00 
G01 X-0.6824 Y0.6075 F20.00 
G01 X-0.7176 Y0.6075 
G01 X-0.7425 Y0.6324 
G01 X-0.7425 Y0.6676 
G01 X-0.7176 Y0.6925 
G01 X-0.6824 Y0.6925 
G01 X-0.6575 Y0.6676 
G01 X-0.6575 Y0.6324 
G00 Z0.1000 
G00 X-0.6723 Y0.5824 
G01 Z-0.0070 F10.00 
G01 X-0.6676 Y0.5777 F20.00 
G01 X-0.6637 Y0.5723 
G01 X-0.6606 Y0.5663 
G01 X-0.6585 Y0.5600 
G01 X-0.6575 Y0.5533 
G01 X-0.6575 Y0.5467 
G01 X-0.6585 Y0.5400 
G01 X-0.6606 Y0.5337 
G01 X-0.6637 Y0.5277 
G01 X-0.6676 Y0.5223 
G01 X-0.6723 Y0.5176 
G01 X-0.6777 Y0.5137 
G01 X-0.6837 Y0.5106 
G01 X-0.6900 Y0.5085 
G01 X-0.6967 Y0.5075 
G01 X-0.7033 Y0.5075 
G01 X-0.7100 Y0.5085 
G01 X-0.7163 Y0.5106 
G01 X-0.7223 Y0.5137 
G01 X-0.7277 Y0.5176 
G01 X-0.7324 Y0.5223 
G01 X-0.7363 Y0.5277 
G01 X-0.7394 Y0.5337 
G01 X-0.7415 Y0.5400 
G01 X-0.7425 Y0.5467 
G01 X-0.7425 Y0.5533 
G01 X-0.7415 Y0.5600 
G01 X-0.7394 Y0.5663 
G01 X-0.7363 Y0.5723 
G01 X-0.7324 Y0.5777 
G01 X-0.7277 Y0.5824 
G01 X-0.7223 Y0.5863 
G01 X-0.7163 Y0.5894 
G01 X-0.7100 Y0.5915 
G01 X-0.7033 Y0.5925 
G01 X-0.6967 Y0.5925 
G01 X-0.6900 Y0.5915 
G01 X-0.6837 Y0.5894 
G01 X-0.6777 Y0.5863 
G01 X-0.6723 Y0.5824 
G00 Z0.1000 
G00 X-0.8015 Y0.5701 
G01 Z-0.0070 F10.00 
G01 X-0.8015 Y0.5299 F20.00 
G01 X-0.8299 Y0.5015 
G01 X-0.8701 Y0.5015 
G01 X-0.8985 Y0.5299 
G01 X-0.8985 Y0.5701 
G01 X-0.8701 Y0.5985 
G01 X-0.8299 Y0.5985 
G01 X-0.8015 Y0.5701 
G00 Z0.1000 
G00 X-0.8299 Y0.4985 
G01 Z-0.0070 F10.00 
G01 X-0.8015 Y0.4701 F20.00 
G01 X-0.8015 Y0.4299 
G01 X-0.8299 Y0.4015 
G01 X-0.8701 Y0.4015 
G01 X-0.8985 Y0.4299 
G01 X-0.8985 Y0.4701 
G01 X-0.8701 Y0.4985 
G01 X-0.8299 Y0.4985 
G00 Z0.1000 
G00 X-0.8299 Y0.3985 
G01 Z-0.0070 F10.00 
G01 X-0.8015 Y0.3701 F20.00 
G01 X-0.8015 Y0.3299 
G01 X-0.8299 Y0.3015 
G01 X-0.8701 Y0.3015 
G01 X-0.8985 Y0.3299 
G01 X-0.8985 Y0.3701 
G01 X-0.8701 Y0.3985 
G01 X-0.8299 Y0.3985 
G00 Z0.1000 
G00 X-0.7975 Y0.3697 
G01 Z-0.0070 F10.00 
G01 X-0.7697 Y0.3975 F20.00 
G01 X-0.7303 Y0.3975 
G01 X-0.7025 Y0.3697 
G01 X-0.7025 Y0.3303 
G01 X-0.7303 Y0.3025 
G01 X-0.7697 Y0.3025 
G01 X-0.7975 Y0.3303 
G01 X-0.7975 Y0.3697 
G00 Z0.1000 
G00 X-0.7975 Y0.2697 
G01 Z-0.0070 F10.00 
G01 X-0.7697 Y0.2975 F20.00 
G01 X-0.7303 Y0.2975 
G01 X-0.7025 Y0.2697 
G01 X-0.7025 Y0.2303 
G01 X-0.7303 Y0.2025 
G01 X-0.7697 Y0.2025 
G01 X-0.7975 Y0.2303 
G01 X-0.7975 Y0.2697 
G00 Z0.1000 
G00 X-0.8015 Y0.2701 
G01 Z-0.0070 F10.00 
G01 X-0.8015 Y0.2299 F20.00 
G01 X-0.8299 Y0.2015 
G01 X-0.8701 Y0.2015 
G01 X-0.8985 Y0.2299 
G01 X-0.8985 Y0.2701 
G01 X-0.8701 Y0.2985 
G01 X-0.8299 Y0.2985 
G01 X-0.8015 Y0.2701 
G00 Z0.1000 
G00 X-0.7975 Y0.1697 
G01 Z-0.0070 F10.00 
G01 X-0.7697 Y0.1975 F20.00 
G01 X-0.7303 Y0.1975 
G01 X-0.7025 Y0.1697 
G01 X-0.7025 Y0.1303 
G01 X-0.7303 Y0.1025 
G01 X-0.7697 Y0.1025 
G01 X-0.7975 Y0.1303 
G01 X-0.7975 Y0.1697 
G00 Z0.1000 
G00 X-1.1015 Y0.2299 
G01 Z-0.0070 F10.00 
G01 X-1.1299 Y0.2015 F20.00 
G01 X-1.1701 Y0.2015 
G01 X-1.1985 Y0.2299 
G01 X-1.1985 Y0.2701 
G01 X-1.1701 Y0.2985 
G01 X-1.1299 Y0.2985 
G01 X-1.1015 Y0.2701 
G01 X-1.1015 Y0.2299 
G00 Z0.1000 
G00 X-1.1015 Y0.3299 
G01 Z-0.0070 F10.00 
G01 X-1.1299 Y0.3015 F20.00 
G01 X-1.1701 Y0.3015 
G01 X-1.1985 Y0.3299 
G01 X-1.1985 Y0.3701 
G01 X-1.1701 Y0.3985 
G01 X-1.1299 Y0.3985 
G01 X-1.1015 Y0.3701 
G01 X-1.1015 Y0.3299 
G00 Z0.1000 
G00 X-1.1015 Y0.4299 
G01 Z-0.0070 F10.00 
G01 X-1.1299 Y0.4015 F20.00 
G01 X-1.1701 Y0.4015 
G01 X-1.1985 Y0.4299 
G01 X-1.1985 Y0.4701 
G01 X-1.1701 Y0.4985 
G01 X-1.1299 Y0.4985 
G01 X-1.1015 Y0.4701 
G01 X-1.1015 Y0.4299 
G00 Z0.1000 
G00 X-1.1015 Y0.5299 
G01 Z-0.0070 F10.00 
G01 X-1.1299 Y0.5015 F20.00 
G01 X-1.1701 Y0.5015 
G01 X-1.1985 Y0.5299 
G01 X-1.1985 Y0.5701 
G01 X-1.1701 Y0.5985 
G01 X-1.1299 Y0.5985 
G01 X-1.1015 Y0.5701 
G01 X-1.1015 Y0.5299 
G00 Z0.1000 
G00 X-1.2025 Y0.5197 
G01 Z-0.0070 F10.00 
G01 X-1.2025 Y0.4803 F20.00 
G01 X-1.2303 Y0.4525 
G01 X-1.2697 Y0.4525 
G01 X-1.2975 Y0.4803 
G01 X-1.2975 Y0.5197 
G01 X-1.2697 Y0.5475 
G01 X-1.2303 Y0.5475 
G01 X-1.2025 Y0.5197 
G00 Z0.1000 
G00 X-1.2303 Y0.4475 
G01 Z-0.0070 F10.00 
G01 X-1.2025 Y0.4197 F20.00 
G01 X-1.2025 Y0.3803 
G01 X-1.2303 Y0.3525 
G01 X-1.2697 Y0.3525 
G01 X-1.2975 Y0.3803 
G01 X-1.2975 Y0.4197 
G01 X-1.2697 Y0.4475 
G01 X-1.2303 Y0.4475 
G00 Z0.1000 
G00 X-1.2303 Y0.3475 
G01 Z-0.0070 F10.00 
G01 X-1.2025 Y0.3197 F20.00 
G01 X-1.2025 Y0.2803 
G01 X-1.2303 Y0.2525 
G01 X-1.2697 Y0.2525 
G01 X-1.2975 Y0.2803 
G01 X-1.2975 Y0.3197 
G01 X-1.2697 Y0.3475 
G01 X-1.2303 Y0.3475 
G00 Z0.1000 
G00 X-1.6303 Y0.3475 
G01 Z-0.0070 F10.00 
G01 X-1.6025 Y0.3197 F20.00 
G01 X-1.6025 Y0.2803 
G01 X-1.6303 Y0.2525 
G01 X-1.6697 Y0.2525 
G01 X-1.6975 Y0.2803 
G01 X-1.6975 Y0.3197 
G01 X-1.6697 Y0.3475 
G01 X-1.6303 Y0.3475 
G00 Z0.1000 
G00 X-1.6303 Y0.3525 
G01 Z-0.0070 F10.00 
G01 X-1.6697 Y0.3525 F20.00 
G01 X-1.6975 Y0.3803 
G01 X-1.6975 Y0.4197 
G01 X-1.6697 Y0.4475 
G01 X-1.6303 Y0.4475 
G01 X-1.6025 Y0.4197 
G01 X-1.6025 Y0.3803 
G01 X-1.6303 Y0.3525 
G00 Z0.1000 
G00 X-1.6303 Y0.4525 
G01 Z-0.0070 F10.00 
G01 X-1.6697 Y0.4525 F20.00 
G01 X-1.6975 Y0.4803 
G01 X-1.6975 Y0.5197 
G01 X-1.6697 Y0.5475 
G01 X-1.6303 Y0.5475 
G01 X-1.6025 Y0.5197 
G01 X-1.6025 Y0.4803 
G01 X-1.6303 Y0.4525 
G00 Z0.1000 
G00 X-0.4288 Y0.7063 
G01 Z-0.0070 F10.00 
G01 X-0.4337 Y0.7112 F20.00 
G01 X-0.4378 Y0.7168 
G01 X-0.4410 Y0.7230 
G01 X-0.4431 Y0.7296 
G01 X-0.4442 Y0.7365 
G01 X-0.4442 Y0.7435 
G01 X-0.4431 Y0.7504 
G01 X-0.4410 Y0.7570 
G01 X-0.4378 Y0.7632 
G01 X-0.4337 Y0.7688 
G01 X-0.4288 Y0.7737 
G01 X-0.4232 Y0.7778 
G01 X-0.4170 Y0.7810 
G01 X-0.4104 Y0.7831 
G01 X-0.4035 Y0.7842 
G01 X-0.3965 Y0.7842 
G01 X-0.3896 Y0.7831 
G01 X-0.3830 Y0.7810 
G01 X-0.3768 Y0.7778 
G01 X-0.3712 Y0.7737 
G01 X-0.3663 Y0.7688 
G01 X-0.3622 Y0.7632 
G01 X-0.3590 Y0.7570 
G01 X-0.3569 Y0.7504 
G01 X-0.3558 Y0.7435 
G01 X-0.3558 Y0.7365 
G01 X-0.3569 Y0.7296 
G01 X-0.3590 Y0.7230 
G01 X-0.3622 Y0.7168 
G01 X-0.3663 Y0.7112 
G01 X-0.3712 Y0.7063 
G01 X-0.3768 Y0.7022 
G01 X-0.3830 Y0.6990 
G01 X-0.3896 Y0.6969 
G01 X-0.3965 Y0.6958 
G01 X-0.4035 Y0.6958 
G01 X-0.4104 Y0.6969 
G01 X-0.4170 Y0.6990 
G01 X-0.4232 Y0.7022 
G01 X-0.4288 Y0.7063 
G00 Z0.1000 
G00 X-0.3288 Y0.7063 
G01 Z-0.0070 F10.00 
G01 X-0.3337 Y0.7112 F20.00 
G01 X-0.3378 Y0.7168 
G01 X-0.3410 Y0.7230 
G01 X-0.3431 Y0.7296 
G01 X-0.3442 Y0.7365 
G01 X-0.3442 Y0.7435 
G01 X-0.3431 Y0.7504 
G01 X-0.3410 Y0.7570 
G01 X-0.3378 Y0.7632 
G01 X-0.3337 Y0.7688 
G01 X-0.3288 Y0.7737 
G01 X-0.3232 Y0.7778 
G01 X-0.3170 Y0.7810 
G01 X-0.3104 Y0.7831 
G01 X-0.3035 Y0.7842 
G01 X-0.2965 Y0.7842 
G01 X-0.2896 Y0.7831 
G01 X-0.2830 Y0.7810 
G01 X-0.2768 Y0.7778 
G01 X-0.2712 Y0.7737 
G01 X-0.2663 Y0.7688 
G01 X-0.2622 Y0.7632 
G01 X-0.2590 Y0.7570 
G01 X-0.2569 Y0.7504 
G01 X-0.2558 Y0.7435 
G01 X-0.2558 Y0.7365 
G01 X-0.2569 Y0.7296 
G01 X-0.2590 Y0.7230 
G01 X-0.2622 Y0.7168 
G01 X-0.2663 Y0.7112 
G01 X-0.2712 Y0.7063 
G01 X-0.2768 Y0.7022 
G01 X-0.2830 Y0.6990 
G01 X-0.2896 Y0.6969 
G01 X-0.2965 Y0.6958 
G01 X-0.3035 Y0.6958 
G01 X-0.3104 Y0.6969 
G01 X-0.3170 Y0.6990 
G01 X-0.3232 Y0.7022 
G01 X-0.3288 Y0.7063 
G00 Z0.1000 
G00 X-0.1631 Y0.6797 
G01 Z-0.0070 F10.00 
G01 X-0.1553 Y0.6875 F20.00 
G01 X-0.1466 Y0.6942 
G01 X-0.1371 Y0.6996 
G01 X-0.1270 Y0.7038 
G01 X-0.1164 Y0.7067 
G01 X-0.1055 Y0.7081 
G01 X-0.0945 Y0.7081 
G01 X-0.0836 Y0.7067 
G01 X-0.0730 Y0.7038 
G01 X-0.0629 Y0.6996 
G01 X-0.0534 Y0.6942 
G01 X-0.0447 Y0.6875 
G01 X-0.0369 Y0.6797 
G01 X-0.0302 Y0.6710 
G01 X-0.0248 Y0.6615 
G01 X-0.0206 Y0.6514 
G01 X-0.0177 Y0.6408 
G01 X-0.0163 Y0.6299 
G01 X-0.0163 Y0.6189 
G01 X-0.0177 Y0.6080 
G01 X-0.0206 Y0.5974 
G01 X-0.0248 Y0.5873 
G01 X-0.0302 Y0.5778 
G01 X-0.0369 Y0.5691 
G01 X-0.0447 Y0.5613 
G01 X-0.0534 Y0.5547 
G01 X-0.0629 Y0.5492 
G01 X-0.0730 Y0.5450 
G01 X-0.0836 Y0.5421 
G01 X-0.0945 Y0.5407 
G01 X-0.1055 Y0.5407 
G01 X-0.1164 Y0.5421 
G01 X-0.1270 Y0.5450 
G01 X-0.1371 Y0.5492 
G01 X-0.1466 Y0.5547 
G01 X-0.1553 Y0.5613 
G01 X-0.1631 Y0.5691 
G01 X-0.1698 Y0.5778 
G01 X-0.1752 Y0.5873 
G01 X-0.1794 Y0.5974 
G01 X-0.1823 Y0.6080 
G01 X-0.1837 Y0.6189 
G01 X-0.1837 Y0.6299 
G01 X-0.1823 Y0.6408 
G01 X-0.1794 Y0.6514 
G01 X-0.1752 Y0.6615 
G01 X-0.1698 Y0.6710 
G01 X-0.1631 Y0.6797 
G00 Z0.1000 
G00 X-0.0332 Y0.1170 
G01 Z-0.0070 F10.00 
G01 X-0.0414 Y0.1087 F20.00 
G01 X-0.0506 Y0.1017 
G01 X-0.0607 Y0.0959 
G01 X-0.0714 Y0.0914 
G01 X-0.0827 Y0.0884 
G01 X-0.0942 Y0.0869 
G01 X-0.1058 Y0.0869 
G01 X-0.1173 Y0.0884 
G01 X-0.1286 Y0.0914 
G01 X-0.1393 Y0.0959 
G01 X-0.1494 Y0.1017 
G01 X-0.1586 Y0.1087 
G01 X-0.1668 Y0.1170 
G01 X-0.1739 Y0.1262 
G01 X-0.1797 Y0.1363 
G01 X-0.1842 Y0.1470 
G01 X-0.1872 Y0.1582 
G01 X-0.1887 Y0.1698 
G01 X-0.1887 Y0.1814 
G01 X-0.1872 Y0.1929 
G01 X-0.1842 Y0.2042 
G01 X-0.1797 Y0.2149 
G01 X-0.1739 Y0.2250 
G01 X-0.1668 Y0.2342 
G01 X-0.1586 Y0.2424 
G01 X-0.1494 Y0.2495 
G01 X-0.1393 Y0.2553 
G01 X-0.1286 Y0.2598 
G01 X-0.1173 Y0.2628 
G01 X-0.1058 Y0.2643 
G01 X-0.0942 Y0.2643 
G01 X-0.0827 Y0.2628 
G01 X-0.0714 Y0.2598 
G01 X-0.0607 Y0.2553 
G01 X-0.0506 Y0.2495 
G01 X-0.0414 Y0.2424 
G01 X-0.0332 Y0.2342 
G01 X-0.0261 Y0.2250 
G01 X-0.0203 Y0.2149 
G01 X-0.0158 Y0.2042 
G01 X-0.0128 Y0.1929 
G01 X-0.0113 Y0.1814 
G01 X-0.0113 Y0.1698 
G01 X-0.0128 Y0.1582 
G01 X-0.0158 Y0.1470 
G01 X-0.0203 Y0.1363 
G01 X-0.0261 Y0.1262 
G01 X-0.0332 Y0.1170 
G00 Z0.1000 
G00 X-0.2975 Y0.1283 
G01 Z-0.0070 F10.00 
G01 X-0.3283 Y0.0975 F20.00 
G01 X-0.3717 Y0.0975 
G01 X-0.4025 Y0.1283 
G01 X-0.4025 Y0.1717 
G01 X-0.3742 Y0.2000 
G01 X-0.4025 Y0.2283 
G01 X-0.4025 Y0.2717 
G01 X-0.3742 Y0.3000 
G01 X-0.4025 Y0.3283 
G01 X-0.4025 Y0.3717 
G01 X-0.3717 Y0.4025 
G01 X-0.3283 Y0.4025 
G01 X-0.2975 Y0.3717 
G01 X-0.2975 Y0.3283 
G01 X-0.3258 Y0.3000 
G01 X-0.2975 Y0.2717 
G01 X-0.2975 Y0.2283 
G01 X-0.3258 Y0.2000 
G01 X-0.2975 Y0.1717 
G01 X-0.2975 Y0.1283 
G00 Z0.1000 
G00 X-0.2961 Y0.4108 
G01 Z-0.0070 F10.00 
G01 X-0.3039 Y0.4108 F20.00 
G01 X-0.3115 Y0.4120 
G01 X-0.3189 Y0.4144 
G01 X-0.3258 Y0.4179 
G01 X-0.3321 Y0.4225 
G01 X-0.3375 Y0.4279 
G01 X-0.3421 Y0.4342 
G01 X-0.3456 Y0.4411 
G01 X-0.3480 Y0.4485 
G01 X-0.3492 Y0.4561 
G01 X-0.3492 Y0.4639 
G01 X-0.3480 Y0.4715 
G01 X-0.3456 Y0.4789 
G01 X-0.3421 Y0.4858 
G01 X-0.3375 Y0.4921 
G01 X-0.3321 Y0.4975 
G01 X-0.3258 Y0.5021 
G01 X-0.3189 Y0.5056 
G01 X-0.3115 Y0.5080 
G01 X-0.3039 Y0.5092 
G01 X-0.2961 Y0.5092 
G01 X-0.2885 Y0.5080 
G01 X-0.2811 Y0.5056 
G01 X-0.2742 Y0.5021 
G01 X-0.2679 Y0.4975 
G01 X-0.2625 Y0.4921 
G01 X-0.2579 Y0.4858 
G01 X-0.2544 Y0.4789 
G01 X-0.2520 Y0.4715 
G01 X-0.2508 Y0.4639 
G01 X-0.2508 Y0.4561 
G01 X-0.2520 Y0.4485 
G01 X-0.2544 Y0.4411 
G01 X-0.2579 Y0.4342 
G01 X-0.2625 Y0.4279 
G01 X-0.2679 Y0.4225 
G01 X-0.2742 Y0.4179 
G01 X-0.2811 Y0.4144 
G01 X-0.2885 Y0.4120 
G01 X-0.2961 Y0.4108 
G00 Z0.1000 
G00 X-0.3625 Y0.4279 
G01 Z-0.0070 F10.00 
G01 X-0.3679 Y0.4225 F20.00 
G01 X-0.3742 Y0.4179 
G01 X-0.3811 Y0.4144 
G01 X-0.3885 Y0.4120 
G01 X-0.3961 Y0.4108 
G01 X-0.4039 Y0.4108 
G01 X-0.4115 Y0.4120 
G01 X-0.4189 Y0.4144 
G01 X-0.4258 Y0.4179 
G01 X-0.4321 Y0.4225 
G01 X-0.4375 Y0.4279 
G01 X-0.4421 Y0.4342 
G01 X-0.4456 Y0.4411 
G01 X-0.4480 Y0.4485 
G01 X-0.4492 Y0.4561 
G01 X-0.4492 Y0.4639 
G01 X-0.4480 Y0.4715 
G01 X-0.4456 Y0.4789 
G01 X-0.4421 Y0.4858 
G01 X-0.4375 Y0.4921 
G01 X-0.4321 Y0.4975 
G01 X-0.4258 Y0.5021 
G01 X-0.4189 Y0.5056 
G01 X-0.4115 Y0.5080 
G01 X-0.4039 Y0.5092 
G01 X-0.3961 Y0.5092 
G01 X-0.3885 Y0.5080 
G01 X-0.3811 Y0.5056 
G01 X-0.3742 Y0.5021 
G01 X-0.3679 Y0.4975 
G01 X-0.3625 Y0.4921 
G01 X-0.3579 Y0.4858 
G01 X-0.3544 Y0.4789 
G01 X-0.3520 Y0.4715 
G01 X-0.3508 Y0.4639 
G01 X-0.3508 Y0.4561 
G01 X-0.3520 Y0.4485 
G01 X-0.3544 Y0.4411 
G01 X-0.3579 Y0.4342 
G01 X-0.3625 Y0.4279 
G00 Z0.1000 
G00 X-0.5019 Y0.5055 
G01 Z-0.0070 F10.00 
G01 X-0.5055 Y0.5019 F20.00 
G01 X-0.5100 Y0.4993 
G01 X-0.5149 Y0.4980 
G01 X-0.5851 Y0.4980 
G01 X-0.5900 Y0.4993 
G01 X-0.5945 Y0.5019 
G01 X-0.5981 Y0.5055 
G01 X-0.6007 Y0.5100 
G01 X-0.6020 Y0.5149 
G01 X-0.6020 Y0.5851 
G01 X-0.6007 Y0.5900 
G01 X-0.5981 Y0.5945 
G01 X-0.5945 Y0.5981 
G01 X-0.5900 Y0.6007 
G01 X-0.5851 Y0.6020 
G01 X-0.5703 Y0.6020 
G01 X-0.5773 Y0.6055 
G01 X-0.5839 Y0.6103 
G01 X-0.5897 Y0.6161 
G01 X-0.5945 Y0.6227 
G01 X-0.5982 Y0.6300 
G01 X-0.6007 Y0.6378 
G01 X-0.6020 Y0.6459 
G01 X-0.6020 Y0.6541 
G01 X-0.6007 Y0.6622 
G01 X-0.5982 Y0.6700 
G01 X-0.5945 Y0.6773 
G01 X-0.5897 Y0.6839 
G01 X-0.5839 Y0.6897 
G01 X-0.5773 Y0.6945 
G01 X-0.5700 Y0.6982 
G01 X-0.5622 Y0.7007 
G01 X-0.5541 Y0.7020 
G01 X-0.5459 Y0.7020 
G01 X-0.5378 Y0.7007 
G01 X-0.5300 Y0.6982 
G01 X-0.5227 Y0.6945 
G01 X-0.5161 Y0.6897 
G01 X-0.5103 Y0.6839 
G01 X-0.5055 Y0.6773 
G01 X-0.5018 Y0.6700 
G01 X-0.4993 Y0.6622 
G01 X-0.4980 Y0.6541 
G01 X-0.4980 Y0.6459 
G01 X-0.4993 Y0.6378 
G01 X-0.5018 Y0.6300 
G01 X-0.5055 Y0.6227 
G01 X-0.5103 Y0.6161 
G01 X-0.5161 Y0.6103 
G01 X-0.5227 Y0.6055 
G01 X-0.5297 Y0.6020 
G01 X-0.5149 Y0.6020 
G01 X-0.5100 Y0.6007 
G01 X-0.5055 Y0.5981 
G01 X-0.5019 Y0.5945 
G01 X-0.4993 Y0.5900 
G01 X-0.4980 Y0.5851 
G01 X-0.4980 Y0.5149 
G01 X-0.4993 Y0.5100 
G01 X-0.5019 Y0.5055 
G00 Z0.1000 
G00 X-0.6638 Y0.5191 
G01 Z-0.0070 F10.00 
G01 X-0.6691 Y0.5138 F20.00 
G01 X-0.6751 Y0.5094 
G01 X-0.6818 Y0.5060 
G01 X-0.6889 Y0.5037 
G01 X-0.6963 Y0.5025 
G01 X-0.7037 Y0.5025 
G01 X-0.7111 Y0.5037 
G01 X-0.7182 Y0.5060 
G01 X-0.7249 Y0.5094 
G01 X-0.7309 Y0.5138 
G01 X-0.7362 Y0.5191 
G01 X-0.7406 Y0.5251 
G01 X-0.7440 Y0.5318 
G01 X-0.7463 Y0.5389 
G01 X-0.7475 Y0.5463 
G01 X-0.7475 Y0.5537 
G01 X-0.7463 Y0.5611 
G01 X-0.7440 Y0.5682 
G01 X-0.7406 Y0.5749 
G01 X-0.7362 Y0.5809 
G01 X-0.7309 Y0.5862 
G01 X-0.7249 Y0.5906 
G01 X-0.7182 Y0.5940 
G01 X-0.7111 Y0.5963 
G01 X-0.7037 Y0.5975 
G01 X-0.6963 Y0.5975 
G01 X-0.6889 Y0.5963 
G01 X-0.6818 Y0.5940 
G01 X-0.6751 Y0.5906 
G01 X-0.6691 Y0.5862 
G01 X-0.6638 Y0.5809 
G01 X-0.6594 Y0.5749 
G01 X-0.6560 Y0.5682 
G01 X-0.6537 Y0.5611 
G01 X-0.6525 Y0.5537 
G01 X-0.6525 Y0.5463 
G01 X-0.6537 Y0.5389 
G01 X-0.6560 Y0.5318 
G01 X-0.6594 Y0.5251 
G01 X-0.6638 Y0.5191 
G00 Z0.1000 
G00 X-0.6803 Y0.6025 
G01 Z-0.0070 F10.00 
G01 X-0.7197 Y0.6025 F20.00 
G01 X-0.7475 Y0.6303 
G01 X-0.7475 Y0.6697 
G01 X-0.7197 Y0.6975 
G01 X-0.6803 Y0.6975 
G01 X-0.6525 Y0.6697 
G01 X-0.6525 Y0.6303 
G01 X-0.6803 Y0.6025 
G00 Z0.1000 
G00 X-0.7965 Y0.5722 
G01 Z-0.0070 F10.00 
G01 X-0.7965 Y0.5278 F20.00 
G01 X-0.8243 Y0.5000 
G01 X-0.7965 Y0.4722 
G01 X-0.7965 Y0.4278 
G01 X-0.8243 Y0.4000 
G01 X-0.7993 Y0.3750 
G01 X-0.7717 Y0.4025 
G01 X-0.7283 Y0.4025 
G01 X-0.6975 Y0.3717 
G01 X-0.6975 Y0.3283 
G01 X-0.7258 Y0.3000 
G01 X-0.6975 Y0.2717 
G01 X-0.6975 Y0.2283 
G01 X-0.7258 Y0.2000 
G01 X-0.6975 Y0.1717 
G01 X-0.6975 Y0.1283 
G01 X-0.7283 Y0.0975 
G01 X-0.7717 Y0.0975 
G01 X-0.8025 Y0.1283 
G01 X-0.8025 Y0.1717 
G01 X-0.7742 Y0.2000 
G01 X-0.7993 Y0.2250 
G01 X-0.8278 Y0.1965 
G01 X-0.8722 Y0.1965 
G01 X-0.9035 Y0.2278 
G01 X-0.9035 Y0.2722 
G01 X-0.8757 Y0.3000 
G01 X-0.9035 Y0.3278 
G01 X-0.9035 Y0.3722 
G01 X-0.8757 Y0.4000 
G01 X-0.9035 Y0.4278 
G01 X-0.9035 Y0.4722 
G01 X-0.8757 Y0.5000 
G01 X-0.9035 Y0.5278 
G01 X-0.9035 Y0.5722 
G01 X-0.8722 Y0.6035 
G01 X-0.8278 Y0.6035 
G01 X-0.7965 Y0.5722 
G00 Z0.1000 
G00 X-0.7993 Y0.3250 
G01 Z-0.0070 F10.00 
G01 X-0.8243 Y0.3000 F20.00 
G01 X-0.7993 Y0.2750 
G01 X-0.7742 Y0.3000 
G01 X-0.7993 Y0.3250 
G00 Z0.1000 
G00 X-1.0965 Y0.3278 
G01 Z-0.0070 F10.00 
G01 X-1.1243 Y0.3000 F20.00 
G01 X-1.0965 Y0.2722 
G01 X-1.0965 Y0.2278 
G01 X-1.1278 Y0.1965 
G01 X-1.1722 Y0.1965 
G01 X-1.2035 Y0.2278 
G01 X-1.2035 Y0.2722 
G01 X-1.1757 Y0.3000 
G01 X-1.2035 Y0.3278 
G01 X-1.2035 Y0.3722 
G01 X-1.1757 Y0.4000 
G01 X-1.2035 Y0.4278 
G01 X-1.2035 Y0.4722 
G01 X-1.1757 Y0.5000 
G01 X-1.2035 Y0.5278 
G01 X-1.2035 Y0.5722 
G01 X-1.1722 Y0.6035 
G01 X-1.1278 Y0.6035 
G01 X-1.0965 Y0.5722 
G01 X-1.0965 Y0.5278 
G01 X-1.1243 Y0.5000 
G01 X-1.0965 Y0.4722 
G01 X-1.0965 Y0.4278 
G01 X-1.1243 Y0.4000 
G01 X-1.0965 Y0.3722 
G01 X-1.0965 Y0.3278 
G00 Z0.1000 
G00 X-1.1975 Y0.3217 
G01 Z-0.0070 F10.00 
G01 X-1.1975 Y0.2783 F20.00 
G01 X-1.2283 Y0.2475 
G01 X-1.2717 Y0.2475 
G01 X-1.3025 Y0.2783 
G01 X-1.3025 Y0.3217 
G01 X-1.2742 Y0.3500 
G01 X-1.3025 Y0.3783 
G01 X-1.3025 Y0.4217 
G01 X-1.2742 Y0.4500 
G01 X-1.3025 Y0.4783 
G01 X-1.3025 Y0.5217 
G01 X-1.2717 Y0.5525 
G01 X-1.2283 Y0.5525 
G01 X-1.1975 Y0.5217 
G01 X-1.1975 Y0.4783 
G01 X-1.2258 Y0.4500 
G01 X-1.1975 Y0.4217 
G01 X-1.1975 Y0.3783 
G01 X-1.2258 Y0.3500 
G01 X-1.1975 Y0.3217 
G00 Z0.1000 
G00 X-1.5975 Y0.3217 
G01 Z-0.0070 F10.00 
G01 X-1.5975 Y0.2783 F20.00 
G01 X-1.6283 Y0.2475 
G01 X-1.6717 Y0.2475 
G01 X-1.7025 Y0.2783 
G01 X-1.7025 Y0.3217 
G01 X-1.6742 Y0.3500 
G01 X-1.7025 Y0.3783 
G01 X-1.7025 Y0.4217 
G01 X-1.6742 Y0.4500 
G01 X-1.7025 Y0.4783 
G01 X-1.7025 Y0.5217 
G01 X-1.6717 Y0.5525 
G01 X-1.6283 Y0.5525 
G01 X-1.5975 Y0.5217 
G01 X-1.5975 Y0.4783 
G01 X-1.6258 Y0.4500 
G01 X-1.5975 Y0.4217 
G01 X-1.5975 Y0.3783 
G01 X-1.6258 Y0.3500 
G01 X-1.5975 Y0.3217 
G00 Z0.1000 
G00 X-0.4321 Y0.7025 
G01 Z-0.0070 F10.00 
G01 X-0.4375 Y0.7079 F20.00 
G01 X-0.4421 Y0.7142 
G01 X-0.4456 Y0.7211 
G01 X-0.4480 Y0.7285 
G01 X-0.4492 Y0.7361 
G01 X-0.4492 Y0.7439 
G01 X-0.4480 Y0.7515 
G01 X-0.4456 Y0.7589 
G01 X-0.4421 Y0.7658 
G01 X-0.4375 Y0.7721 
G01 X-0.4321 Y0.7775 
G01 X-0.4258 Y0.7821 
G01 X-0.4189 Y0.7856 
G01 X-0.4115 Y0.7880 
G01 X-0.4039 Y0.7892 
G01 X-0.3961 Y0.7892 
G01 X-0.3885 Y0.7880 
G01 X-0.3811 Y0.7856 
G01 X-0.3742 Y0.7821 
G01 X-0.3679 Y0.7775 
G01 X-0.3625 Y0.7721 
G01 X-0.3579 Y0.7658 
G01 X-0.3544 Y0.7589 
G01 X-0.3520 Y0.7515 
G01 X-0.3508 Y0.7439 
G01 X-0.3508 Y0.7361 
G01 X-0.3520 Y0.7285 
G01 X-0.3544 Y0.7211 
G01 X-0.3579 Y0.7142 
G01 X-0.3625 Y0.7079 
G01 X-0.3679 Y0.7025 
G01 X-0.3742 Y0.6979 
G01 X-0.3811 Y0.6944 
G01 X-0.3885 Y0.6920 
G01 X-0.3961 Y0.6908 
G01 X-0.4039 Y0.6908 
G01 X-0.4115 Y0.6920 
G01 X-0.4189 Y0.6944 
G01 X-0.4258 Y0.6979 
G01 X-0.4321 Y0.7025 
G00 Z0.1000 
G00 X-0.3321 Y0.7025 
G01 Z-0.0070 F10.00 
G01 X-0.3375 Y0.7079 F20.00 
G01 X-0.3421 Y0.7142 
G01 X-0.3456 Y0.7211 
G01 X-0.3480 Y0.7285 
G01 X-0.3492 Y0.7361 
G01 X-0.3492 Y0.7439 
G01 X-0.3480 Y0.7515 
G01 X-0.3456 Y0.7589 
G01 X-0.3421 Y0.7658 
G01 X-0.3375 Y0.7721 
G01 X-0.3321 Y0.7775 
G01 X-0.3258 Y0.7821 
G01 X-0.3189 Y0.7856 
G01 X-0.3115 Y0.7880 
G01 X-0.3039 Y0.7892 
G01 X-0.2961 Y0.7892 
G01 X-0.2885 Y0.7880 
G01 X-0.2811 Y0.7856 
G01 X-0.2742 Y0.7821 
G01 X-0.2679 Y0.7775 
G01 X-0.2625 Y0.7721 
G01 X-0.2579 Y0.7658 
G01 X-0.2544 Y0.7589 
G01 X-0.2520 Y0.7515 
G01 X-0.2508 Y0.7439 
G01 X-0.2508 Y0.7361 
G01 X-0.2520 Y0.7285 
G01 X-0.2544 Y0.7211 
G01 X-0.2579 Y0.7142 
G01 X-0.2625 Y0.7079 
G01 X-0.2679 Y0.7025 
G01 X-0.2742 Y0.6979 
G01 X-0.2811 Y0.6944 
G01 X-0.2885 Y0.6920 
G01 X-0.2961 Y0.6908 
G01 X-0.3039 Y0.6908 
G01 X-0.3115 Y0.6920 
G01 X-0.3189 Y0.6944 
G01 X-0.3258 Y0.6979 
G01 X-0.3321 Y0.7025 
G00 Z0.1000 
G00 X-0.1668 Y0.6830 
G01 Z-0.0070 F10.00 
G01 X-0.1586 Y0.6913 F20.00 
G01 X-0.1494 Y0.6983 
G01 X-0.1393 Y0.7041 
G01 X-0.1286 Y0.7086 
G01 X-0.1173 Y0.7116 
G01 X-0.1058 Y0.7131 
G01 X-0.0942 Y0.7131 
G01 X-0.0827 Y0.7116 
G01 X-0.0714 Y0.7086 
G01 X-0.0607 Y0.7041 
G01 X-0.0506 Y0.6983 
G01 X-0.0414 Y0.6913 
G01 X-0.0332 Y0.6830 
G01 X-0.0261 Y0.6738 
G01 X-0.0203 Y0.6637 
G01 X-0.0158 Y0.6530 
G01 X-0.0128 Y0.6418 
G01 X-0.0113 Y0.6302 
G01 X-0.0113 Y0.6186 
G01 X-0.0128 Y0.6071 
G01 X-0.0158 Y0.5958 
G01 X-0.0203 Y0.5851 
G01 X-0.0261 Y0.5750 
G01 X-0.0332 Y0.5658 
G01 X-0.0414 Y0.5576 
G01 X-0.0506 Y0.5505 
G01 X-0.0607 Y0.5447 
G01 X-0.0714 Y0.5402 
G01 X-0.0827 Y0.5372 
G01 X-0.0942 Y0.5357 
G01 X-0.1058 Y0.5357 
G01 X-0.1173 Y0.5372 
G01 X-0.1286 Y0.5402 
G01 X-0.1393 Y0.5447 
G01 X-0.1494 Y0.5505 
G01 X-0.1586 Y0.5576 
G01 X-0.1668 Y0.5658 
G01 X-0.1739 Y0.5750 
G01 X-0.1797 Y0.5851 
G01 X-0.1842 Y0.5958 
G01 X-0.1872 Y0.6071 
G01 X-0.1887 Y0.6186 
G01 X-0.1887 Y0.6302 
G01 X-0.1872 Y0.6418 
G01 X-0.1842 Y0.6530 
G01 X-0.1797 Y0.6637 
G01 X-0.1739 Y0.6738 
G01 X-0.1668 Y0.6830 
G00 Z0.1000 
G00 X-0.0300 Y0.1130 
G01 Z-0.0070 F10.00 
G01 X-0.0375 Y0.1056 F20.00 
G01 X-0.0457 Y0.0990 
G01 X-0.0546 Y0.0934 
G01 X-0.0641 Y0.0889 
G01 X-0.0740 Y0.0854 
G01 X-0.0843 Y0.0831 
G01 X-0.0947 Y0.0819 
G01 X-0.1053 Y0.0819 
G01 X-0.1157 Y0.0831 
G01 X-0.1260 Y0.0854 
G01 X-0.1359 Y0.0889 
G01 X-0.1454 Y0.0934 
G01 X-0.1543 Y0.0990 
G01 X-0.1625 Y0.1056 
G01 X-0.1700 Y0.1130 
G01 X-0.1765 Y0.1213 
G01 X-0.1821 Y0.1302 
G01 X-0.1867 Y0.1397 
G01 X-0.1902 Y0.1496 
G01 X-0.1925 Y0.1599 
G01 X-0.1937 Y0.1703 
G01 X-0.1937 Y0.1809 
G01 X-0.1925 Y0.1913 
G01 X-0.1902 Y0.2016 
G01 X-0.1867 Y0.2115 
G01 X-0.1821 Y0.2210 
G01 X-0.1765 Y0.2299 
G01 X-0.1700 Y0.2381 
G01 X-0.1625 Y0.2456 
G01 X-0.1543 Y0.2521 
G01 X-0.1454 Y0.2577 
G01 X-0.1359 Y0.2623 
G01 X-0.1260 Y0.2658 
G01 X-0.1157 Y0.2681 
G01 X-0.1053 Y0.2693 
G01 X-0.0947 Y0.2693 
G01 X-0.0843 Y0.2681 
G01 X-0.0740 Y0.2658 
G01 X-0.0641 Y0.2623 
G01 X-0.0546 Y0.2577 
G01 X-0.0457 Y0.2521 
G01 X-0.0375 Y0.2456 
G01 X-0.0300 Y0.2381 
G01 X-0.0235 Y0.2299 
G01 X-0.0179 Y0.2210 
G01 X-0.0133 Y0.2115 
G01 X-0.0098 Y0.2016 
G01 X-0.0075 Y0.1913 
G01 X-0.0063 Y0.1809 
G01 X-0.0063 Y0.1703 
G01 X-0.0075 Y0.1599 
G01 X-0.0098 Y0.1496 
G01 X-0.0133 Y0.1397 
G01 X-0.0179 Y0.1302 
G01 X-0.0235 Y0.1213 
G01 X-0.0300 Y0.1130 
G00 Z0.1000 
G00 X-0.2925 Y0.1262 
G01 Z-0.0070 F10.00 
G01 X-0.3262 Y0.0925 F20.00 
G01 X-0.3738 Y0.0925 
G01 X-0.4075 Y0.1262 
G01 X-0.4075 Y0.1738 
G01 X-0.3813 Y0.2000 
G01 X-0.4075 Y0.2262 
G01 X-0.4075 Y0.2738 
G01 X-0.3813 Y0.3000 
G01 X-0.4075 Y0.3262 
G01 X-0.4075 Y0.3738 
G01 X-0.3738 Y0.4075 
G01 X-0.3262 Y0.4075 
G01 X-0.2925 Y0.3738 
G01 X-0.2925 Y0.3262 
G01 X-0.3187 Y0.3000 
G01 X-0.2925 Y0.2738 
G01 X-0.2925 Y0.2262 
G01 X-0.3187 Y0.2000 
G01 X-0.2925 Y0.1738 
G01 X-0.2925 Y0.1262 
G00 Z0.1000 
G00 X-0.2957 Y0.4058 
G01 Z-0.0070 F10.00 
G01 X-0.3043 Y0.4058 F20.00 
G01 X-0.3127 Y0.4071 
G01 X-0.3208 Y0.4098 
G01 X-0.3284 Y0.4136 
G01 X-0.3353 Y0.4186 
G01 X-0.3414 Y0.4247 
G01 X-0.3464 Y0.4316 
G01 X-0.3500 Y0.4387 
G01 X-0.3536 Y0.4316 
G01 X-0.3586 Y0.4247 
G01 X-0.3647 Y0.4186 
G01 X-0.3716 Y0.4136 
G01 X-0.3792 Y0.4098 
G01 X-0.3873 Y0.4071 
G01 X-0.3957 Y0.4058 
G01 X-0.4043 Y0.4058 
G01 X-0.4127 Y0.4071 
G01 X-0.4208 Y0.4098 
G01 X-0.4284 Y0.4136 
G01 X-0.4353 Y0.4186 
G01 X-0.4414 Y0.4247 
G01 X-0.4464 Y0.4316 
G01 X-0.4502 Y0.4392 
G01 X-0.4529 Y0.4473 
G01 X-0.4542 Y0.4557 
G01 X-0.4542 Y0.4643 
G01 X-0.4529 Y0.4727 
G01 X-0.4502 Y0.4808 
G01 X-0.4464 Y0.4884 
G01 X-0.4414 Y0.4953 
G01 X-0.4353 Y0.5014 
G01 X-0.4284 Y0.5064 
G01 X-0.4208 Y0.5102 
G01 X-0.4127 Y0.5129 
G01 X-0.4043 Y0.5142 
G01 X-0.3957 Y0.5142 
G01 X-0.3873 Y0.5129 
G01 X-0.3792 Y0.5102 
G01 X-0.3716 Y0.5064 
G01 X-0.3647 Y0.5014 
G01 X-0.3586 Y0.4953 
G01 X-0.3536 Y0.4884 
G01 X-0.3500 Y0.4813 
G01 X-0.3464 Y0.4884 
G01 X-0.3414 Y0.4953 
G01 X-0.3353 Y0.5014 
G01 X-0.3284 Y0.5064 
G01 X-0.3208 Y0.5102 
G01 X-0.3127 Y0.5129 
G01 X-0.3043 Y0.5142 
G01 X-0.2957 Y0.5142 
G01 X-0.2873 Y0.5129 
G01 X-0.2792 Y0.5102 
G01 X-0.2716 Y0.5064 
G01 X-0.2647 Y0.5014 
G01 X-0.2586 Y0.4953 
G01 X-0.2536 Y0.4884 
G01 X-0.2498 Y0.4808 
G01 X-0.2471 Y0.4727 
G01 X-0.2458 Y0.4643 
G01 X-0.2458 Y0.4557 
G01 X-0.2471 Y0.4473 
G01 X-0.2498 Y0.4392 
G01 X-0.2536 Y0.4316 
G01 X-0.2586 Y0.4247 
G01 X-0.2647 Y0.4186 
G01 X-0.2716 Y0.4136 
G01 X-0.2792 Y0.4098 
G01 X-0.2873 Y0.4071 
G01 X-0.2957 Y0.4058 
G00 Z0.1000 
G00 X-0.2957 Y0.6858 
G01 Z-0.0070 F10.00 
G01 X-0.3043 Y0.6858 F20.00 
G01 X-0.3127 Y0.6871 
G01 X-0.3208 Y0.6898 
G01 X-0.3284 Y0.6936 
G01 X-0.3353 Y0.6986 
G01 X-0.3414 Y0.7047 
G01 X-0.3464 Y0.7116 
G01 X-0.3500 Y0.7187 
G01 X-0.3536 Y0.7116 
G01 X-0.3586 Y0.7047 
G01 X-0.3647 Y0.6986 
G01 X-0.3716 Y0.6936 
G01 X-0.3792 Y0.6898 
G01 X-0.3873 Y0.6871 
G01 X-0.3957 Y0.6858 
G01 X-0.4043 Y0.6858 
G01 X-0.4127 Y0.6871 
G01 X-0.4208 Y0.6898 
G01 X-0.4284 Y0.6936 
G01 X-0.4353 Y0.6986 
G01 X-0.4414 Y0.7047 
G01 X-0.4464 Y0.7116 
G01 X-0.4502 Y0.7192 
G01 X-0.4529 Y0.7273 
G01 X-0.4542 Y0.7357 
G01 X-0.4542 Y0.7443 
G01 X-0.4529 Y0.7527 
G01 X-0.4502 Y0.7608 
G01 X-0.4464 Y0.7684 
G01 X-0.4414 Y0.7753 
G01 X-0.4353 Y0.7814 
G01 X-0.4284 Y0.7864 
G01 X-0.4208 Y0.7902 
G01 X-0.4127 Y0.7929 
G01 X-0.4043 Y0.7942 
G01 X-0.3957 Y0.7942 
G01 X-0.3873 Y0.7929 
G01 X-0.3792 Y0.7902 
G01 X-0.3716 Y0.7864 
G01 X-0.3647 Y0.7814 
G01 X-0.3586 Y0.7753 
G01 X-0.3536 Y0.7684 
G01 X-0.3500 Y0.7613 
G01 X-0.3464 Y0.7684 
G01 X-0.3414 Y0.7753 
G01 X-0.3353 Y0.7814 
G01 X-0.3284 Y0.7864 
G01 X-0.3208 Y0.7902 
G01 X-0.3127 Y0.7929 
G01 X-0.3043 Y0.7942 
G01 X-0.2957 Y0.7942 
G01 X-0.2873 Y0.7929 
G01 X-0.2792 Y0.7902 
G01 X-0.2716 Y0.7864 
G01 X-0.2647 Y0.7814 
G01 X-0.2586 Y0.7753 
G01 X-0.2536 Y0.7684 
G01 X-0.2498 Y0.7608 
G01 X-0.2471 Y0.7527 
G01 X-0.2458 Y0.7443 
G01 X-0.2458 Y0.7357 
G01 X-0.2471 Y0.7273 
G01 X-0.2498 Y0.7192 
G01 X-0.2536 Y0.7116 
G01 X-0.2586 Y0.7047 
G01 X-0.2647 Y0.6986 
G01 X-0.2716 Y0.6936 
G01 X-0.2792 Y0.6898 
G01 X-0.2873 Y0.6871 
G01 X-0.2957 Y0.6858 
G00 Z0.1000 
G00 X-0.1765 Y0.6787 
G01 Z-0.0070 F10.00 
G01 X-0.1700 Y0.6870 F20.00 
G01 X-0.1625 Y0.6944 
G01 X-0.1543 Y0.7010 
G01 X-0.1454 Y0.7066 
G01 X-0.1359 Y0.7111 
G01 X-0.1260 Y0.7146 
G01 X-0.1157 Y0.7169 
G01 X-0.1053 Y0.7181 
G01 X-0.0947 Y0.7181 
G01 X-0.0843 Y0.7169 
G01 X-0.0740 Y0.7146 
G01 X-0.0641 Y0.7111 
G01 X-0.0546 Y0.7066 
G01 X-0.0457 Y0.7010 
G01 X-0.0375 Y0.6944 
G01 X-0.0300 Y0.6870 
G01 X-0.0235 Y0.6787 
G01 X-0.0179 Y0.6698 
G01 X-0.0133 Y0.6603 
G01 X-0.0098 Y0.6504 
G01 X-0.0075 Y0.6401 
G01 X-0.0063 Y0.6297 
G01 X-0.0063 Y0.6191 
G01 X-0.0075 Y0.6087 
G01 X-0.0098 Y0.5984 
G01 X-0.0133 Y0.5885 
G01 X-0.0179 Y0.5790 
G01 X-0.0235 Y0.5701 
G01 X-0.0300 Y0.5619 
G01 X-0.0375 Y0.5544 
G01 X-0.0457 Y0.5479 
G01 X-0.0546 Y0.5423 
G01 X-0.0641 Y0.5377 
G01 X-0.0740 Y0.5342 
G01 X-0.0843 Y0.5319 
G01 X-0.0947 Y0.5307 
G01 X-0.1053 Y0.5307 
G01 X-0.1157 Y0.5319 
G01 X-0.1260 Y0.5342 
G01 X-0.1359 Y0.5377 
G01 X-0.1454 Y0.5423 
G01 X-0.1543 Y0.5479 
G01 X-0.1625 Y0.5544 
G01 X-0.1700 Y0.5619 
G01 X-0.1765 Y0.5701 
G01 X-0.1821 Y0.5790 
G01 X-0.1867 Y0.5885 
G01 X-0.1902 Y0.5984 
G01 X-0.1925 Y0.6087 
G01 X-0.1937 Y0.6191 
G01 X-0.1937 Y0.6297 
G01 X-0.1925 Y0.6401 
G01 X-0.1902 Y0.6504 
G01 X-0.1867 Y0.6603 
G01 X-0.1821 Y0.6698 
G01 X-0.1765 Y0.6787 
G00 Z0.1000 
G00 X-0.5012 Y0.6799 
G01 Z-0.0070 F10.00 
G01 X-0.4972 Y0.6719 F20.00 
G01 X-0.4944 Y0.6633 
G01 X-0.4930 Y0.6545 
G01 X-0.4930 Y0.6455 
G01 X-0.4944 Y0.6367 
G01 X-0.4972 Y0.6281 
G01 X-0.5012 Y0.6201 
G01 X-0.5065 Y0.6129 
G01 X-0.5128 Y0.6066 
G01 X-0.5104 Y0.6061 
G01 X-0.5059 Y0.6042 
G01 X-0.5019 Y0.6015 
G01 X-0.4985 Y0.5981 
G01 X-0.4958 Y0.5941 
G01 X-0.4939 Y0.5896 
G01 X-0.4930 Y0.5849 
G01 X-0.4930 Y0.5151 
G01 X-0.4939 Y0.5104 
G01 X-0.4958 Y0.5059 
G01 X-0.4985 Y0.5019 
G01 X-0.5019 Y0.4985 
G01 X-0.5059 Y0.4958 
G01 X-0.5104 Y0.4939 
G01 X-0.5151 Y0.4930 
G01 X-0.5849 Y0.4930 
G01 X-0.5896 Y0.4939 
G01 X-0.5941 Y0.4958 
G01 X-0.5981 Y0.4985 
G01 X-0.6015 Y0.5019 
G01 X-0.6042 Y0.5059 
G01 X-0.6061 Y0.5104 
G01 X-0.6070 Y0.5151 
G01 X-0.6070 Y0.5849 
G01 X-0.6061 Y0.5896 
G01 X-0.6042 Y0.5941 
G01 X-0.6015 Y0.5981 
G01 X-0.5981 Y0.6015 
G01 X-0.5941 Y0.6042 
G01 X-0.5896 Y0.6061 
G01 X-0.5872 Y0.6066 
G01 X-0.5935 Y0.6129 
G01 X-0.5988 Y0.6201 
G01 X-0.6028 Y0.6281 
G01 X-0.6056 Y0.6367 
G01 X-0.6070 Y0.6455 
G01 X-0.6070 Y0.6545 
G01 X-0.6056 Y0.6633 
G01 X-0.6028 Y0.6719 
G01 X-0.5988 Y0.6799 
G01 X-0.5935 Y0.6871 
G01 X-0.5871 Y0.6935 
G01 X-0.5799 Y0.6988 
G01 X-0.5719 Y0.7028 
G01 X-0.5633 Y0.7056 
G01 X-0.5545 Y0.7070 
G01 X-0.5455 Y0.7070 
G01 X-0.5367 Y0.7056 
G01 X-0.5281 Y0.7028 
G01 X-0.5201 Y0.6988 
G01 X-0.5129 Y0.6935 
G01 X-0.5065 Y0.6871 
G01 X-0.5012 Y0.6799 
G00 Z0.1000 
G00 X-0.6475 Y0.6717 
G01 Z-0.0070 F10.00 
G01 X-0.6475 Y0.6283 F20.00 
G01 X-0.6780 Y0.5977 
G01 X-0.6725 Y0.5949 
G01 X-0.6658 Y0.5900 
G01 X-0.6600 Y0.5842 
G01 X-0.6551 Y0.5775 
G01 X-0.6513 Y0.5702 
G01 X-0.6488 Y0.5623 
G01 X-0.6475 Y0.5541 
G01 X-0.6475 Y0.5459 
G01 X-0.6488 Y0.5377 
G01 X-0.6513 Y0.5298 
G01 X-0.6551 Y0.5225 
G01 X-0.6600 Y0.5158 
G01 X-0.6658 Y0.5100 
G01 X-0.6725 Y0.5051 
G01 X-0.6798 Y0.5013 
G01 X-0.6877 Y0.4988 
G01 X-0.6959 Y0.4975 
G01 X-0.7041 Y0.4975 
G01 X-0.7123 Y0.4988 
G01 X-0.7202 Y0.5013 
G01 X-0.7275 Y0.5051 
G01 X-0.7342 Y0.5100 
G01 X-0.7400 Y0.5158 
G01 X-0.7449 Y0.5225 
G01 X-0.7487 Y0.5298 
G01 X-0.7512 Y0.5377 
G01 X-0.7525 Y0.5459 
G01 X-0.7525 Y0.5541 
G01 X-0.7512 Y0.5623 
G01 X-0.7487 Y0.5702 
G01 X-0.7449 Y0.5775 
G01 X-0.7400 Y0.5842 
G01 X-0.7342 Y0.5900 
G01 X-0.7275 Y0.5949 
G01 X-0.7220 Y0.5977 
G01 X-0.7525 Y0.6283 
G01 X-0.7525 Y0.6717 
G01 X-0.7217 Y0.7025 
G01 X-0.6783 Y0.7025 
G01 X-0.6475 Y0.6717 
G00 Z0.1000 
G00 X-0.8258 Y0.6085 
G01 Z-0.0070 F10.00 
G01 X-0.7915 Y0.5742 F20.00 
G01 X-0.7915 Y0.5258 
G01 X-0.8173 Y0.5000 
G01 X-0.7915 Y0.4742 
G01 X-0.7915 Y0.4258 
G01 X-0.8173 Y0.4000 
G01 X-0.7993 Y0.3820 
G01 X-0.7738 Y0.4075 
G01 X-0.7262 Y0.4075 
G01 X-0.6925 Y0.3738 
G01 X-0.6925 Y0.3262 
G01 X-0.7187 Y0.3000 
G01 X-0.6925 Y0.2738 
G01 X-0.6925 Y0.2262 
G01 X-0.7187 Y0.2000 
G01 X-0.6925 Y0.1738 
G01 X-0.6925 Y0.1262 
G01 X-0.7262 Y0.0925 
G01 X-0.7738 Y0.0925 
G01 X-0.8075 Y0.1262 
G01 X-0.8075 Y0.1738 
G01 X-0.7813 Y0.2000 
G01 X-0.7993 Y0.2180 
G01 X-0.8258 Y0.1915 
G01 X-0.8742 Y0.1915 
G01 X-0.9085 Y0.2258 
G01 X-0.9085 Y0.2742 
G01 X-0.8827 Y0.3000 
G01 X-0.9085 Y0.3258 
G01 X-0.9085 Y0.3742 
G01 X-0.8827 Y0.4000 
G01 X-0.9085 Y0.4258 
G01 X-0.9085 Y0.4742 
G01 X-0.8827 Y0.5000 
G01 X-0.9085 Y0.5258 
G01 X-0.9085 Y0.5742 
G01 X-0.8742 Y0.6085 
G01 X-0.8258 Y0.6085 
G00 Z0.1000 
G00 X-1.1258 Y0.6085 
G01 Z-0.0070 F10.00 
G01 X-1.0915 Y0.5742 F20.00 
G01 X-1.0915 Y0.5258 
G01 X-1.1173 Y0.5000 
G01 X-1.0915 Y0.4742 
G01 X-1.0915 Y0.4258 
G01 X-1.1173 Y0.4000 
G01 X-1.0915 Y0.3742 
G01 X-1.0915 Y0.3258 
G01 X-1.1173 Y0.3000 
G01 X-1.0915 Y0.2742 
G01 X-1.0915 Y0.2258 
G01 X-1.1258 Y0.1915 
G01 X-1.1742 Y0.1915 
G01 X-1.2085 Y0.2258 
G01 X-1.2085 Y0.2602 
G01 X-1.2262 Y0.2425 
G01 X-1.2738 Y0.2425 
G01 X-1.3075 Y0.2762 
G01 X-1.3075 Y0.3238 
G01 X-1.2813 Y0.3500 
G01 X-1.3075 Y0.3762 
G01 X-1.3075 Y0.4238 
G01 X-1.2813 Y0.4500 
G01 X-1.3075 Y0.4762 
G01 X-1.3075 Y0.5238 
G01 X-1.2738 Y0.5575 
G01 X-1.2262 Y0.5575 
G01 X-1.2085 Y0.5398 
G01 X-1.2085 Y0.5742 
G01 X-1.1742 Y0.6085 
G01 X-1.1258 Y0.6085 
G00 Z0.1000 
G00 X-1.1925 Y0.5098 
G01 Z-0.0070 F10.00 
G01 X-1.1925 Y0.4902 F20.00 
G01 X-1.1827 Y0.5000 
G01 X-1.1925 Y0.5098 
G00 Z0.1000 
G00 X-1.2085 Y0.4602 
G01 Z-0.0070 F10.00 
G01 X-1.2187 Y0.4500 F20.00 
G01 X-1.2085 Y0.4398 
G01 X-1.2085 Y0.4602 
G00 Z0.1000 
G00 X-1.1925 Y0.4098 
G01 Z-0.0070 F10.00 
G01 X-1.1925 Y0.3902 F20.00 
G01 X-1.1827 Y0.4000 
G01 X-1.1925 Y0.4098 
G00 Z0.1000 
G00 X-1.2085 Y0.3602 
G01 Z-0.0070 F10.00 
G01 X-1.2187 Y0.3500 F20.00 
G01 X-1.2085 Y0.3398 
G01 X-1.2085 Y0.3602 
G00 Z0.1000 
G00 X-1.1925 Y0.3098 
G01 Z-0.0070 F10.00 
G01 X-1.1925 Y0.2902 F20.00 
G01 X-1.1827 Y0.3000 
G01 X-1.1925 Y0.3098 
G00 Z0.1000 
G00 X-0.8173 Y0.3000 
G01 Z-0.0070 F10.00 
G01 X-0.7993 Y0.2820 F20.00 
G01 X-0.7813 Y0.3000 
G01 X-0.7993 Y0.3180 
G01 X-0.8173 Y0.3000 
G00 Z0.1000 
G00 X-1.5925 Y0.3238 
G01 Z-0.0070 F10.00 
G01 X-1.5925 Y0.2762 F20.00 
G01 X-1.6262 Y0.2425 
G01 X-1.6738 Y0.2425 
G01 X-1.7075 Y0.2762 
G01 X-1.7075 Y0.3238 
G01 X-1.6813 Y0.3500 
G01 X-1.7075 Y0.3762 
G01 X-1.7075 Y0.4238 
G01 X-1.6813 Y0.4500 
G01 X-1.7075 Y0.4762 
G01 X-1.7075 Y0.5238 
G01 X-1.6738 Y0.5575 
G01 X-1.6262 Y0.5575 
G01 X-1.5925 Y0.5238 
G01 X-1.5925 Y0.4762 
G01 X-1.6187 Y0.4500 
G01 X-1.5925 Y0.4238 
G01 X-1.5925 Y0.3762 
G01 X-1.6187 Y0.3500 
G01 X-1.5925 Y0.3238 
G00 Z0.1000 
G00 Z0.100000
G00 X-0.7000 Y0.5500 
G01 Z-0.0110 F20.00 
G01 Z0.100000
(R0.1000  P1.000000)
G00 X-0.7000 Y0.6500 
G01 Z-0.032000
G01 Z0.100000
G00 X-0.5500 Y0.5500 
G01 Z-0.032000
G01 Z0.100000
G00 X-0.5500 Y0.6500 
G01 Z-0.032000
G01 Z0.100000
G00 X-0.3000 Y0.4600 
G01 Z-0.032000
G01 Z0.100000
G00 X-0.3000 Y0.7400 
G01 Z-0.032000
G01 Z0.100000
G00 X-0.4000 Y0.4600 
G01 Z-0.032000
G01 Z0.100000
G00 X-0.4000 Y0.7400 
G01 Z-0.032000
G01 Z0.100000
G00 X-1.2500 Y0.4000 
G01 Z-0.032000
G01 Z0.100000
G00 X-1.6500 Y0.4000 
G01 Z-0.032000
G01 Z0.100000
G00 X-1.2500 Y0.5000 
G01 Z-0.032000
G01 Z0.100000
G00 X-1.6500 Y0.5000 
G01 Z-0.032000
G01 Z0.100000
G00 X-1.2500 Y0.3000 
G01 Z-0.032000
G01 Z0.100000
G00 X-1.6500 Y0.3000 
G01 Z-0.032000
G01 Z0.100000
G00 X-0.3500 Y0.3500 
G01 Z-0.032000
G01 Z0.100000
G00 X-0.7500 Y0.3500 
G01 Z-0.032000
G01 Z0.100000
G00 X-0.3500 Y0.2500 
G01 Z-0.032000
G01 Z0.100000
G00 X-0.7500 Y0.2500 
G01 Z-0.032000
G01 Z0.100000
G00 X-0.3500 Y0.1500 
G01 Z-0.032000
G01 Z0.100000
G00 X-0.7500 Y0.1500 
G01 Z-0.032000
G01 Z0.100000
G00 X-0.8500 Y0.5500 
G01 Z-0.032000
G01 Z0.100000
G00 X-0.8500 Y0.4500 
G01 Z-0.032000
G01 Z0.100000
G00 X-0.8500 Y0.3500 
G01 Z-0.032000
G01 Z0.100000
G00 X-0.8500 Y0.2500 
G01 Z-0.032000
G01 Z0.100000
G00 X-1.1500 Y0.2500 
G01 Z-0.032000
G01 Z0.100000
G00 X-1.1500 Y0.3500 
G01 Z-0.032000
G01 Z0.100000
G00 X-1.1500 Y0.4500 
G01 Z-0.032000
G01 Z0.100000
G00 X-1.1500 Y0.5500 
G01 Z-0.032000
G01 Z0.100000
G00 X-0.1000 Y0.6244 
G01 Z-0.032000
G01 Z0.100000
G00 X-0.1000 Y0.1756 
G01 Z-0.032000
G01 Z0.100000
G00 X-0.1000 Y0.4886 
G01 Z-0.032000
G01 Z0.100000
G00 X-0.1000 Y0.3114 
G01 Z-0.032000
G01 Z0.100000
G00 Z0.5000 
M05
M02
